(G-CODE GENERATED BY FLATCAM v8.991 - www.flatcam.org - Version Date: 2019/12/30)

(Name: Cncjob_Bottom_Copper_straightend)
(Type: G-code from Geometry)
(Units: MM)

(Created on Monday, 13 November 2023 at 17:34)

(TOOL DIAMETER: 1.5 mm)
(Feedrate: 1250.0 mm/min)
(Feedrate_Z: 250.0 mm/min)
(Feedrate rapids 1500.0 mm/min)

(Z_Cut: -0.04 mm)
(Z_Move: 0.5 mm)
(Z Toolchange: 15.0 mm)
(X,Y Toolchange: 0.0000, 0.0000 mm)
(Z Start: 0.5 mm)
(Z End: 2.0 mm)
(Steps per circle: 64)
(Preprocessor Geometry: default)

(X range:   17.9676 ...  127.9005  mm)
(Y range:    2.0995 ...  129.0250  mm)

(Spindle Speed: None RPM)
G21
G90
G94




G01 F1250.00
G00 Z0.5000
G00 Z0.5000
M03
G4 P1.0
G00 X35.6471 Y23.5515
G01 F250.00
G01 Z-0.0400
G01 F1250.00
G01 X35.6574 Y23.5472
G01 X35.6670 Y23.5431
G01 X35.6719 Y23.5411
G01 X35.7144 Y23.5234
G01 X35.7924 Y23.4912
G01 X35.9392 Y23.4318
G01 X36.0970 Y23.3697
G01 X36.2501 Y23.3111
G01 X36.4206 Y23.2478
G01 X36.5636 Y23.1961
G01 X36.7161 Y23.1426
G01 X36.8699 Y23.0901
G01 X42.4914 Y19.7790
G01 X35.6471 Y19.7790
G01 X35.6471 Y23.5515
G01 X36.1571 Y22.8014
G01 X36.2825 Y22.7553
G01 X36.3983 Y22.7136
G01 X36.5274 Y22.6682
G01 X36.6566 Y22.6239
G01 X40.6207 Y20.2890
G01 X36.1571 Y20.2890
G01 X36.1571 Y22.8014
G01 X36.6671 Y22.0258
G01 X38.7499 Y20.7990
G01 X36.6671 Y20.7990
G01 X36.6671 Y22.0258
G01 X35.1371 Y24.3376
G01 X35.2545 Y24.2826
G01 X35.3654 Y24.2315
G01 X35.4877 Y24.1763
G01 X35.6116 Y24.1216
G01 X35.7261 Y24.0720
G01 X35.8643 Y24.0134
G01 X35.9860 Y23.9630
G01 X36.0943 Y23.9190
G01 X36.2240 Y23.8676
G01 X36.3395 Y23.8227
G01 X36.4675 Y23.7742
G01 X36.5963 Y23.7266
G01 X36.7135 Y23.6841
G01 X36.8396 Y23.6396
G01 X36.9696 Y23.5948
G01 X37.0825 Y23.5568
G01 X44.3621 Y19.2690
G01 X35.1371 Y19.2690
G01 X35.1371 Y24.3376
G01 X34.6271 Y25.1653
G01 X34.7902 Y25.0793
G01 X34.8706 Y25.0377
G01 X34.9595 Y24.9924
G01 X35.1167 Y24.9139
G01 X35.2812 Y24.8340
G01 X35.3681 Y24.7925
G01 X35.4473 Y24.7553
G01 X35.6096 Y24.6808
G01 X35.7648 Y24.6113
G01 X35.9270 Y24.5408
G01 X36.0975 Y24.4687
G01 X36.2586 Y24.4027
G01 X36.4349 Y24.3327
G01 X36.6011 Y24.2689
G01 X36.6884 Y24.2362
G01 X36.7860 Y24.2002
G01 X36.9499 Y24.1414
G01 X37.0407 Y24.1096
G01 X37.1342 Y24.0775
G01 X37.2970 Y24.0231
G01 X45.4051 Y19.2465
G01 X46.2351 Y18.7590
G01 X34.6271 Y18.7590
G01 X34.6271 Y25.1653
G01 X34.1171 Y26.0384
G01 X34.4403 Y25.8519
G01 X34.5969 Y25.7632
G01 X34.6895 Y25.7118
G01 X34.7770 Y25.6639
G01 X34.8751 Y25.6111
G01 X34.9660 Y25.5629
G01 X35.0616 Y25.5130
G01 X35.1576 Y25.4638
G01 X35.2617 Y25.4112
G01 X35.3618 Y25.3617
G01 X35.4807 Y25.3039
G01 X35.5731 Y25.2598
G01 X35.6764 Y25.2113
G01 X35.7798 Y25.1636
G01 X35.8900 Y25.1138
G01 X36.0022 Y25.0640
G01 X36.1060 Y25.0189
G01 X36.2190 Y24.9708
G01 X36.3233 Y24.9272
G01 X36.4228 Y24.8864
G01 X36.5201 Y24.8473
G01 X36.6345 Y24.8023
G01 X36.7411 Y24.7612
G01 X36.8338 Y24.7262
G01 X36.9613 Y24.6792
G01 X37.0684 Y24.6405
G01 X37.1759 Y24.6026
G01 X37.2925 Y24.5624
G01 X37.3968 Y24.5272
G01 X37.5081 Y24.4906
G01 X45.6706 Y19.6820
G01 X48.1107 Y18.2490
G01 X34.1171 Y18.2490
G01 X34.1171 Y26.0384
G01 X33.6071 Y26.9219
G01 X34.6816 Y26.3014
G01 X34.8017 Y26.2331
G01 X34.9357 Y26.1584
G01 X35.0334 Y26.1050
G01 X35.1338 Y26.0511
G01 X35.2339 Y25.9983
G01 X35.3367 Y25.9450
G01 X35.4466 Y25.8891
G01 X35.5457 Y25.8396
G01 X35.6392 Y25.7938
G01 X35.7538 Y25.7386
G01 X35.8707 Y25.6834
G01 X35.9816 Y25.6321
G01 X36.0985 Y25.5792
G01 X36.2250 Y25.5232
G01 X36.3391 Y25.4739
G01 X36.4740 Y25.4169
G01 X36.5969 Y25.3662
G01 X36.7086 Y25.3212
G01 X36.8358 Y25.2712
G01 X36.9618 Y25.2229
G01 X37.1053 Y25.1696
G01 X37.2212 Y25.1275
G01 X37.3440 Y25.0840
G01 X37.4729 Y25.0397
G01 X37.5992 Y24.9974
G01 X37.7211 Y24.9578
G01 X45.9294 Y20.1215
G01 X49.9862 Y17.7390
G01 X33.6071 Y17.7390
G01 X33.6071 Y26.9219
G01 X33.0971 Y27.8053
G01 X34.9196 Y26.7529
G01 X35.0520 Y26.6774
G01 X35.1452 Y26.6253
G01 X35.2410 Y26.5726
G01 X35.3354 Y26.5216
G01 X35.4272 Y26.4728
G01 X35.5097 Y26.4296
G01 X35.6077 Y26.3792
G01 X35.7061 Y26.3294
G01 X35.7985 Y26.2836
G01 X35.9319 Y26.2188
G01 X36.0526 Y26.1613
G01 X36.1861 Y26.0994
G01 X36.3204 Y26.0386
G01 X36.4597 Y25.9773
G01 X36.6001 Y25.9171
G01 X36.7232 Y25.8656
G01 X36.8471 Y25.8151
G01 X36.9798 Y25.7624
G01 X37.1125 Y25.7112
G01 X37.2335 Y25.6659
G01 X37.3935 Y25.6075
G01 X37.5326 Y25.5584
G01 X37.6663 Y25.5126
G01 X37.7986 Y25.4687
G01 X37.9320 Y25.4258
G01 X46.1881 Y20.5609
G01 X51.8617 Y17.2290
G01 X33.0971 Y17.2290
G01 X33.0971 Y27.8053
G01 X32.5871 Y28.6887
G01 X35.1696 Y27.1974
G01 X35.2493 Y27.1518
G01 X35.3360 Y27.1028
G01 X35.4116 Y27.0608
G01 X35.5000 Y27.0123
G01 X35.5765 Y26.9711
G01 X35.6654 Y26.9238
G01 X35.7448 Y26.8822
G01 X35.8254 Y26.8407
G01 X35.9111 Y26.7972
G01 X36.0474 Y26.7295
G01 X36.1896 Y26.6608
G01 X36.3225 Y26.5981
G01 X36.4587 Y26.5357
G01 X36.5884 Y26.4777
G01 X36.7231 Y26.4191
G01 X36.8735 Y26.3554
G01 X37.0098 Y26.2994
G01 X37.1566 Y26.2409
G01 X37.2864 Y26.1907
G01 X37.4103 Y26.1442
G01 X37.5734 Y26.0848
G01 X37.7094 Y26.0369
G01 X37.8514 Y25.9885
G01 X37.9947 Y25.9413
G01 X38.1420 Y25.8944
G01 X46.4469 Y21.0004
G01 X53.7372 Y16.7190
G01 X32.5871 Y16.7190
G01 X32.5871 Y28.6887
G01 X32.0771 Y29.5722
G01 X35.4722 Y27.6117
G01 X35.6198 Y27.5285
G01 X35.7628 Y27.4500
G01 X35.8367 Y27.4102
G01 X35.9167 Y27.3678
G01 X36.0576 Y27.2947
G01 X36.1876 Y27.2291
G01 X36.3142 Y27.1669
G01 X36.4661 Y27.0941
G01 X36.5449 Y27.0572
G01 X36.6183 Y27.0233
G01 X36.7588 Y26.9600
G01 X36.8963 Y26.8997
G01 X37.0483 Y26.8351
G01 X37.1904 Y26.7765
G01 X37.3362 Y26.7183
G01 X37.4754 Y26.6645
G01 X37.5480 Y26.6371
G01 X37.6341 Y26.6053
G01 X37.7667 Y26.5573
G01 X37.9131 Y26.5061
G01 X38.0619 Y26.4559
G01 X38.2015 Y26.4105
G01 X38.3555 Y26.3621
G01 X46.7057 Y21.4399
G01 X54.6368 Y16.7822
G01 X54.7390 Y16.7230
G01 X54.8541 Y16.6576
G01 X54.9856 Y16.5846
G01 X55.0899 Y16.5277
G01 X55.1766 Y16.4813
G01 X55.2656 Y16.4345
G01 X55.7007 Y16.2090
G01 X32.0771 Y16.2090
G01 X32.0771 Y29.5722
G01 X31.5671 Y30.4556
G01 X35.7101 Y28.0632
G01 X35.8501 Y27.9840
G01 X35.9740 Y27.9157
G01 X36.1000 Y27.8478
G01 X36.2303 Y27.7794
G01 X36.3699 Y27.7082
G01 X36.5006 Y27.6434
G01 X36.6508 Y27.5709
G01 X36.7971 Y27.5024
G01 X36.9326 Y27.4409
G01 X37.0770 Y27.3772
G01 X37.2302 Y27.3118
G01 X37.3738 Y27.2525
G01 X37.5296 Y27.1903
G01 X37.6679 Y27.1369
G01 X37.8258 Y27.0782
G01 X37.9705 Y27.0262
G01 X38.0511 Y26.9980
G01 X38.1298 Y26.9710
G01 X38.2690 Y26.9246
G01 X38.4041 Y26.8812
G01 X38.5624 Y26.8322
G01 X46.9644 Y21.8794
G01 X54.9067 Y17.2151
G01 X55.0209 Y17.1492
G01 X55.1318 Y17.0866
G01 X55.2649 Y17.0131
G01 X55.3948 Y16.9429
G01 X55.5245 Y16.8747
G01 X56.2603 Y16.4935
G01 X56.3775 Y16.3922
G01 X56.5109 Y16.2797
G01 X56.6256 Y16.1852
G01 X56.7524 Y16.0833
G01 X56.8133 Y16.0351
G01 X56.8797 Y15.9834
G01 X57.0158 Y15.8794
G01 X57.1404 Y15.7863
G01 X57.2601 Y15.6990
G01 X31.5671 Y15.6990
G01 X31.5671 Y30.4556
G01 X31.0571 Y31.3390
G01 X35.9534 Y28.5116
G01 X36.0572 Y28.4526
G01 X36.1843 Y28.3819
G01 X36.2997 Y28.3193
G01 X36.4170 Y28.2572
G01 X36.5496 Y28.1888
G01 X36.6245 Y28.1511
G01 X36.6948 Y28.1161
G01 X36.8496 Y28.0411
G01 X36.9902 Y27.9750
G01 X37.1310 Y27.9108
G01 X37.2731 Y27.8481
G01 X37.4282 Y27.7818
G01 X37.5023 Y27.7509
G01 X37.5742 Y27.7215
G01 X37.7243 Y27.6617
G01 X37.8635 Y27.6082
G01 X38.0192 Y27.5505
G01 X38.1654 Y27.4982
G01 X38.3189 Y27.4454
G01 X38.4664 Y27.3967
G01 X38.6295 Y27.3450
G01 X38.7682 Y27.3028
G01 X47.2232 Y22.3189
G01 X55.1640 Y17.6555
G01 X55.2803 Y17.5884
G01 X55.3955 Y17.5235
G01 X55.5254 Y17.4519
G01 X55.6422 Y17.3890
G01 X55.7622 Y17.3259
G01 X56.5501 Y16.9177
G01 X56.6142 Y16.8615
G01 X56.6871 Y16.7986
G01 X56.7465 Y16.7479
G01 X56.8377 Y16.6713
G01 X56.9113 Y16.6104
G01 X56.9747 Y16.5587
G01 X57.0479 Y16.4999
G01 X57.1155 Y16.4463
G01 X57.1848 Y16.3922
G01 X57.2511 Y16.3412
G01 X57.3372 Y16.2757
G01 X57.4092 Y16.2219
G01 X57.4875 Y16.1641
G01 X57.5667 Y16.1067
G01 X57.6370 Y16.0563
G01 X57.7122 Y16.0034
G01 X57.7861 Y15.9521
G01 X57.8685 Y15.8957
G01 X57.9295 Y15.8545
G01 X58.0042 Y15.8047
G01 X58.0807 Y15.7545
G01 X58.1563 Y15.7056
G01 X58.2258 Y15.6614
G01 X58.3098 Y15.6088
G01 X58.4470 Y15.5246
G01 X58.5897 Y15.4395
G01 X58.6710 Y15.3920
G01 X59.0226 Y15.1890
G01 X31.0571 Y15.1890
G01 X31.0571 Y31.3390
G01 X30.5471 Y32.2225
G01 X36.2014 Y28.9573
G01 X36.3036 Y28.8992
G01 X36.4132 Y28.8381
G01 X36.5162 Y28.7820
G01 X36.6182 Y28.7276
G01 X36.7543 Y28.6569
G01 X36.8286 Y28.6192
G01 X36.8993 Y28.5840
G01 X36.9663 Y28.5511
G01 X37.0552 Y28.5081
G01 X37.1900 Y28.4445
G01 X37.3320 Y28.3796
G01 X37.4053 Y28.3470
G01 X37.4765 Y28.3158
G01 X37.6340 Y28.2486
G01 X37.7724 Y28.1915
G01 X37.9196 Y28.1330
G01 X38.0646 Y28.0775
G01 X38.2241 Y28.0187
G01 X38.3701 Y27.9670
G01 X38.5178 Y27.9166
G01 X38.6677 Y27.8677
G01 X38.8296 Y27.8171
G01 X38.9754 Y27.7735
G01 X47.4819 Y22.7584
G01 X55.4213 Y18.0958
G01 X55.5331 Y18.0313
G01 X55.6439 Y17.9689
G01 X55.7696 Y17.8996
G01 X55.8867 Y17.8366
G01 X55.9972 Y17.7786
G01 X56.8410 Y17.3414
G01 X56.9279 Y17.2646
G01 X57.0160 Y17.1884
G01 X57.1205 Y17.0996
G01 X57.2012 Y17.0324
G01 X57.2902 Y16.9595
G01 X57.3873 Y16.8816
G01 X57.4777 Y16.8104
G01 X57.5609 Y16.7463
G01 X57.6639 Y16.6682
G01 X57.7560 Y16.5997
G01 X57.8607 Y16.5234
G01 X57.9540 Y16.4568
G01 X58.0526 Y16.3879
G01 X58.1651 Y16.3107
G01 X58.2623 Y16.2455
G01 X58.3592 Y16.1817
G01 X58.4812 Y16.1033
G01 X58.6099 Y16.0227
G01 X58.7391 Y15.9440
G01 X58.8757 Y15.8630
G01 X60.9257 Y14.6790
G01 X30.5471 Y14.6790
G01 X30.5471 Y32.2225
G01 X30.0371 Y33.1059
G01 X36.4560 Y29.3992
G01 X36.5476 Y29.3470
G01 X36.6408 Y29.2950
G01 X36.7252 Y29.2487
G01 X36.8182 Y29.1988
G01 X36.8902 Y29.1608
G01 X36.9583 Y29.1254
G01 X37.0977 Y29.0549
G01 X37.1730 Y29.0177
G01 X37.2542 Y28.9783
G01 X37.3893 Y28.9143
G01 X37.4613 Y28.8810
G01 X37.5414 Y28.8447
G01 X37.6798 Y28.7835
G01 X37.8375 Y28.7162
G01 X37.9776 Y28.6586
G01 X38.1212 Y28.6018
G01 X38.2621 Y28.5481
G01 X38.4168 Y28.4913
G01 X38.4974 Y28.4627
G01 X38.5760 Y28.4354
G01 X38.7180 Y28.3876
G01 X38.7889 Y28.3644
G01 X38.8641 Y28.3405
G01 X38.9463 Y28.3147
G01 X39.0179 Y28.2929
G01 X39.1025 Y28.2677
G01 X39.1880 Y28.2429
G01 X47.7406 Y23.1979
G01 X55.6785 Y18.5362
G01 X55.7859 Y18.4743
G01 X55.8972 Y18.4116
G01 X56.0184 Y18.3448
G01 X56.1335 Y18.2830
G01 X56.2322 Y18.2312
G01 X57.1329 Y17.7645
G01 X57.2304 Y17.6777
G01 X57.3224 Y17.5975
G01 X57.4396 Y17.4977
G01 X57.5262 Y17.4254
G01 X57.6251 Y17.3446
G01 X57.7264 Y17.2635
G01 X57.8249 Y17.1866
G01 X57.9302 Y17.1061
G01 X58.0330 Y17.0291
G01 X58.1286 Y16.9590
G01 X58.2337 Y16.8837
G01 X58.3384 Y16.8102
G01 X58.4517 Y16.7326
G01 X58.5539 Y16.6640
G01 X58.6644 Y16.5916
G01 X58.7706 Y16.5237
G01 X58.8719 Y16.4604
G01 X58.9687 Y16.4011
G01 X59.0769 Y16.3363
G01 X59.1716 Y16.2808
G01 X62.8288 Y14.1690
G01 X30.0371 Y14.1690
G01 X30.0371 Y33.1059
G01 X29.5271 Y33.9893
G01 X36.7039 Y29.8450
G01 X36.7853 Y29.7985
G01 X36.8684 Y29.7519
G01 X36.9511 Y29.7064
G01 X37.0288 Y29.6644
G01 X37.1050 Y29.6240
G01 X37.1724 Y29.5889
G01 X37.2333 Y29.5576
G01 X37.3094 Y29.5192
G01 X37.3842 Y29.4821
G01 X37.4691 Y29.4409
G01 X37.5993 Y29.3791
G01 X37.6643 Y29.3490
G01 X37.7452 Y29.3122
G01 X37.8104 Y29.2831
G01 X37.8831 Y29.2512
G01 X38.0372 Y29.1855
G01 X38.1115 Y29.1547
G01 X38.1801 Y29.1269
G01 X38.2608 Y29.0948
G01 X38.3280 Y29.0686
G01 X38.3972 Y29.0421
G01 X38.4683 Y29.0155
G01 X38.5513 Y28.9850
G01 X38.6218 Y28.9597
G01 X38.7050 Y28.9304
G01 X38.7866 Y28.9024
G01 X38.8644 Y28.8763
G01 X38.9381 Y28.8522
G01 X39.0972 Y28.8019
G01 X39.1653 Y28.7811
G01 X39.2415 Y28.7584
G01 X39.3903 Y28.7157
G01 X47.9994 Y23.6374
G01 X55.9358 Y18.9766
G01 X56.0387 Y18.9172
G01 X56.1454 Y18.8571
G01 X56.2623 Y18.7927
G01 X56.3796 Y18.7298
G01 X56.4671 Y18.6839
G01 X57.4262 Y18.1869
G01 X57.5340 Y18.0901
G01 X57.6266 Y18.0087
G01 X57.7269 Y17.9227
G01 X57.8404 Y17.8273
G01 X57.9375 Y17.7478
G01 X58.0489 Y17.6588
G01 X58.1460 Y17.5830
G01 X58.2522 Y17.5020
G01 X58.3613 Y17.4207
G01 X58.4681 Y17.3429
G01 X58.5737 Y17.2680
G01 X58.6754 Y17.1974
G01 X58.7958 Y17.1157
G01 X58.9075 Y17.0419
G01 X59.0186 Y16.9703
G01 X59.1332 Y16.8984
G01 X59.2101 Y16.8512
G01 X59.2809 Y16.8085
G01 X59.3586 Y16.7622
G01 X59.4374 Y16.7162
G01 X64.7318 Y13.6590
G01 X29.5271 Y13.6590
G01 X29.5271 Y33.9893
G01 X29.0171 Y34.8728
G01 X36.9588 Y30.2867
G01 X37.0274 Y30.2475
G01 X37.1093 Y30.2015
G01 X37.1791 Y30.1630
G01 X37.2525 Y30.1232
G01 X37.3289 Y30.0825
G01 X37.3905 Y30.0503
G01 X37.4611 Y30.0139
G01 X37.5343 Y29.9769
G01 X37.6089 Y29.9400
G01 X37.6910 Y29.9001
G01 X37.8208 Y29.8385
G01 X37.8863 Y29.8083
G01 X37.9601 Y29.7748
G01 X38.0945 Y29.7155
G01 X38.2490 Y29.6498
G01 X38.3211 Y29.6200
G01 X38.3897 Y29.5923
G01 X38.4740 Y29.5590
G01 X38.5479 Y29.5304
G01 X38.6191 Y29.5035
G01 X38.6981 Y29.4744
G01 X38.7716 Y29.4477
G01 X38.8414 Y29.4229
G01 X38.9073 Y29.4001
G01 X38.9869 Y29.3731
G01 X39.0632 Y29.3478
G01 X39.1337 Y29.3250
G01 X39.2269 Y29.2957
G01 X39.2976 Y29.2739
G01 X39.4321 Y29.2341
G01 X39.5170 Y29.2099
G01 X39.5943 Y29.1885
G01 X48.2540 Y24.0793
G01 X56.1931 Y19.4169
G01 X56.3001 Y19.3553
G01 X56.4006 Y19.2988
G01 X56.5151 Y19.2358
G01 X56.6227 Y19.1781
G01 X56.7021 Y19.1365
G01 X57.7208 Y18.6087
G01 X57.8234 Y18.5153
G01 X57.9248 Y18.4253
G01 X58.0276 Y18.3364
G01 X58.1357 Y18.2450
G01 X58.2356 Y18.1627
G01 X58.3443 Y18.0753
G01 X58.4462 Y17.9955
G01 X58.5550 Y17.9125
G01 X58.6687 Y17.8276
G01 X58.7847 Y17.7435
G01 X58.8957 Y17.6651
G01 X59.0069 Y17.5885
G01 X59.1093 Y17.5196
G01 X59.2251 Y17.4437
G01 X59.3404 Y17.3703
G01 X59.4451 Y17.3053
G01 X59.5615 Y17.2349
G01 X59.6308 Y17.1938
G01 X59.6929 Y17.1576
G01 X66.6349 Y13.1490
G01 X29.0171 Y13.1490
G01 X29.0171 Y34.8728
G01 X28.5071 Y35.7562
G01 X37.2137 Y30.7285
G01 X37.2790 Y30.6911
G01 X37.3437 Y30.6547
G01 X37.4119 Y30.6170
G01 X37.4762 Y30.5820
G01 X37.5392 Y30.5482
G01 X37.6174 Y30.5071
G01 X37.6831 Y30.4732
G01 X37.7543 Y30.4372
G01 X37.8299 Y30.3996
G01 X37.9130 Y30.3593
G01 X37.9775 Y30.3284
G01 X38.0452 Y30.2966
G01 X38.1103 Y30.2666
G01 X38.1835 Y30.2335
G01 X38.2579 Y30.2006
G01 X38.3236 Y30.1720
G01 X38.4050 Y30.1374
G01 X38.4760 Y30.1077
G01 X38.5505 Y30.0773
G01 X38.6204 Y30.0495
G01 X38.6873 Y30.0232
G01 X38.7649 Y29.9936
G01 X38.9184 Y29.9369
G01 X39.0520 Y29.8897
G01 X39.1294 Y29.8632
G01 X39.2029 Y29.8387
G01 X39.2823 Y29.8129
G01 X39.3676 Y29.7860
G01 X39.4324 Y29.7660
G01 X39.5054 Y29.7440
G01 X39.5735 Y29.7241
G01 X39.6594 Y29.6996
G01 X39.7309 Y29.6799
G01 X39.7994 Y29.6615
G01 X48.5129 Y24.5186
G01 X56.4503 Y19.8573
G01 X56.5525 Y19.7984
G01 X56.6484 Y19.7445
G01 X56.7587 Y19.6839
G01 X56.8691 Y19.6248
G01 X56.9371 Y19.5892
G01 X58.0169 Y19.0296
G01 X58.0685 Y18.9818
G01 X58.1231 Y18.9319
G01 X58.2249 Y18.8406
G01 X58.3300 Y18.7490
G01 X58.4395 Y18.6559
G01 X58.5456 Y18.5680
G01 X58.6515 Y18.4827
G01 X58.7482 Y18.4067
G01 X58.8548 Y18.3251
G01 X58.9665 Y18.2417
G01 X59.0818 Y18.1581
G01 X59.1937 Y18.0791
G01 X59.3071 Y18.0012
G01 X59.4108 Y17.9316
G01 X59.5291 Y17.8546
G01 X59.6417 Y17.7834
G01 X59.7499 Y17.7167
G01 X59.8574 Y17.6523
G01 X59.9484 Y17.5990
G01 X68.5380 Y12.6390
G01 X28.5071 Y12.6390
G01 X28.5071 Y35.7562
G01 X27.9971 Y36.6396
G01 X37.4650 Y31.1723
G01 X37.5257 Y31.1375
G01 X37.5926 Y31.0999
G01 X37.7075 Y31.0367
G01 X37.7706 Y31.0028
G01 X37.8441 Y30.9640
G01 X37.9111 Y30.9294
G01 X37.9831 Y30.8930
G01 X38.0548 Y30.8573
G01 X38.1349 Y30.8184
G01 X38.1960 Y30.7892
G01 X38.2651 Y30.7568
G01 X38.3295 Y30.7272
G01 X38.4060 Y30.6927
G01 X38.4738 Y30.6628
G01 X38.5381 Y30.6350
G01 X38.6160 Y30.6019
G01 X38.6775 Y30.5763
G01 X38.7513 Y30.5463
G01 X38.8304 Y30.5149
G01 X38.8947 Y30.4899
G01 X38.9655 Y30.4630
G01 X39.0549 Y30.4299
G01 X39.1208 Y30.4061
G01 X39.1930 Y30.3806
G01 X39.2730 Y30.3531
G01 X39.3372 Y30.3315
G01 X39.4097 Y30.3077
G01 X39.4747 Y30.2870
G01 X39.5665 Y30.2583
G01 X39.6379 Y30.2367
G01 X39.7014 Y30.2180
G01 X39.7811 Y30.1951
G01 X39.8542 Y30.1749
G01 X39.9160 Y30.1582
G01 X39.9993 Y30.1364
G01 X48.7719 Y24.9580
G01 X56.7075 Y20.2977
G01 X56.8049 Y20.2416
G01 X56.9016 Y20.1873
G01 X57.0077 Y20.1290
G01 X57.1133 Y20.0725
G01 X58.3142 Y19.4500
G01 X58.4142 Y19.3567
G01 X58.5094 Y19.2702
G01 X58.6140 Y19.1777
G01 X58.7167 Y19.0894
G01 X58.8209 Y19.0019
G01 X58.9225 Y18.9190
G01 X58.9805 Y18.8726
G01 X59.0374 Y18.8279
G01 X59.0892 Y18.7877
G01 X59.1499 Y18.7414
G01 X59.2051 Y18.6998
G01 X59.2615 Y18.6578
G01 X59.3745 Y18.5757
G01 X59.4793 Y18.5016
G01 X59.5939 Y18.4229
G01 X59.6977 Y18.3533
G01 X59.8121 Y18.2789
G01 X59.9234 Y18.2087
G01 X60.0339 Y18.1410
G01 X60.1227 Y18.0879
G01 X60.2038 Y18.0404
G01 X70.4411 Y12.1290
G01 X27.9971 Y12.1290
G01 X27.9971 Y36.6396
G01 X27.4871 Y37.5231
G01 X37.7200 Y31.6139
G01 X37.8368 Y31.5476
G01 X37.9378 Y31.4920
G01 X38.0043 Y31.4562
G01 X38.0771 Y31.4177
G01 X38.1435 Y31.3834
G01 X38.2088 Y31.3503
G01 X38.2797 Y31.3151
G01 X38.3568 Y31.2776
G01 X38.4223 Y31.2463
G01 X38.4859 Y31.2166
G01 X38.5408 Y31.1914
G01 X38.6196 Y31.1559
G01 X38.6861 Y31.1266
G01 X38.7518 Y31.0983
G01 X38.8254 Y31.0671
G01 X38.8999 Y31.0363
G01 X38.9633 Y31.0108
G01 X39.0459 Y30.9782
G01 X39.1157 Y30.9514
G01 X39.1764 Y30.9287
G01 X39.2556 Y30.8996
G01 X39.3357 Y30.8710
G01 X39.3982 Y30.8492
G01 X39.4734 Y30.8237
G01 X39.5435 Y30.8005
G01 X39.6127 Y30.7782
G01 X39.6907 Y30.7537
G01 X39.7547 Y30.7341
G01 X39.8272 Y30.7125
G01 X39.9094 Y30.6888
G01 X39.9696 Y30.6720
G01 X40.0471 Y30.6510
G01 X40.1337 Y30.6284
G01 X40.2051 Y30.6103
G01 X49.0308 Y25.3974
G01 X56.9648 Y20.7381
G01 X57.0573 Y20.6847
G01 X57.1491 Y20.6332
G01 X57.2542 Y20.5755
G01 X57.3548 Y20.5217
G01 X58.6131 Y19.8695
G01 X58.6618 Y19.8232
G01 X58.7234 Y19.7655
G01 X58.8195 Y19.6773
G01 X58.9226 Y19.5853
G01 X59.0269 Y19.4950
G01 X59.1361 Y19.4031
G01 X59.2363 Y19.3211
G01 X59.2957 Y19.2736
G01 X59.3545 Y19.2273
G01 X59.4041 Y19.1889
G01 X59.4670 Y19.1410
G01 X59.5223 Y19.0994
G01 X59.5757 Y19.0598
G01 X59.6877 Y18.9787
G01 X59.7952 Y18.9032
G01 X59.9198 Y18.8181
G01 X60.0302 Y18.7452
G01 X60.1355 Y18.6777
G01 X60.1952 Y18.6402
G01 X60.2612 Y18.5996
G01 X60.3217 Y18.5630
G01 X60.3825 Y18.5267
G01 X60.4593 Y18.4818
G01 X72.3442 Y11.6190
G01 X27.4871 Y11.6190
G01 X27.4871 Y37.5231
G01 X26.9771 Y38.4065
G01 X37.9751 Y32.0556
G01 X38.0806 Y31.9956
G01 X38.1725 Y31.9449
G01 X38.2401 Y31.9084
G01 X38.3097 Y31.8716
G01 X38.3734 Y31.8387
G01 X38.4378 Y31.8060
G01 X38.5075 Y31.7714
G01 X38.5840 Y31.7343
G01 X38.6444 Y31.7055
G01 X38.7064 Y31.6765
G01 X38.7818 Y31.6421
G01 X38.8484 Y31.6123
G01 X38.9184 Y31.5817
G01 X38.9970 Y31.5482
G01 X39.0601 Y31.5219
G01 X39.1234 Y31.4960
G01 X39.1967 Y31.4668
G01 X39.2563 Y31.4436
G01 X39.3289 Y31.4161
G01 X39.4137 Y31.3848
G01 X39.4766 Y31.3621
G01 X39.5479 Y31.3371
G01 X39.6238 Y31.3112
G01 X39.6985 Y31.2864
G01 X39.7595 Y31.2667
G01 X39.8423 Y31.2406
G01 X39.9020 Y31.2223
G01 X39.9747 Y31.2007
G01 X40.0542 Y31.1779
G01 X40.1237 Y31.1586
G01 X40.1896 Y31.1409
G01 X40.2715 Y31.1195
G01 X40.3420 Y31.1018
G01 X40.4059 Y31.0862
G01 X49.2897 Y25.8368
G01 X57.2220 Y21.1784
G01 X57.3097 Y21.1279
G01 X57.3966 Y21.0791
G01 X57.4972 Y21.0239
G01 X57.5926 Y20.9729
G01 X58.9140 Y20.2880
G01 X58.9549 Y20.2484
G01 X59.0087 Y20.1971
G01 X59.1154 Y20.0977
G01 X59.2087 Y20.0132
G01 X59.2594 Y19.9683
G01 X59.3141 Y19.9206
G01 X59.3617 Y19.8797
G01 X59.4247 Y19.8265
G01 X59.5185 Y19.7489
G01 X59.6250 Y19.6633
G01 X59.6764 Y19.6230
G01 X59.7292 Y19.5823
G01 X59.7898 Y19.5363
G01 X59.8421 Y19.4971
G01 X59.9004 Y19.4542
G01 X59.9624 Y19.4093
G01 X60.0152 Y19.3717
G01 X60.0721 Y19.3318
G01 X60.1901 Y19.2510
G01 X60.2457 Y19.2138
G01 X60.3023 Y19.1766
G01 X60.4076 Y19.1091
G01 X60.4646 Y19.0733
G01 X60.5272 Y19.0347
G01 X60.5843 Y19.0002
G01 X60.6501 Y18.9610
G01 X60.7147 Y18.9233
G01 X74.2473 Y11.1090
G01 X26.9771 Y11.1090
G01 X26.9771 Y38.4065
G01 X26.4671 Y39.2900
G01 X38.2301 Y32.4972
G01 X38.3077 Y32.4530
G01 X38.4049 Y32.3990
G01 X38.4690 Y32.3643
G01 X38.5369 Y32.3284
G01 X38.5989 Y32.2962
G01 X38.6634 Y32.2634
G01 X38.7295 Y32.2306
G01 X38.8056 Y32.1936
G01 X38.8673 Y32.1642
G01 X38.9293 Y32.1353
G01 X38.9961 Y32.1049
G01 X39.0601 Y32.0763
G01 X39.1297 Y32.0460
G01 X39.2098 Y32.0120
G01 X39.2742 Y31.9852
G01 X39.3327 Y31.9615
G01 X39.4026 Y31.9339
G01 X39.4707 Y31.9076
G01 X39.5266 Y31.8867
G01 X39.6125 Y31.8552
G01 X39.6751 Y31.8329
G01 X39.7416 Y31.8098
G01 X39.8158 Y31.7847
G01 X39.8866 Y31.7615
G01 X39.9783 Y31.7325
G01 X40.0390 Y31.7137
G01 X40.1090 Y31.6928
G01 X40.1775 Y31.6730
G01 X40.2388 Y31.6559
G01 X40.3093 Y31.6368
G01 X40.3930 Y31.6149
G01 X40.4650 Y31.5967
G01 X40.5307 Y31.5807
G01 X40.6051 Y31.5633
G01 X49.5423 Y26.2799
G01 X57.4792 Y21.6188
G01 X57.5621 Y21.5711
G01 X57.6441 Y21.5250
G01 X57.7402 Y21.4723
G01 X57.8358 Y21.4212
G01 X59.2168 Y20.7055
G01 X59.3083 Y20.6161
G01 X59.3591 Y20.5677
G01 X59.4156 Y20.5147
G01 X59.5086 Y20.4294
G01 X59.6064 Y20.3423
G01 X59.6987 Y20.2627
G01 X59.7588 Y20.2119
G01 X59.8055 Y20.1731
G01 X59.8556 Y20.1321
G01 X59.9134 Y20.0855
G01 X59.9622 Y20.0470
G01 X60.0152 Y20.0057
G01 X60.1263 Y19.9214
G01 X60.1803 Y19.8813
G01 X60.2297 Y19.8453
G01 X60.2881 Y19.8033
G01 X60.3446 Y19.7635
G01 X60.3946 Y19.7288
G01 X60.4671 Y19.6793
G01 X60.5207 Y19.6434
G01 X60.5765 Y19.6067
G01 X60.6797 Y19.5404
G01 X60.7425 Y19.5011
G01 X60.7984 Y19.4667
G01 X60.9135 Y19.3978
G01 X60.9701 Y19.3647
G01 X76.1504 Y10.5990
G01 X26.4671 Y10.5990
G01 X26.4671 Y39.2900
G01 X25.9571 Y40.1734
G01 X38.4851 Y32.9389
G01 X38.5577 Y32.8975
G01 X38.6441 Y32.8495
G01 X38.7100 Y32.8138
G01 X38.7739 Y32.7799
G01 X38.8319 Y32.7498
G01 X38.8959 Y32.7173
G01 X38.9568 Y32.6871
G01 X39.0373 Y32.6481
G01 X39.0897 Y32.6232
G01 X39.1545 Y32.5931
G01 X39.2245 Y32.5613
G01 X39.2913 Y32.5318
G01 X39.3461 Y32.5082
G01 X39.4278 Y32.4736
G01 X39.4925 Y32.4470
G01 X39.5632 Y32.4188
G01 X39.6180 Y32.3973
G01 X39.6820 Y32.3730
G01 X39.7571 Y32.3453
G01 X39.8185 Y32.3231
G01 X39.8859 Y32.2995
G01 X39.9586 Y32.2747
G01 X40.0242 Y32.2530
G01 X40.0848 Y32.2336
G01 X40.1664 Y32.2081
G01 X40.2365 Y32.1869
G01 X40.3141 Y32.1644
G01 X40.3744 Y32.1475
G01 X40.4404 Y32.1296
G01 X40.5203 Y32.1087
G01 X40.5912 Y32.0909
G01 X40.6530 Y32.0759
G01 X40.7276 Y32.0584
G01 X40.7954 Y32.0432
G01 X49.8015 Y26.7191
G01 X57.7400 Y22.0571
G01 X57.8226 Y22.0096
G01 X57.8988 Y21.9669
G01 X57.9879 Y21.9181
G01 X58.0782 Y21.8700
G01 X59.5218 Y21.1219
G01 X59.5665 Y21.0770
G01 X59.6165 Y21.0277
G01 X59.6579 Y20.9875
G01 X59.7058 Y20.9417
G01 X59.8083 Y20.8462
G01 X59.8551 Y20.8036
G01 X59.9088 Y20.7556
G01 X59.9556 Y20.7145
G01 X60.0050 Y20.6718
G01 X60.1108 Y20.5824
G01 X60.1989 Y20.5103
G01 X60.2482 Y20.4709
G01 X60.3030 Y20.4279
G01 X60.4139 Y20.3432
G01 X60.4658 Y20.3045
G01 X60.5160 Y20.2676
G01 X60.5749 Y20.2252
G01 X60.6293 Y20.1868
G01 X60.7411 Y20.1097
G01 X60.7953 Y20.0733
G01 X60.8503 Y20.0370
G01 X60.9461 Y19.9753
G01 X61.0032 Y19.9395
G01 X61.0592 Y19.9050
G01 X61.1095 Y19.8746
G01 X61.1726 Y19.8371
G01 X61.2255 Y19.8061
G01 X78.0535 Y10.0890
G01 X25.9571 Y10.0890
G01 X25.9571 Y40.1734
G01 X25.4471 Y41.0568
G01 X38.7402 Y33.3805
G01 X38.8061 Y33.3429
G01 X38.8813 Y33.3011
G01 X38.9465 Y33.2657
G01 X39.0088 Y33.2326
G01 X39.0648 Y33.2035
G01 X39.1249 Y33.1730
G01 X39.1878 Y33.1418
G01 X39.2581 Y33.1078
G01 X39.3203 Y33.0784
G01 X39.3735 Y33.0538
G01 X39.4341 Y33.0263
G01 X39.5018 Y32.9964
G01 X39.6313 Y32.9413
G01 X39.6962 Y32.9147
G01 X39.7639 Y32.8878
G01 X39.8262 Y32.8637
G01 X39.8855 Y32.8415
G01 X39.9511 Y32.8174
G01 X40.0145 Y32.7948
G01 X40.0717 Y32.7749
G01 X40.1480 Y32.7492
G01 X40.2163 Y32.7269
G01 X40.2968 Y32.7016
G01 X40.3608 Y32.6821
G01 X40.4203 Y32.6646
G01 X40.4861 Y32.6458
G01 X40.5488 Y32.6286
G01 X40.6343 Y32.6060
G01 X40.6963 Y32.5903
G01 X40.7679 Y32.5728
G01 X40.8447 Y32.5548
G01 X40.9130 Y32.5396
G01 X40.9833 Y32.5246
G01 X50.0608 Y27.1583
G01 X57.9969 Y22.4977
G01 X58.0744 Y22.4531
G01 X58.1459 Y22.4131
G01 X58.2306 Y22.3667
G01 X58.3181 Y22.3201
G01 X59.8295 Y21.5369
G01 X59.8704 Y21.4948
G01 X59.9148 Y21.4500
G01 X60.0061 Y21.3602
G01 X60.0565 Y21.3120
G01 X60.1116 Y21.2603
G01 X60.1955 Y21.1834
G01 X60.2512 Y21.1336
G01 X60.2974 Y21.0931
G01 X60.3476 Y21.0498
G01 X60.4037 Y21.0023
G01 X60.4894 Y20.9314
G01 X60.5857 Y20.8543
G01 X60.6406 Y20.8115
G01 X60.7038 Y20.7633
G01 X60.7499 Y20.7287
G01 X60.8006 Y20.6913
G01 X60.8555 Y20.6515
G01 X60.9057 Y20.6159
G01 X60.9569 Y20.5801
G01 X61.0169 Y20.5389
G01 X61.1074 Y20.4783
G01 X61.1594 Y20.4443
G01 X61.2125 Y20.4103
G01 X61.2709 Y20.3736
G01 X61.3252 Y20.3401
G01 X61.4317 Y20.2763
G01 X61.4809 Y20.2476
G01 X79.9565 Y9.5790
G01 X25.4471 Y9.5790
G01 X25.4471 Y41.0568
G01 X24.9371 Y41.9403
G01 X38.9952 Y33.8222
G01 X39.0532 Y33.7891
G01 X39.1211 Y33.7512
G01 X39.1849 Y33.7165
G01 X39.2461 Y33.6840
G01 X39.3038 Y33.6542
G01 X39.3638 Y33.6238
G01 X39.4225 Y33.5948
G01 X39.5000 Y33.5575
G01 X39.5588 Y33.5299
G01 X39.6191 Y33.5023
G01 X39.6727 Y33.4783
G01 X39.7342 Y33.4516
G01 X39.8098 Y33.4194
G01 X39.8723 Y33.3936
G01 X39.9387 Y33.3671
G01 X39.9915 Y33.3466
G01 X40.0467 Y33.3257
G01 X40.1210 Y33.2983
G01 X40.1810 Y33.2768
G01 X40.2367 Y33.2574
G01 X40.3024 Y33.2353
G01 X40.3719 Y33.2126
G01 X40.4483 Y33.1885
G01 X40.5075 Y33.1705
G01 X40.5618 Y33.1545
G01 X40.6361 Y33.1334
G01 X40.6997 Y33.1161
G01 X40.7749 Y33.0965
G01 X40.8410 Y33.0798
G01 X40.8970 Y33.0663
G01 X40.9626 Y33.0510
G01 X41.0250 Y33.0372
G01 X41.1100 Y33.0192
G01 X41.1691 Y33.0072
G01 X50.3200 Y27.5975
G01 X58.2539 Y22.9382
G01 X58.3262 Y22.8966
G01 X58.3929 Y22.8593
G01 X58.4732 Y22.8153
G01 X58.5549 Y22.7717
G01 X60.1391 Y21.9508
G01 X60.2238 Y21.8628
G01 X60.2663 Y21.8197
G01 X60.3038 Y21.7824
G01 X60.3510 Y21.7361
G01 X60.3930 Y21.6958
G01 X60.4563 Y21.6362
G01 X60.4954 Y21.6000
G01 X60.5447 Y21.5552
G01 X60.5922 Y21.5129
G01 X60.6790 Y21.4375
G01 X60.7755 Y21.3562
G01 X60.8231 Y21.3173
G01 X60.8754 Y21.2753
G01 X60.9624 Y21.2074
G01 X61.0234 Y21.1611
G01 X61.0729 Y21.1241
G01 X61.1688 Y21.0545
G01 X61.2191 Y21.0189
G01 X61.2657 Y20.9867
G01 X61.3191 Y20.9501
G01 X61.3675 Y20.9177
G01 X61.4224 Y20.8816
G01 X61.4733 Y20.8488
G01 X61.5299 Y20.8131
G01 X61.5776 Y20.7836
G01 X61.6347 Y20.7490
G01 X61.6951 Y20.7131
G01 X81.8596 Y9.0690
G01 X24.9371 Y9.0690
G01 X24.9371 Y41.9403
G01 X24.4271 Y42.8237
G01 X39.2503 Y34.2638
G01 X39.3036 Y34.2334
G01 X39.3644 Y34.1995
G01 X39.4188 Y34.1699
G01 X39.4834 Y34.1355
G01 X39.5379 Y34.1072
G01 X39.5961 Y34.0778
G01 X39.6474 Y34.0526
G01 X39.7254 Y34.0150
G01 X39.7842 Y33.9875
G01 X39.8439 Y33.9604
G01 X39.9016 Y33.9348
G01 X39.9509 Y33.9136
G01 X40.0203 Y33.8842
G01 X40.0836 Y33.8583
G01 X40.1452 Y33.8339
G01 X40.2032 Y33.8116
G01 X40.2808 Y33.7829
G01 X40.3303 Y33.7650
G01 X40.3915 Y33.7435
G01 X40.4604 Y33.7202
G01 X40.5250 Y33.6991
G01 X40.5947 Y33.6771
G01 X40.6520 Y33.6596
G01 X40.7009 Y33.6452
G01 X40.7651 Y33.6269
G01 X40.8276 Y33.6098
G01 X40.9022 Y33.5903
G01 X40.9633 Y33.5749
G01 X41.0155 Y33.5623
G01 X41.0872 Y33.5457
G01 X41.1516 Y33.5316
G01 X41.2275 Y33.5157
G01 X41.2884 Y33.5035
G01 X41.3537 Y33.4913
G01 X50.5792 Y28.0367
G01 X58.5108 Y23.3788
G01 X58.5780 Y23.3402
G01 X58.6430 Y23.3038
G01 X58.7195 Y23.2619
G01 X58.7996 Y23.2193
G01 X60.4518 Y22.3632
G01 X60.5271 Y22.2830
G01 X60.6108 Y22.1966
G01 X60.6508 Y22.1564
G01 X60.6962 Y22.1118
G01 X60.7370 Y22.0725
G01 X60.7738 Y22.0376
G01 X60.8217 Y21.9929
G01 X60.8670 Y21.9513
G01 X60.9055 Y21.9167
G01 X60.9571 Y21.8712
G01 X61.0104 Y21.8251
G01 X61.0664 Y21.7777
G01 X61.1144 Y21.7379
G01 X61.1527 Y21.7067
G01 X61.1987 Y21.6698
G01 X61.2470 Y21.6319
G01 X61.3460 Y21.5566
G01 X61.3953 Y21.5201
G01 X61.4484 Y21.4815
G01 X61.5376 Y21.4186
G01 X61.6407 Y21.3485
G01 X61.6968 Y21.3115
G01 X61.7417 Y21.2825
G01 X61.7948 Y21.2490
G01 X61.8441 Y21.2185
G01 X61.8972 Y21.1862
G01 X61.9538 Y21.1526
G01 X83.7627 Y8.5590
G01 X24.4271 Y8.5590
G01 X24.4271 Y42.8237
G01 X23.9171 Y43.7071
G01 X39.5053 Y34.7055
G01 X39.5541 Y34.6776
G01 X39.6108 Y34.6460
G01 X39.6680 Y34.6149
G01 X39.7222 Y34.5861
G01 X39.7724 Y34.5601
G01 X39.8307 Y34.5307
G01 X39.8740 Y34.5095
G01 X39.9541 Y34.4710
G01 X40.0106 Y34.4448
G01 X40.0744 Y34.4160
G01 X40.1347 Y34.3896
G01 X40.2041 Y34.3601
G01 X40.2595 Y34.3373
G01 X40.3172 Y34.3143
G01 X40.3702 Y34.2938
G01 X40.4155 Y34.2767
G01 X40.4858 Y34.2510
G01 X40.5527 Y34.2274
G01 X40.6159 Y34.2059
G01 X40.6727 Y34.1873
G01 X40.7513 Y34.1625
G01 X40.8061 Y34.1459
G01 X40.8755 Y34.1257
G01 X40.9303 Y34.1104
G01 X40.9766 Y34.0980
G01 X41.0520 Y34.0784
G01 X41.1159 Y34.0627
G01 X41.1857 Y34.0463
G01 X41.2501 Y34.0321
G01 X41.3176 Y34.0178
G01 X41.3832 Y34.0047
G01 X41.4464 Y33.9928
G01 X41.5076 Y33.9820
G01 X41.5572 Y33.9738
G01 X50.8384 Y28.4759
G01 X58.7677 Y23.8193
G01 X58.8297 Y23.7837
G01 X58.8898 Y23.7501
G01 X58.9618 Y23.7106
G01 X59.0361 Y23.6712
G01 X60.7676 Y22.7740
G01 X60.8039 Y22.7338
G01 X60.8516 Y22.6821
G01 X60.8943 Y22.6368
G01 X60.9402 Y22.5891
G01 X61.0102 Y22.5183
G01 X61.0524 Y22.4769
G01 X61.0913 Y22.4393
G01 X61.1813 Y22.3550
G01 X61.2214 Y22.3185
G01 X61.2684 Y22.2765
G01 X61.3044 Y22.2450
G01 X61.3509 Y22.2050
G01 X61.4029 Y22.1612
G01 X61.4485 Y22.1235
G01 X61.5362 Y22.0532
G01 X61.5789 Y22.0200
G01 X61.6345 Y21.9777
G01 X61.6800 Y21.9438
G01 X61.7208 Y21.9139
G01 X61.7697 Y21.8788
G01 X61.8164 Y21.8459
G01 X61.9204 Y21.7750
G01 X61.9711 Y21.7415
G01 X62.0118 Y21.7152
G01 X62.0630 Y21.6828
G01 X62.1096 Y21.6539
G01 X62.1598 Y21.6234
G01 X62.2125 Y21.5921
G01 X85.6658 Y8.0490
G01 X23.9171 Y8.0490
G01 X23.9171 Y43.7071
G01 X23.4071 Y44.5906
G01 X39.7603 Y35.1471
G01 X39.8540 Y35.0943
G01 X39.9095 Y35.0641
G01 X39.9654 Y35.0345
G01 X40.0118 Y35.0105
G01 X40.0711 Y34.9808
G01 X40.1414 Y34.9467
G01 X40.1932 Y34.9222
G01 X40.2560 Y34.8935
G01 X40.3078 Y34.8704
G01 X40.3504 Y34.8521
G01 X40.4224 Y34.8217
G01 X40.4716 Y34.8017
G01 X40.5352 Y34.7767
G01 X40.5875 Y34.7569
G01 X40.6607 Y34.7301
G01 X40.7172 Y34.7101
G01 X40.7776 Y34.6896
G01 X40.8387 Y34.6697
G01 X40.9089 Y34.6476
G01 X40.9624 Y34.6314
G01 X41.0236 Y34.6138
G01 X41.0820 Y34.5976
G01 X41.1567 Y34.5781
G01 X41.2149 Y34.5635
G01 X41.2701 Y34.5503
G01 X41.3167 Y34.5396
G01 X41.3753 Y34.5268
G01 X41.4438 Y34.5125
G01 X41.5067 Y34.5003
G01 X41.5660 Y34.4895
G01 X41.6211 Y34.4801
G01 X41.6907 Y34.4690
G01 X41.7542 Y34.4596
G01 X51.0944 Y28.9171
G01 X59.0223 Y24.2613
G01 X59.0902 Y24.2223
G01 X59.1621 Y24.1823
G01 X59.2219 Y24.1498
G01 X59.2757 Y24.1214
G01 X61.0872 Y23.1828
G01 X61.1272 Y23.1371
G01 X61.1610 Y23.0992
G01 X61.2336 Y23.0203
G01 X61.2724 Y22.9794
G01 X61.3237 Y22.9264
G01 X61.3592 Y22.8905
G01 X61.4018 Y22.8485
G01 X61.4707 Y22.7824
G01 X61.5224 Y22.7342
G01 X61.5687 Y22.6921
G01 X61.6120 Y22.6535
G01 X61.6535 Y22.6173
G01 X61.7391 Y22.5448
G01 X61.7766 Y22.5139
G01 X61.8233 Y22.4764
G01 X61.8985 Y22.4176
G01 X61.9531 Y22.3762
G01 X61.9966 Y22.3440
G01 X62.0503 Y22.3050
G01 X62.0945 Y22.2738
G01 X62.1898 Y22.2084
G01 X62.2751 Y22.1522
G01 X62.3289 Y22.1180
G01 X62.3708 Y22.0920
G01 X62.4200 Y22.0621
G01 X62.4711 Y22.0317
G01 X87.5689 Y7.5390
G01 X23.4071 Y7.5390
G01 X23.4071 Y44.5906
G01 X22.8971 Y45.4740
G01 X40.0154 Y35.5888
G01 X40.1007 Y35.5406
G01 X40.1529 Y35.5123
G01 X40.2034 Y35.4855
G01 X40.2438 Y35.4647
G01 X40.3016 Y35.4358
G01 X40.3638 Y35.4056
G01 X40.4144 Y35.3818
G01 X40.4716 Y35.3557
G01 X40.5270 Y35.3313
G01 X40.5933 Y35.3030
G01 X40.6392 Y35.2840
G01 X40.6969 Y35.2610
G01 X40.7447 Y35.2426
G01 X40.8157 Y35.2164
G01 X40.8684 Y35.1975
G01 X40.9278 Y35.1771
G01 X40.9854 Y35.1582
G01 X41.0541 Y35.1365
G01 X41.1017 Y35.1221
G01 X41.1613 Y35.1048
G01 X41.2107 Y35.0912
G01 X41.2821 Y35.0724
G01 X41.3364 Y35.0588
G01 X41.3993 Y35.0438
G01 X41.4539 Y35.0316
G01 X41.5251 Y35.0165
G01 X41.5738 Y35.0067
G01 X41.6349 Y34.9953
G01 X41.6877 Y34.9860
G01 X41.7621 Y34.9741
G01 X41.8174 Y34.9658
G01 X41.8815 Y34.9570
G01 X41.9379 Y34.9500
G01 X51.3539 Y29.3561
G01 X59.2794 Y24.7017
G01 X59.3410 Y24.6663
G01 X59.4087 Y24.6287
G01 X59.4630 Y24.5992
G01 X59.5119 Y24.5734
G01 X61.4105 Y23.5897
G01 X61.4668 Y23.5234
G01 X61.5126 Y23.4711
G01 X61.5529 Y23.4263
G01 X61.5873 Y23.3887
G01 X61.6259 Y23.3477
G01 X61.6764 Y23.2951
G01 X61.7088 Y23.2622
G01 X61.7809 Y23.1912
G01 X61.8125 Y23.1611
G01 X61.8612 Y23.1156
G01 X61.9006 Y23.0795
G01 X61.9431 Y23.0415
G01 X62.0153 Y22.9790
G01 X62.0587 Y22.9424
G01 X62.0955 Y22.9120
G01 X62.1415 Y22.8749
G01 X62.1809 Y22.8439
G01 X62.2724 Y22.7743
G01 X62.3118 Y22.7453
G01 X62.3610 Y22.7099
G01 X62.4087 Y22.6765
G01 X62.4631 Y22.6392
G01 X62.5019 Y22.6132
G01 X62.5451 Y22.5849
G01 X62.5839 Y22.5601
G01 X62.6381 Y22.5263
G01 X62.6828 Y22.4991
G01 X62.7318 Y22.4700
G01 X89.4720 Y7.0290
G01 X22.8971 Y7.0290
G01 X22.8971 Y45.4740
G01 X22.3871 Y46.3574
G01 X40.2704 Y36.0304
G01 X40.3458 Y35.9879
G01 X40.4021 Y35.9573
G01 X40.4601 Y35.9269
G01 X40.5120 Y35.9006
G01 X40.5758 Y35.8696
G01 X40.6278 Y35.8450
G01 X40.6808 Y35.8208
G01 X40.7298 Y35.7992
G01 X40.7870 Y35.7748
G01 X40.8355 Y35.7548
G01 X40.8947 Y35.7313
G01 X40.9383 Y35.7147
G01 X41.0020 Y35.6913
G01 X41.0511 Y35.6739
G01 X41.1062 Y35.6552
G01 X41.1535 Y35.6399
G01 X41.2159 Y35.6203
G01 X41.2616 Y35.6066
G01 X41.3229 Y35.5892
G01 X41.4006 Y35.5685
G01 X41.4488 Y35.5563
G01 X41.5077 Y35.5422
G01 X41.5576 Y35.5309
G01 X41.6276 Y35.5161
G01 X41.6703 Y35.5075
G01 X41.7264 Y35.4970
G01 X41.7738 Y35.4887
G01 X41.8424 Y35.4777
G01 X41.8939 Y35.4700
G01 X41.9501 Y35.4624
G01 X41.9994 Y35.4563
G01 X42.0686 Y35.4486
G01 X42.1190 Y35.4437
G01 X51.6101 Y29.7971
G01 X59.5365 Y25.1421
G01 X59.5918 Y25.1104
G01 X59.6552 Y25.0752
G01 X59.7041 Y25.0486
G01 X59.7492 Y25.0248
G01 X61.7391 Y23.9938
G01 X61.7716 Y23.9533
G01 X61.8087 Y23.9084
G01 X61.8388 Y23.8729
G01 X61.8778 Y23.8281
G01 X61.9366 Y23.7623
G01 X61.9729 Y23.7231
G01 X62.0085 Y23.6855
G01 X62.0473 Y23.6453
G01 X62.0792 Y23.6130
G01 X62.1192 Y23.5735
G01 X62.1518 Y23.5421
G01 X62.2005 Y23.4964
G01 X62.2375 Y23.4625
G01 X62.2815 Y23.4231
G01 X62.3174 Y23.3917
G01 X62.3981 Y23.3234
G01 X62.4322 Y23.2955
G01 X62.4749 Y23.2614
G01 X62.5107 Y23.2336
G01 X62.5658 Y23.1917
G01 X62.6015 Y23.1653
G01 X62.6448 Y23.1339
G01 X62.6904 Y23.1017
G01 X62.7445 Y23.0646
G01 X62.7785 Y23.0417
G01 X62.8193 Y23.0149
G01 X62.8538 Y22.9928
G01 X62.9038 Y22.9616
G01 X62.9456 Y22.9362
G01 X62.9901 Y22.9098
G01 X91.3751 Y6.5190
G01 X22.3871 Y6.5190
G01 X22.3871 Y46.3574
G01 X21.8771 Y47.2409
G01 X40.5255 Y36.4721
G01 X40.5866 Y36.4375
G01 X40.6374 Y36.4098
G01 X40.6928 Y36.3807
G01 X40.7469 Y36.3534
G01 X40.7994 Y36.3280
G01 X40.8468 Y36.3056
G01 X40.8988 Y36.2820
G01 X40.9414 Y36.2633
G01 X40.9980 Y36.2394
G01 X41.0404 Y36.2220
G01 X41.0990 Y36.1991
G01 X41.1606 Y36.1763
G01 X41.2015 Y36.1616
G01 X41.2525 Y36.1441
G01 X41.2968 Y36.1295
G01 X41.3591 Y36.1099
G01 X41.4037 Y36.0965
G01 X41.4515 Y36.0828
G01 X41.4942 Y36.0712
G01 X41.5582 Y36.0547
G01 X41.6238 Y36.0388
G01 X41.6750 Y36.0273
G01 X41.7377 Y36.0141
G01 X41.7819 Y36.0054
G01 X41.8331 Y35.9960
G01 X41.8737 Y35.9891
G01 X41.9424 Y35.9783
G01 X42.0051 Y35.9696
G01 X42.0525 Y35.9636
G01 X42.1216 Y35.9559
G01 X42.1680 Y35.9513
G01 X42.2237 Y35.9467
G01 X42.2771 Y35.9431
G01 X51.8699 Y30.2360
G01 X59.7937 Y25.5826
G01 X59.8426 Y25.5545
G01 X59.9018 Y25.5216
G01 X59.9452 Y25.4981
G01 X59.9851 Y25.4770
G01 X62.0733 Y24.3950
G01 X62.1056 Y24.3529
G01 X62.1416 Y24.3070
G01 X62.1675 Y24.2749
G01 X62.1989 Y24.2368
G01 X62.2298 Y24.2004
G01 X62.2673 Y24.1574
G01 X62.2975 Y24.1236
G01 X62.3275 Y24.0907
G01 X62.3639 Y24.0517
G01 X62.4086 Y24.0053
G01 X62.4387 Y23.9748
G01 X62.4703 Y23.9435
G01 X62.5047 Y23.9103
G01 X62.5457 Y23.8718
G01 X62.6019 Y23.8206
G01 X62.6353 Y23.7911
G01 X62.6686 Y23.7623
G01 X62.7126 Y23.7252
G01 X62.7501 Y23.6944
G01 X62.7880 Y23.6640
G01 X62.8205 Y23.6387
G01 X62.8721 Y23.5995
G01 X62.9112 Y23.5706
G01 X62.9522 Y23.5411
G01 X62.9910 Y23.5139
G01 X63.0425 Y23.4788
G01 X63.0870 Y23.4493
G01 X63.1222 Y23.4266
G01 X63.1666 Y23.3988
G01 X63.2063 Y23.3746
G01 X63.2484 Y23.3495
G01 X93.2782 Y6.0090
G01 X21.8771 Y6.0090
G01 X21.8771 Y47.2409
G01 X21.3671 Y48.1243
G01 X40.7805 Y36.9137
G01 X40.8339 Y36.8835
G01 X40.8793 Y36.8588
G01 X40.9274 Y36.8335
G01 X40.9743 Y36.8100
G01 X41.0264 Y36.7847
G01 X41.0686 Y36.7650
G01 X41.1146 Y36.7442
G01 X41.1831 Y36.7147
G01 X41.2161 Y36.7011
G01 X41.2580 Y36.6844
G01 X41.2986 Y36.6689
G01 X41.3556 Y36.6481
G01 X41.4128 Y36.6283
G01 X41.4600 Y36.6127
G01 X41.5171 Y36.5948
G01 X41.5514 Y36.5846
G01 X41.6067 Y36.5690
G01 X41.6646 Y36.5538
G01 X41.7030 Y36.5442
G01 X41.7536 Y36.5323
G01 X41.7984 Y36.5225
G01 X41.8524 Y36.5112
G01 X41.9119 Y36.5000
G01 X41.9517 Y36.4931
G01 X42.0170 Y36.4829
G01 X42.0731 Y36.4750
G01 X42.1132 Y36.4700
G01 X42.1758 Y36.4630
G01 X42.2190 Y36.4588
G01 X42.2779 Y36.4541
G01 X42.3376 Y36.4503
G01 X42.3849 Y36.4480
G01 X42.4379 Y36.4462
G01 X52.1250 Y30.6776
G01 X60.0507 Y26.0230
G01 X60.0954 Y25.9974
G01 X60.1496 Y25.9674
G01 X60.2234 Y25.9279
G01 X62.4145 Y24.7926
G01 X62.4477 Y24.7463
G01 X62.4770 Y24.7067
G01 X62.5040 Y24.6713
G01 X62.5390 Y24.6267
G01 X62.5664 Y24.5927
G01 X62.5953 Y24.5578
G01 X62.6504 Y24.4941
G01 X62.6822 Y24.4585
G01 X62.7139 Y24.4240
G01 X62.7417 Y24.3946
G01 X62.7823 Y24.3526
G01 X62.8062 Y24.3285
G01 X62.8409 Y24.2945
G01 X62.9075 Y24.2319
G01 X62.9363 Y24.2058
G01 X62.9738 Y24.1725
G01 X63.0027 Y24.1477
G01 X63.0491 Y24.1086
G01 X63.0944 Y24.0720
G01 X63.1211 Y24.0509
G01 X63.1681 Y24.0150
G01 X63.1986 Y23.9923
G01 X63.2392 Y23.9629
G01 X63.2709 Y23.9405
G01 X63.3213 Y23.9059
G01 X63.3495 Y23.8870
G01 X63.3882 Y23.8618
G01 X63.4262 Y23.8378
G01 X63.4624 Y23.8156
G01 X63.5066 Y23.7893
G01 X95.1813 Y5.4990
G01 X21.3671 Y5.4990
G01 X21.3671 Y48.1243
G01 X20.8571 Y49.0077
G01 X41.0355 Y37.3554
G01 X41.0805 Y37.3300
G01 X41.1197 Y37.3086
G01 X41.1641 Y37.2853
G01 X41.2016 Y37.2665
G01 X41.2576 Y37.2395
G01 X41.3049 Y37.2178
G01 X41.3432 Y37.2009
G01 X41.3941 Y37.1793
G01 X41.4402 Y37.1608
G01 X41.4721 Y37.1486
G01 X41.5268 Y37.1285
G01 X41.5760 Y37.1115
G01 X41.6173 Y37.0979
G01 X41.6685 Y37.0819
G01 X41.7162 Y37.0679
G01 X41.7491 Y37.0588
G01 X41.8056 Y37.0442
G01 X41.8561 Y37.0320
G01 X41.8971 Y37.0229
G01 X41.9511 Y37.0116
G01 X41.9999 Y37.0023
G01 X42.0336 Y36.9965
G01 X42.0912 Y36.9874
G01 X42.1427 Y36.9802
G01 X42.1859 Y36.9749
G01 X42.2392 Y36.9691
G01 X42.2887 Y36.9647
G01 X42.3228 Y36.9622
G01 X42.3810 Y36.9587
G01 X42.4329 Y36.9566
G01 X42.4749 Y36.9555
G01 X42.5300 Y36.9549
G01 X42.5815 Y36.9554
G01 X52.3851 Y31.1163
G01 X60.3078 Y26.4635
G01 X60.3457 Y26.4418
G01 X60.3958 Y26.4140
G01 X60.4589 Y26.3803
G01 X62.7640 Y25.1859
G01 X62.7829 Y25.1569
G01 X62.8120 Y25.1141
G01 X62.8612 Y25.0448
G01 X62.8868 Y25.0104
G01 X62.9074 Y24.9834
G01 X62.9409 Y24.9407
G01 X62.9633 Y24.9130
G01 X62.9965 Y24.8733
G01 X63.0300 Y24.8347
G01 X63.0547 Y24.8069
G01 X63.0815 Y24.7777
G01 X63.1092 Y24.7482
G01 X63.1469 Y24.7092
G01 X63.1674 Y24.6886
G01 X63.2045 Y24.6524
G01 X63.2692 Y24.5923
G01 X63.3048 Y24.5606
G01 X63.3330 Y24.5363
G01 X63.3733 Y24.5024
G01 X63.4135 Y24.4698
G01 X63.4415 Y24.4478
G01 X63.4783 Y24.4199
G01 X63.5108 Y24.3958
G01 X63.5469 Y24.3698
G01 X63.5748 Y24.3504
G01 X63.6243 Y24.3167
G01 X63.6548 Y24.2967
G01 X63.6934 Y24.2723
G01 X63.7262 Y24.2522
G01 X63.7648 Y24.2292
G01 X97.0843 Y4.9890
G01 X20.8571 Y4.9890
G01 X20.8571 Y49.0077
G01 X20.3471 Y49.8912
G01 X41.2906 Y37.7970
G01 X41.3281 Y37.7758
G01 X41.3598 Y37.7586
G01 X41.3967 Y37.7392
G01 X41.4300 Y37.7225
G01 X41.4854 Y37.6960
G01 X41.5256 Y37.6777
G01 X41.5821 Y37.6535
G01 X41.6051 Y37.6440
G01 X41.6456 Y37.6282
G01 X41.6944 Y37.6102
G01 X41.7392 Y37.5946
G01 X41.7746 Y37.5830
G01 X41.8273 Y37.5667
G01 X41.8751 Y37.5531
G01 X41.9195 Y37.5415
G01 X41.9526 Y37.5332
G01 X41.9958 Y37.5233
G01 X42.0498 Y37.5120
G01 X42.0925 Y37.5039
G01 X42.1170 Y37.4997
G01 X42.1777 Y37.4902
G01 X42.2215 Y37.4843
G01 X42.2825 Y37.4774
G01 X42.3073 Y37.4750
G01 X42.3506 Y37.4715
G01 X42.4026 Y37.4683
G01 X42.4499 Y37.4663
G01 X42.4872 Y37.4654
G01 X42.5424 Y37.4649
G01 X42.5921 Y37.4657
G01 X42.6348 Y37.4672
G01 X42.6689 Y37.4689
G01 X42.7114 Y37.4716
G01 X52.6452 Y31.5550
G01 X60.5649 Y26.9040
G01 X60.5967 Y26.8857
G01 X60.6419 Y26.8607
G01 X60.6945 Y26.8326
G01 X63.1249 Y25.5733
G01 X63.1414 Y25.5450
G01 X63.1653 Y25.5056
G01 X63.2067 Y25.4408
G01 X63.2321 Y25.4032
G01 X63.2577 Y25.3668
G01 X63.2786 Y25.3380
G01 X63.3005 Y25.3089
G01 X63.3398 Y25.2584
G01 X63.3561 Y25.2383
G01 X63.3851 Y25.2035
G01 X63.4144 Y25.1699
G01 X63.4381 Y25.1434
G01 X63.4627 Y25.1166
G01 X63.5206 Y25.0566
G01 X63.5624 Y25.0159
G01 X63.5997 Y24.9811
G01 X63.6340 Y24.9503
G01 X63.6608 Y24.9270
G01 X63.6974 Y24.8962
G01 X63.7479 Y24.8557
G01 X63.7859 Y24.8267
G01 X63.8145 Y24.8055
G01 X63.8520 Y24.7787
G01 X63.8941 Y24.7499
G01 X63.9265 Y24.7284
G01 X63.9589 Y24.7077
G01 X63.9882 Y24.6897
G01 X64.0226 Y24.6692
G01 X98.9874 Y4.4790
G01 X20.3471 Y4.4790
G01 X20.3471 Y49.8912
G01 X19.8371 Y50.7746
G01 X41.5456 Y38.2387
G01 X41.5751 Y38.2221
G01 X41.6188 Y38.1985
G01 X41.6437 Y38.1858
G01 X41.6906 Y38.1630
G01 X41.7251 Y38.1472
G01 X41.7479 Y38.1372
G01 X41.7930 Y38.1181
G01 X41.8277 Y38.1045
G01 X41.8679 Y38.0898
G01 X41.9038 Y38.0773
G01 X41.9274 Y38.0696
G01 X41.9742 Y38.0551
G01 X42.0101 Y38.0449
G01 X42.0514 Y38.0341
G01 X42.0945 Y38.0238
G01 X42.1484 Y38.0123
G01 X42.1851 Y38.0054
G01 X42.2334 Y37.9975
G01 X42.2580 Y37.9939
G01 X42.2957 Y37.9890
G01 X42.3506 Y37.9831
G01 X42.3877 Y37.9801
G01 X42.4304 Y37.9775
G01 X42.4684 Y37.9760
G01 X42.4933 Y37.9754
G01 X42.5298 Y37.9749
G01 X42.5671 Y37.9752
G01 X42.6223 Y37.9772
G01 X42.6602 Y37.9793
G01 X42.6850 Y37.9811
G01 X42.7338 Y37.9854
G01 X42.7708 Y37.9897
G01 X42.8271 Y37.9975
G01 X52.9053 Y31.9937
G01 X60.8226 Y27.3441
G01 X60.8877 Y27.3076
G01 X60.9300 Y27.2850
G01 X63.5007 Y25.9530
G01 X63.5289 Y25.8967
G01 X63.5473 Y25.8625
G01 X63.5692 Y25.8237
G01 X63.5894 Y25.7896
G01 X63.6030 Y25.7676
G01 X63.6233 Y25.7354
G01 X63.6448 Y25.7031
G01 X63.6741 Y25.6613
G01 X63.6894 Y25.6403
G01 X63.7132 Y25.6087
G01 X63.7407 Y25.5737
G01 X63.7737 Y25.5338
G01 X63.8031 Y25.5002
G01 X63.8297 Y25.4709
G01 X63.8739 Y25.4247
G01 X63.9108 Y25.3883
G01 X63.9434 Y25.3579
G01 X63.9728 Y25.3314
G01 X63.9924 Y25.3145
G01 X64.0315 Y25.2817
G01 X64.0619 Y25.2575
G01 X64.0974 Y25.2306
G01 X64.1294 Y25.2072
G01 X64.1505 Y25.1923
G01 X64.1900 Y25.1654
G01 X64.2144 Y25.1495
G01 X64.2502 Y25.1273
G01 X64.2804 Y25.1092
G01 X100.8905 Y3.9690
G01 X19.8371 Y3.9690
G01 X19.8371 Y50.7746
G01 X19.3271 Y51.6581
G01 X41.8007 Y38.6803
G01 X41.8220 Y38.6683
G01 X41.8576 Y38.6492
G01 X41.8742 Y38.6407
G01 X41.9183 Y38.6195
G01 X41.9474 Y38.6065
G01 X41.9810 Y38.5922
G01 X42.0041 Y38.5831
G01 X42.0501 Y38.5663
G01 X42.0803 Y38.5561
G01 X42.1151 Y38.5452
G01 X42.1390 Y38.5383
G01 X42.1864 Y38.5261
G01 X42.2175 Y38.5189
G01 X42.2532 Y38.5114
G01 X42.2777 Y38.5069
G01 X42.3260 Y38.4994
G01 X42.3576 Y38.4953
G01 X42.3939 Y38.4913
G01 X42.4187 Y38.4892
G01 X42.4676 Y38.4863
G01 X42.4994 Y38.4853
G01 X42.5359 Y38.4849
G01 X42.5608 Y38.4852
G01 X42.6097 Y38.4872
G01 X42.6415 Y38.4893
G01 X42.6779 Y38.4924
G01 X42.7026 Y38.4951
G01 X42.7511 Y38.5018
G01 X42.7825 Y38.5070
G01 X42.8184 Y38.5136
G01 X42.8427 Y38.5187
G01 X42.8904 Y38.5301
G01 X42.9174 Y38.5373
G01 X53.1653 Y32.4324
G01 X61.0790 Y27.7849
G01 X61.1341 Y27.7541
G01 X61.1655 Y27.7374
G01 X63.8988 Y26.3211
G01 X63.9176 Y26.2708
G01 X63.9274 Y26.2468
G01 X63.9480 Y26.2001
G01 X63.9622 Y26.1702
G01 X63.9792 Y26.1361
G01 X63.9914 Y26.1132
G01 X64.0101 Y26.0801
G01 X64.0338 Y26.0405
G01 X64.0541 Y26.0084
G01 X64.0685 Y25.9869
G01 X64.0905 Y25.9558
G01 X64.1102 Y25.9291
G01 X64.1416 Y25.8889
G01 X64.1581 Y25.8690
G01 X64.1918 Y25.8306
G01 X64.2143 Y25.8063
G01 X64.2408 Y25.7789
G01 X64.2592 Y25.7607
G01 X64.2966 Y25.7260
G01 X64.3215 Y25.7041
G01 X64.3506 Y25.6795
G01 X64.3708 Y25.6633
G01 X64.4011 Y25.6403
G01 X64.4384 Y25.6133
G01 X64.4861 Y25.5811
G01 X64.5163 Y25.5623
G01 X64.5438 Y25.5460
G01 X102.7936 Y3.4590
G01 X19.3271 Y3.4590
G01 X19.3271 Y51.6581
G01 X18.8171 Y52.5415
G01 X42.0716 Y39.1130
G01 X42.0963 Y39.0998
G01 X42.1292 Y39.0839
G01 X42.1468 Y39.0759
G01 X42.1805 Y39.0616
G01 X42.2148 Y39.0490
G01 X42.2331 Y39.0427
G01 X42.2680 Y39.0318
G01 X42.3034 Y39.0225
G01 X42.3222 Y39.0181
G01 X42.3580 Y39.0106
G01 X42.3941 Y39.0048
G01 X42.4133 Y39.0022
G01 X42.4496 Y38.9982
G01 X42.4861 Y38.9960
G01 X42.5055 Y38.9953
G01 X42.5420 Y38.9949
G01 X42.5786 Y38.9962
G01 X42.5979 Y38.9974
G01 X42.6343 Y39.0005
G01 X42.6705 Y39.0054
G01 X42.6897 Y39.0085
G01 X42.7256 Y39.0151
G01 X42.7612 Y39.0235
G01 X42.7800 Y39.0284
G01 X42.8151 Y39.0385
G01 X42.8497 Y39.0503
G01 X42.8678 Y39.0571
G01 X42.9018 Y39.0705
G01 X42.9351 Y39.0857
G01 X42.9669 Y39.1015
G01 X53.4253 Y32.8712
G01 X61.3361 Y28.2254
G01 X61.3792 Y28.2013
G01 X61.4001 Y28.1902
G01 X64.3351 Y26.6695
G01 X64.3404 Y26.6359
G01 X64.3483 Y26.5986
G01 X64.3530 Y26.5790
G01 X64.3628 Y26.5422
G01 X64.3745 Y26.5059
G01 X64.3812 Y26.4868
G01 X64.3946 Y26.4512
G01 X64.4099 Y26.4164
G01 X64.4185 Y26.3981
G01 X64.4355 Y26.3640
G01 X64.4542 Y26.3308
G01 X64.4646 Y26.3135
G01 X64.4849 Y26.2813
G01 X64.5069 Y26.2503
G01 X64.5190 Y26.2341
G01 X64.5425 Y26.2041
G01 X64.5676 Y26.1754
G01 X64.5812 Y26.1605
G01 X64.6077 Y26.1332
G01 X64.6355 Y26.1071
G01 X64.6506 Y26.0937
G01 X64.6797 Y26.0691
G01 X64.7100 Y26.0461
G01 X64.7263 Y26.0343
G01 X64.7578 Y26.0128
G01 X64.7989 Y25.9876
G01 X104.6967 Y2.9490
G01 X18.8171 Y2.9490
G01 X18.8171 Y52.5415
G00 Z0.5000
G00 X50.8945 Y74.1891
G01 F250.00
G01 Z-0.0400
G01 F1250.00
G01 X51.6110 Y74.9057
G01 X54.1505 Y74.9057
G01 X55.7396 Y73.3166
G01 X55.7396 Y71.9702
G01 X54.5785 Y73.1313
G01 X54.5404 Y73.1677
G01 X54.4832 Y73.2196
G01 X54.4432 Y73.2539
G01 X54.4204 Y73.2724
G01 X54.3938 Y73.2930
G01 X54.3214 Y73.3465
G01 X54.2929 Y73.3664
G01 X54.2627 Y73.3864
G01 X54.2340 Y73.4044
G01 X54.1803 Y73.4366
G01 X54.1319 Y73.4644
G01 X54.1003 Y73.4813
G01 X54.0725 Y73.4952
G01 X53.9916 Y73.5335
G01 X53.9608 Y73.5472
G01 X53.9322 Y73.5591
G01 X53.9031 Y73.5705
G01 X53.8767 Y73.5803
G01 X53.8169 Y73.6016
G01 X53.7827 Y73.6129
G01 X53.7474 Y73.6238
G01 X53.7158 Y73.6326
G01 X53.6241 Y73.6556
G01 X53.5934 Y73.6625
G01 X53.5643 Y73.6684
G01 X53.5296 Y73.6746
G01 X53.5069 Y73.6782
G01 X53.4432 Y73.6876
G01 X53.4073 Y73.6922
G01 X53.3669 Y73.6963
G01 X53.3286 Y73.6991
G01 X53.2532 Y73.7029
G01 X53.2120 Y73.7041
G01 X52.5321 Y73.7042
G01 X52.4744 Y73.7469
G01 X52.4487 Y73.7652
G01 X52.4142 Y73.7885
G01 X52.3884 Y73.8050
G01 X52.3649 Y73.8194
G01 X52.2634 Y73.8801
G01 X52.2324 Y73.8976
G01 X52.1952 Y73.9174
G01 X52.1574 Y73.9360
G01 X52.0554 Y73.9842
G01 X52.0219 Y73.9992
G01 X51.9891 Y74.0129
G01 X51.9459 Y74.0296
G01 X51.8380 Y74.0683
G01 X51.7942 Y74.0830
G01 X51.7589 Y74.0938
G01 X51.7150 Y74.1060
G01 X51.6091 Y74.1325
G01 X51.5827 Y74.1389
G01 X51.5472 Y74.1466
G01 X51.5122 Y74.1533
G01 X51.4717 Y74.1600
G01 X51.3603 Y74.1765
G01 X51.3199 Y74.1816
G01 X51.2840 Y74.1852
G01 X51.2423 Y74.1882
G01 X51.1280 Y74.1939
G01 X51.0799 Y74.1953
G01 X51.0441 Y74.1954
G01 X51.0083 Y74.1946
G01 X50.8945 Y74.1891
G01 X52.3783 Y74.3957
G01 X53.9393 Y74.3957
G01 X54.4883 Y73.8466
G01 X54.4116 Y73.8922
G01 X54.3779 Y73.9111
G01 X54.3396 Y73.9316
G01 X54.3047 Y73.9494
G01 X54.2735 Y73.9645
G01 X54.2098 Y73.9945
G01 X54.1669 Y74.0137
G01 X54.1226 Y74.0322
G01 X54.0842 Y74.0472
G01 X54.0500 Y74.0599
G01 X53.9806 Y74.0846
G01 X53.9415 Y74.0976
G01 X53.9112 Y74.1071
G01 X53.8747 Y74.1178
G01 X53.8341 Y74.1288
G01 X53.7529 Y74.1492
G01 X53.7111 Y74.1588
G01 X53.6604 Y74.1692
G01 X53.6166 Y74.1771
G01 X53.5787 Y74.1832
G01 X53.4934 Y74.1954
G01 X53.4604 Y74.1994
G01 X53.4296 Y74.2026
G01 X53.3789 Y74.2069
G01 X53.3421 Y74.2091
G01 X53.2773 Y74.2123
G01 X53.2464 Y74.2134
G01 X53.2146 Y74.2141
G01 X52.6951 Y74.2142
G01 X52.6589 Y74.2374
G01 X52.6327 Y74.2535
G01 X52.5417 Y74.3081
G01 X52.5121 Y74.3254
G01 X52.4784 Y74.3444
G01 X52.4429 Y74.3634
G01 X52.4080 Y74.3812
G01 X52.3783 Y74.3957
G00 Z0.5000
G00 X56.2496 Y70.7389
G01 F250.00
G01 Z-0.0400
G01 F1250.00
G01 X54.2211 Y72.7674
G01 X54.2041 Y72.7839
G01 X54.1431 Y72.8395
G01 X54.1245 Y72.8557
G01 X54.1062 Y72.8706
G01 X54.0853 Y72.8869
G01 X54.0383 Y72.9218
G01 X54.0090 Y72.9427
G01 X53.9895 Y72.9557
G01 X53.9690 Y72.9686
G01 X53.9181 Y72.9992
G01 X53.8901 Y73.0153
G01 X53.8696 Y73.0263
G01 X53.8487 Y73.0369
G01 X53.7909 Y73.0644
G01 X53.7630 Y73.0770
G01 X53.7418 Y73.0860
G01 X53.7049 Y73.1001
G01 X53.6432 Y73.1220
G01 X53.6188 Y73.1299
G01 X53.5810 Y73.1407
G01 X53.5064 Y73.1594
G01 X53.4832 Y73.1645
G01 X53.4605 Y73.1690
G01 X53.4290 Y73.1742
G01 X53.3713 Y73.1827
G01 X53.3498 Y73.1855
G01 X53.3270 Y73.1878
G01 X53.2969 Y73.1901
G01 X53.2372 Y73.1931
G01 X53.1965 Y73.1942
G01 X52.3514 Y73.1942
G01 X52.3237 Y73.2193
G01 X52.3050 Y73.2354
G01 X52.2868 Y73.2504
G01 X52.2696 Y73.2639
G01 X52.1692 Y73.3383
G01 X52.1355 Y73.3614
G01 X52.1152 Y73.3744
G01 X52.0107 Y73.4371
G01 X51.9906 Y73.4486
G01 X51.9701 Y73.4596
G01 X51.9365 Y73.4763
G01 X51.8478 Y73.5183
G01 X51.8200 Y73.5309
G01 X51.7939 Y73.5417
G01 X51.7618 Y73.5539
G01 X51.6694 Y73.5870
G01 X51.6303 Y73.6000
G01 X51.6085 Y73.6065
G01 X51.5803 Y73.6140
G01 X51.4852 Y73.6378
G01 X51.4480 Y73.6463
G01 X51.4253 Y73.6508
G01 X51.3938 Y73.6560
G01 X51.2968 Y73.6704
G01 X51.2624 Y73.6748
G01 X51.2389 Y73.6771
G01 X51.2140 Y73.6790
G01 X51.0921 Y73.6849
G01 X51.0688 Y73.6854
G01 X51.0271 Y73.6849
G01 X50.9151 Y73.6795
G01 X50.8803 Y73.6771
G01 X50.8568 Y73.6748
G01 X50.8308 Y73.6716
G01 X50.7253 Y73.6560
G01 X50.6939 Y73.6508
G01 X50.6663 Y73.6453
G01 X50.6431 Y73.6400
G01 X50.5389 Y73.6140
G01 X50.5065 Y73.6053
G01 X50.4837 Y73.5984
G01 X50.4593 Y73.5903
G01 X50.3482 Y73.5506
G01 X50.3204 Y73.5398
G01 X50.2834 Y73.5238
G01 X50.1827 Y73.4763
G01 X50.1534 Y73.4618
G01 X50.1328 Y73.4509
G01 X50.1084 Y73.4371
G01 X50.0083 Y73.3771
G01 X49.9836 Y73.3614
G01 X49.9500 Y73.3383
G01 X49.8496 Y73.2639
G01 X49.8324 Y73.2504
G01 X49.8141 Y73.2354
G01 X49.7955 Y73.2193
G01 X49.7660 Y73.1926
G01 X49.7660 Y73.7819
G01 X51.3997 Y75.4157
G01 X54.3618 Y75.4157
G01 X56.2496 Y73.5279
G01 X56.2496 Y70.7389
G00 Z0.5000
G00 X73.0394 Y50.0182
G01 F250.00
G01 Z-0.0400
G01 F1250.00
G01 X71.5288 Y48.5092
G01 X71.4934 Y48.5166
G01 X71.4551 Y48.5230
G01 X72.9493 Y50.0182
G01 X73.0394 Y50.0182
G00 Z0.5000
G00 X76.6152 Y48.1040
G01 F250.00
G01 Z-0.0400
G01 F1250.00
G01 X74.8876 Y48.1040
G01 X75.0213 Y48.2377
G01 X76.4773 Y48.2377
G01 X76.4961 Y48.2170
G01 X76.5121 Y48.2001
G01 X76.5320 Y48.1802
G01 X76.5557 Y48.1579
G01 X76.6152 Y48.1040
G00 Z0.5000
G00 X80.1656 Y48.6140
G01 F250.00
G01 Z-0.0400
G01 F1250.00
G01 X80.1801 Y48.6493
G01 X80.1958 Y48.6907
G01 X80.2344 Y48.7990
G01 X80.2495 Y48.8449
G01 X80.2596 Y48.8787
G01 X80.2688 Y48.9125
G01 X80.2961 Y49.0214
G01 X80.3071 Y49.0693
G01 X80.3150 Y49.1092
G01 X80.3214 Y49.1468
G01 X80.3381 Y49.2587
G01 X80.3439 Y49.3030
G01 X80.3475 Y49.3383
G01 X80.3504 Y49.3765
G01 X80.3570 Y49.5082
G01 X92.3827 Y49.5082
G01 X91.4885 Y48.6140
G01 X80.1656 Y48.6140
G00 Z0.5000
G00 X83.2630 Y55.3470
G01 F250.00
G01 Z-0.0400
G01 F1250.00
G01 X83.3173 Y55.3622
G01 X83.3520 Y55.3727
G01 X83.3845 Y55.3833
G01 X83.4236 Y55.3967
G01 X83.5440 Y55.4400
G01 X83.5917 Y55.4586
G01 X83.6360 Y55.4771
G01 X83.6789 Y55.4963
G01 X83.7418 Y55.5259
G01 X83.8046 Y55.4963
G01 X83.8475 Y55.4771
G01 X83.8918 Y55.4586
G01 X83.9395 Y55.4400
G01 X84.0599 Y55.3967
G01 X84.0991 Y55.3833
G01 X84.1315 Y55.3727
G01 X84.1662 Y55.3622
G01 X84.2205 Y55.3470
G01 X83.2630 Y55.3470
G01 X82.3688 Y55.7525
G01 X82.4156 Y55.7503
G01 X82.4514 Y55.7493
G01 X82.4872 Y55.7493
G01 X82.5168 Y55.7499
G01 X82.6579 Y55.7567
G01 X82.6961 Y55.7595
G01 X82.7321 Y55.7631
G01 X82.7725 Y55.7682
G01 X82.8808 Y55.7842
G01 X82.9351 Y55.7933
G01 X82.9703 Y55.8003
G01 X83.0011 Y55.8072
G01 X83.1191 Y55.8366
G01 X83.1711 Y55.8508
G01 X83.1999 Y55.8595
G01 X83.2373 Y55.8719
G01 X83.3660 Y55.9180
G01 X83.3965 Y55.9298
G01 X83.4299 Y55.9436
G01 X83.4781 Y55.9653
G01 X83.5779 Y56.0126
G01 X83.6129 Y56.0301
G01 X83.6446 Y56.0470
G01 X83.6702 Y56.0614
G01 X83.7418 Y56.1040
G01 X83.8134 Y56.0614
G01 X83.8390 Y56.0470
G01 X83.8706 Y56.0301
G01 X83.9168 Y56.0073
G01 X84.0081 Y55.9641
G01 X84.0441 Y55.9478
G01 X84.0870 Y55.9298
G01 X84.1378 Y55.9105
G01 X84.2513 Y55.8701
G01 X84.2837 Y55.8595
G01 X84.3184 Y55.8490
G01 X84.3644 Y55.8366
G01 X84.4886 Y55.8058
G01 X84.5181 Y55.7993
G01 X84.5484 Y55.7933
G01 X84.5997 Y55.7846
G01 X84.7184 Y55.7671
G01 X84.7514 Y55.7631
G01 X84.7822 Y55.7599
G01 X84.8137 Y55.7574
G01 X84.8389 Y55.7559
G01 X84.9668 Y55.7499
G01 X85.0026 Y55.7492
G01 X85.0272 Y55.7493
G01 X85.0568 Y55.7499
G01 X85.1813 Y55.7557
G01 X85.2098 Y55.7574
G01 X85.2413 Y55.7599
G01 X85.2721 Y55.7631
G01 X85.2993 Y55.7664
G01 X85.4358 Y55.7865
G01 X85.4704 Y55.7924
G01 X85.4993 Y55.7980
G01 X85.5491 Y55.8091
G01 X85.6795 Y55.8419
G01 X85.7051 Y55.8490
G01 X85.7347 Y55.8579
G01 X85.7657 Y55.8679
G01 X85.7902 Y55.8763
G01 X85.9060 Y55.9180
G01 X85.9413 Y55.9317
G01 X85.9741 Y55.9454
G01 X86.0154 Y55.9641
G01 X86.1067 Y56.0073
G01 X86.1529 Y56.0301
G01 X86.1846 Y56.0470
G01 X86.2102 Y56.0614
G01 X86.2818 Y56.1040
G01 X86.3534 Y56.0614
G01 X86.3790 Y56.0470
G01 X86.4106 Y56.0301
G01 X86.4568 Y56.0073
G01 X86.5481 Y55.9641
G01 X86.5841 Y55.9478
G01 X86.6270 Y55.9298
G01 X86.6778 Y55.9105
G01 X86.7913 Y55.8701
G01 X86.8237 Y55.8595
G01 X86.8584 Y55.8490
G01 X86.9044 Y55.8366
G01 X87.0224 Y55.8072
G01 X87.0532 Y55.8003
G01 X87.0822 Y55.7945
G01 X87.1307 Y55.7860
G01 X87.2539 Y55.7677
G01 X87.2869 Y55.7636
G01 X87.3160 Y55.7605
G01 X87.3690 Y55.7565
G01 X87.4925 Y55.7504
G01 X87.5314 Y55.7493
G01 X87.5610 Y55.7492
G01 X87.6110 Y55.7504
G01 X87.7431 Y55.7570
G01 X87.7813 Y55.7599
G01 X87.8224 Y55.7643
G01 X87.8609 Y55.7694
G01 X87.9639 Y55.7846
G01 X87.9866 Y55.7883
G01 X88.0213 Y55.7945
G01 X88.0503 Y55.8003
G01 X88.0859 Y55.8084
G01 X88.2141 Y55.8405
G01 X88.2409 Y55.8478
G01 X88.2687 Y55.8561
G01 X88.3206 Y55.8730
G01 X88.4460 Y55.9180
G01 X88.4813 Y55.9317
G01 X88.5141 Y55.9454
G01 X88.5554 Y55.9641
G01 X88.6467 Y56.0073
G01 X88.6929 Y56.0301
G01 X88.7246 Y56.0470
G01 X88.7502 Y56.0614
G01 X88.8218 Y56.1040
G01 X88.8880 Y56.0645
G01 X88.9190 Y56.0470
G01 X88.9462 Y56.0324
G01 X88.9940 Y56.0086
G01 X89.1028 Y55.9573
G01 X89.1394 Y55.9412
G01 X89.1670 Y55.9298
G01 X89.1913 Y55.9203
G01 X89.3101 Y55.8775
G01 X89.3378 Y55.8679
G01 X89.3748 Y55.8561
G01 X89.4027 Y55.8478
G01 X89.4294 Y55.8405
G01 X89.5545 Y55.8091
G01 X89.6042 Y55.7980
G01 X89.6331 Y55.7924
G01 X89.6630 Y55.7872
G01 X89.7826 Y55.7694
G01 X89.8269 Y55.7636
G01 X89.8741 Y55.7589
G01 X89.9189 Y55.7559
G01 X90.0202 Y55.7509
G01 X90.0468 Y55.7499
G01 X90.0826 Y55.7492
G01 X90.1121 Y55.7493
G01 X90.1479 Y55.7503
G01 X90.2831 Y55.7570
G01 X90.3213 Y55.7599
G01 X90.3624 Y55.7643
G01 X90.4009 Y55.7694
G01 X90.5008 Y55.7842
G01 X90.5551 Y55.7933
G01 X90.5903 Y55.8003
G01 X90.6211 Y55.8072
G01 X90.7499 Y55.8394
G01 X90.7809 Y55.8478
G01 X90.8147 Y55.8579
G01 X90.8457 Y55.8679
G01 X90.8734 Y55.8775
G01 X90.9780 Y55.9150
G01 X91.0165 Y55.9298
G01 X91.0541 Y55.9454
G01 X91.0875 Y55.9604
G01 X91.1896 Y56.0086
G01 X91.2273 Y56.0273
G01 X91.2646 Y56.0470
G01 X91.2902 Y56.0614
G01 X91.3618 Y56.1040
G01 X91.4280 Y56.0645
G01 X91.4590 Y56.0470
G01 X91.4862 Y56.0324
G01 X91.5340 Y56.0086
G01 X91.6428 Y55.9573
G01 X91.6694 Y55.9454
G01 X91.6964 Y55.9341
G01 X91.7375 Y55.9180
G01 X91.8501 Y55.8775
G01 X91.8828 Y55.8663
G01 X90.8535 Y54.8370
G01 X81.4534 Y54.8370
G01 X82.3688 Y55.7525
G01 X85.8030 Y55.3470
G01 X85.8573 Y55.3622
G01 X85.8920 Y55.3727
G01 X85.9245 Y55.3833
G01 X85.9636 Y55.3967
G01 X86.0840 Y55.4400
G01 X86.1317 Y55.4586
G01 X86.1760 Y55.4771
G01 X86.2189 Y55.4963
G01 X86.2818 Y55.5259
G01 X86.3446 Y55.4963
G01 X86.3875 Y55.4771
G01 X86.4318 Y55.4586
G01 X86.4795 Y55.4400
G01 X86.5999 Y55.3967
G01 X86.6391 Y55.3833
G01 X86.6715 Y55.3727
G01 X86.7062 Y55.3622
G01 X86.7306 Y55.3552
G01 X86.7492 Y55.3501
G01 X86.7574 Y55.3479
G01 X86.7601 Y55.3472
G01 X86.7605 Y55.3470
G01 X85.8030 Y55.3470
G01 X88.3430 Y55.3470
G01 X88.3973 Y55.3622
G01 X88.4320 Y55.3727
G01 X88.4645 Y55.3833
G01 X88.5036 Y55.3967
G01 X88.6240 Y55.4400
G01 X88.6717 Y55.4586
G01 X88.7160 Y55.4771
G01 X88.7589 Y55.4963
G01 X88.8218 Y55.5259
G01 X88.8846 Y55.4963
G01 X88.9275 Y55.4771
G01 X88.9718 Y55.4586
G01 X89.0195 Y55.4400
G01 X89.1399 Y55.3967
G01 X89.1791 Y55.3833
G01 X89.2115 Y55.3727
G01 X89.2462 Y55.3622
G01 X89.3005 Y55.3470
G01 X88.3430 Y55.3470
G00 Z0.5000
G00 X93.0405 Y56.3028
G01 F250.00
G01 Z-0.0400
G01 F1250.00
G01 X91.0648 Y54.3270
G01 X80.2221 Y54.3270
G01 X82.1778 Y56.2827
G01 X82.2475 Y56.2724
G01 X82.2690 Y56.2698
G01 X82.2925 Y56.2675
G01 X82.3272 Y56.2651
G01 X82.4393 Y56.2597
G01 X82.4626 Y56.2592
G01 X82.5043 Y56.2597
G01 X82.6314 Y56.2660
G01 X82.6562 Y56.2679
G01 X82.6960 Y56.2724
G01 X82.8060 Y56.2886
G01 X82.8421 Y56.2947
G01 X82.8651 Y56.2993
G01 X82.8973 Y56.3068
G01 X82.9925 Y56.3306
G01 X83.0249 Y56.3394
G01 X83.0477 Y56.3463
G01 X83.0816 Y56.3577
G01 X83.1740 Y56.3907
G01 X83.2109 Y56.4048
G01 X83.2321 Y56.4137
G01 X83.2521 Y56.4227
G01 X83.3487 Y56.4683
G01 X83.3780 Y56.4828
G01 X83.3986 Y56.4937
G01 X83.4308 Y56.5122
G01 X83.5231 Y56.5676
G01 X83.5435 Y56.5805
G01 X83.5669 Y56.5961
G01 X83.5924 Y56.6144
G01 X83.6817 Y56.6808
G01 X83.7132 Y56.7059
G01 X83.7418 Y56.7306
G01 X83.7663 Y56.7092
G01 X83.7881 Y56.6914
G01 X83.8124 Y56.6728
G01 X83.8912 Y56.6144
G01 X83.9166 Y56.5961
G01 X83.9358 Y56.5832
G01 X83.9686 Y56.5626
G01 X84.0648 Y56.5051
G01 X84.0850 Y56.4937
G01 X84.1056 Y56.4828
G01 X84.1349 Y56.4683
G01 X84.2356 Y56.4208
G01 X84.2726 Y56.4048
G01 X84.2956 Y56.3959
G01 X84.4115 Y56.3543
G01 X84.4359 Y56.3463
G01 X84.4586 Y56.3394
G01 X84.4910 Y56.3306
G01 X84.5862 Y56.3068
G01 X84.6233 Y56.2983
G01 X84.6461 Y56.2939
G01 X84.6775 Y56.2886
G01 X84.7745 Y56.2743
G01 X84.8090 Y56.2698
G01 X84.8325 Y56.2675
G01 X84.8574 Y56.2657
G01 X84.9652 Y56.2603
G01 X85.0026 Y56.2592
G01 X85.0443 Y56.2597
G01 X85.1714 Y56.2660
G01 X85.1962 Y56.2679
G01 X85.2360 Y56.2724
G01 X85.3460 Y56.2886
G01 X85.3821 Y56.2947
G01 X85.4234 Y56.3034
G01 X85.5325 Y56.3306
G01 X85.5607 Y56.3382
G01 X85.5825 Y56.3447
G01 X85.6216 Y56.3577
G01 X85.7231 Y56.3941
G01 X85.7461 Y56.4029
G01 X85.7679 Y56.4119
G01 X85.8000 Y56.4264
G01 X85.8970 Y56.4723
G01 X85.9180 Y56.4828
G01 X85.9428 Y56.4961
G01 X85.9708 Y56.5122
G01 X86.0631 Y56.5676
G01 X86.0835 Y56.5805
G01 X86.1069 Y56.5961
G01 X86.1324 Y56.6144
G01 X86.2217 Y56.6808
G01 X86.2532 Y56.7059
G01 X86.2818 Y56.7306
G01 X86.3103 Y56.7059
G01 X86.3281 Y56.6914
G01 X86.3524 Y56.6728
G01 X86.4421 Y56.6064
G01 X86.4758 Y56.5832
G01 X86.4961 Y56.5702
G01 X86.6006 Y56.5075
G01 X86.6207 Y56.4961
G01 X86.6412 Y56.4851
G01 X86.6749 Y56.4683
G01 X86.7635 Y56.4264
G01 X86.7956 Y56.4119
G01 X86.8174 Y56.4029
G01 X86.8496 Y56.3907
G01 X86.9419 Y56.3577
G01 X86.9759 Y56.3463
G01 X86.9986 Y56.3394
G01 X87.0188 Y56.3338
G01 X87.1262 Y56.3068
G01 X87.1633 Y56.2983
G01 X87.1861 Y56.2939
G01 X87.2175 Y56.2886
G01 X87.3275 Y56.2724
G01 X87.3673 Y56.2679
G01 X87.3922 Y56.2660
G01 X87.5144 Y56.2599
G01 X87.5377 Y56.2593
G01 X87.5610 Y56.2592
G01 X87.5983 Y56.2603
G01 X87.6963 Y56.2651
G01 X87.7310 Y56.2675
G01 X87.7546 Y56.2698
G01 X87.7890 Y56.2743
G01 X87.8860 Y56.2886
G01 X87.9174 Y56.2939
G01 X87.9402 Y56.2983
G01 X87.9773 Y56.3068
G01 X88.0725 Y56.3306
G01 X88.1007 Y56.3382
G01 X88.1277 Y56.3463
G01 X88.1616 Y56.3577
G01 X88.2540 Y56.3907
G01 X88.2861 Y56.4029
G01 X88.3079 Y56.4119
G01 X88.3400 Y56.4264
G01 X88.4370 Y56.4723
G01 X88.4580 Y56.4828
G01 X88.4828 Y56.4961
G01 X88.5108 Y56.5122
G01 X88.6031 Y56.5676
G01 X88.6235 Y56.5805
G01 X88.6469 Y56.5961
G01 X88.6724 Y56.6144
G01 X88.7617 Y56.6808
G01 X88.7932 Y56.7059
G01 X88.8218 Y56.7306
G01 X88.8503 Y56.7059
G01 X88.8681 Y56.6914
G01 X88.8924 Y56.6728
G01 X88.9821 Y56.6064
G01 X89.0158 Y56.5832
G01 X89.0361 Y56.5702
G01 X89.1406 Y56.5075
G01 X89.1607 Y56.4961
G01 X89.1812 Y56.4851
G01 X89.2149 Y56.4683
G01 X89.3035 Y56.4264
G01 X89.3314 Y56.4137
G01 X89.3574 Y56.4029
G01 X89.3804 Y56.3941
G01 X89.4915 Y56.3543
G01 X89.5210 Y56.3447
G01 X89.5429 Y56.3382
G01 X89.5630 Y56.3327
G01 X89.6753 Y56.3046
G01 X89.6985 Y56.2993
G01 X89.7214 Y56.2947
G01 X89.7575 Y56.2886
G01 X89.8545 Y56.2743
G01 X89.8890 Y56.2698
G01 X89.9125 Y56.2675
G01 X89.9472 Y56.2651
G01 X90.0452 Y56.2603
G01 X90.0826 Y56.2592
G01 X90.1059 Y56.2593
G01 X90.1383 Y56.2603
G01 X90.2363 Y56.2651
G01 X90.2762 Y56.2679
G01 X90.2991 Y56.2703
G01 X90.3205 Y56.2730
G01 X90.4260 Y56.2886
G01 X90.4574 Y56.2939
G01 X90.4802 Y56.2983
G01 X90.5173 Y56.3068
G01 X90.6125 Y56.3306
G01 X90.6407 Y56.3382
G01 X90.6677 Y56.3463
G01 X90.7016 Y56.3577
G01 X90.7940 Y56.3907
G01 X90.8261 Y56.4029
G01 X90.8479 Y56.4119
G01 X90.8800 Y56.4264
G01 X90.9770 Y56.4723
G01 X90.9980 Y56.4828
G01 X91.0228 Y56.4961
G01 X91.0508 Y56.5122
G01 X91.1431 Y56.5676
G01 X91.1635 Y56.5805
G01 X91.1869 Y56.5961
G01 X91.2124 Y56.6144
G01 X91.3017 Y56.6808
G01 X91.3332 Y56.7059
G01 X91.3618 Y56.7306
G01 X91.3903 Y56.7059
G01 X91.4218 Y56.6808
G01 X91.5112 Y56.6144
G01 X91.5405 Y56.5935
G01 X91.5600 Y56.5805
G01 X91.5886 Y56.5626
G01 X91.6806 Y56.5075
G01 X91.7007 Y56.4961
G01 X91.7212 Y56.4851
G01 X91.7549 Y56.4683
G01 X91.8435 Y56.4264
G01 X91.8714 Y56.4137
G01 X91.8974 Y56.4029
G01 X91.9296 Y56.3907
G01 X92.0366 Y56.3526
G01 X92.0559 Y56.3463
G01 X92.0786 Y56.3394
G01 X92.1110 Y56.3306
G01 X92.2062 Y56.3068
G01 X92.2433 Y56.2983
G01 X92.2661 Y56.2939
G01 X92.2886 Y56.2900
G01 X92.3945 Y56.2743
G01 X92.4290 Y56.2698
G01 X92.4722 Y56.2660
G01 X92.5993 Y56.2597
G01 X92.6410 Y56.2592
G01 X92.6691 Y56.2599
G01 X92.7763 Y56.2651
G01 X92.8162 Y56.2679
G01 X92.8391 Y56.2703
G01 X92.8605 Y56.2730
G01 X92.9749 Y56.2900
G01 X93.0021 Y56.2947
G01 X93.0405 Y56.3028
G00 Z0.5000
G00 X91.1517 Y60.3427
G01 F250.00
G01 Z-0.0400
G01 F1250.00
G01 X91.0508 Y60.4035
G01 X91.0186 Y60.4220
G01 X90.9980 Y60.4329
G01 X90.9770 Y60.4434
G01 X90.8680 Y60.4949
G01 X90.8309 Y60.5109
G01 X90.8080 Y60.5198
G01 X90.7016 Y60.5580
G01 X90.6625 Y60.5710
G01 X90.6407 Y60.5775
G01 X90.6125 Y60.5851
G01 X90.5082 Y60.6111
G01 X90.4851 Y60.6164
G01 X90.4621 Y60.6210
G01 X90.4260 Y60.6271
G01 X90.3290 Y60.6415
G01 X90.2991 Y60.6454
G01 X90.2763 Y60.6478
G01 X90.2363 Y60.6506
G01 X90.1383 Y60.6554
G01 X90.1010 Y60.6565
G01 X90.0777 Y60.6564
G01 X90.0544 Y60.6558
G01 X89.9322 Y60.6497
G01 X89.9073 Y60.6478
G01 X89.8675 Y60.6433
G01 X89.7575 Y60.6271
G01 X89.7261 Y60.6218
G01 X89.7033 Y60.6174
G01 X89.6662 Y60.6089
G01 X89.5588 Y60.5819
G01 X89.5386 Y60.5763
G01 X89.5159 Y60.5694
G01 X89.4819 Y60.5580
G01 X89.3896 Y60.5250
G01 X89.3574 Y60.5128
G01 X89.3356 Y60.5038
G01 X89.3035 Y60.4893
G01 X89.2149 Y60.4474
G01 X89.1812 Y60.4306
G01 X89.1607 Y60.4196
G01 X89.1406 Y60.4082
G01 X89.0361 Y60.3455
G01 X89.0158 Y60.3325
G01 X88.9821 Y60.3093
G01 X88.8924 Y60.2429
G01 X88.8681 Y60.2243
G01 X88.8503 Y60.2098
G01 X88.8218 Y60.1851
G01 X88.7932 Y60.2098
G01 X88.7617 Y60.2349
G01 X88.6724 Y60.3013
G01 X88.6469 Y60.3196
G01 X88.6235 Y60.3352
G01 X88.6031 Y60.3481
G01 X88.5108 Y60.4035
G01 X88.4828 Y60.4196
G01 X88.4623 Y60.4306
G01 X88.4287 Y60.4474
G01 X88.3400 Y60.4893
G01 X88.3121 Y60.5020
G01 X88.2861 Y60.5128
G01 X88.2540 Y60.5250
G01 X88.1520 Y60.5614
G01 X88.1277 Y60.5694
G01 X88.1049 Y60.5763
G01 X88.0725 Y60.5851
G01 X87.9682 Y60.6111
G01 X87.9451 Y60.6164
G01 X87.9174 Y60.6218
G01 X87.8860 Y60.6271
G01 X87.7805 Y60.6427
G01 X87.7546 Y60.6459
G01 X87.7310 Y60.6482
G01 X87.6963 Y60.6506
G01 X87.5843 Y60.6560
G01 X87.5610 Y60.6565
G01 X87.5193 Y60.6560
G01 X87.3974 Y60.6500
G01 X87.3725 Y60.6482
G01 X87.3490 Y60.6459
G01 X87.3145 Y60.6415
G01 X87.2175 Y60.6271
G01 X87.1861 Y60.6218
G01 X87.1633 Y60.6174
G01 X87.1262 Y60.6089
G01 X87.0310 Y60.5851
G01 X86.9986 Y60.5763
G01 X86.9759 Y60.5694
G01 X86.9515 Y60.5614
G01 X86.8356 Y60.5198
G01 X86.8126 Y60.5109
G01 X86.7756 Y60.4949
G01 X86.6749 Y60.4474
G01 X86.6456 Y60.4329
G01 X86.6250 Y60.4220
G01 X86.6048 Y60.4106
G01 X86.5086 Y60.3531
G01 X86.4758 Y60.3325
G01 X86.4566 Y60.3196
G01 X86.4312 Y60.3013
G01 X86.3524 Y60.2429
G01 X86.3281 Y60.2243
G01 X86.3063 Y60.2065
G01 X86.2818 Y60.1851
G01 X86.2572 Y60.2065
G01 X86.2354 Y60.2243
G01 X86.2112 Y60.2429
G01 X86.1351 Y60.2993
G01 X86.1281 Y60.3310
G01 X86.1136 Y60.3887
G01 X86.1028 Y60.4265
G01 X86.0897 Y60.4656
G01 X86.0720 Y60.5148
G01 X86.0559 Y60.5547
G01 X86.0451 Y60.5790
G01 X86.0255 Y60.6206
G01 X86.0087 Y60.6543
G01 X85.9887 Y60.6907
G01 X85.9574 Y60.7430
G01 X85.9418 Y60.7676
G01 X85.9186 Y60.8013
G01 X85.8804 Y60.8529
G01 X85.8552 Y60.8844
G01 X85.8293 Y60.9143
G01 X85.7885 Y60.9588
G01 X85.7720 Y60.9758
G01 X83.7197 Y63.0281
G01 X83.7027 Y63.0446
G01 X83.6510 Y63.0918
G01 X83.6323 Y63.1080
G01 X83.6141 Y63.1230
G01 X83.5932 Y63.1392
G01 X83.5562 Y63.1667
G01 X83.5269 Y63.1876
G01 X83.5073 Y63.2006
G01 X83.4869 Y63.2135
G01 X83.4388 Y63.2423
G01 X83.4187 Y63.2538
G01 X83.3982 Y63.2648
G01 X83.3773 Y63.2754
G01 X83.3318 Y63.2971
G01 X88.1971 Y63.2973
G01 X91.1517 Y60.3427
G00 Z0.5000
G00 X85.9131 Y62.2772
G01 F250.00
G01 Z-0.0400
G01 F1250.00
G01 X87.7747 Y62.2773
G01 X88.5493 Y61.5026
G01 X88.4843 Y61.5257
G01 X88.4419 Y61.5398
G01 X88.3943 Y61.5544
G01 X88.3543 Y61.5656
G01 X88.3203 Y61.5745
G01 X88.1988 Y61.6047
G01 X88.1507 Y61.6154
G01 X88.1004 Y61.6253
G01 X88.0507 Y61.6337
G01 X87.9329 Y61.6512
G01 X87.8828 Y61.6579
G01 X87.8389 Y61.6626
G01 X87.7882 Y61.6668
G01 X87.7514 Y61.6691
G01 X87.6329 Y61.6748
G01 X87.5815 Y61.6763
G01 X87.5300 Y61.6764
G01 X87.4753 Y61.6750
G01 X87.3505 Y61.6690
G01 X87.2923 Y61.6651
G01 X87.2432 Y61.6604
G01 X87.1980 Y61.6550
G01 X87.0633 Y61.6353
G01 X87.0300 Y61.6300
G01 X86.9831 Y61.6215
G01 X86.9448 Y61.6137
G01 X86.8952 Y61.6025
G01 X86.7818 Y61.5741
G01 X86.7492 Y61.5656
G01 X86.7182 Y61.5570
G01 X86.6886 Y61.5482
G01 X86.6421 Y61.5334
G01 X86.6125 Y61.5683
G01 X86.5861 Y61.5981
G01 X86.5457 Y61.6425
G01 X86.5078 Y61.6823
G01 X85.9131 Y62.2772
G01 X84.6819 Y62.7871
G01 X87.9859 Y62.7873
G01 X89.6474 Y61.1258
G01 X89.5981 Y61.1164
G01 X89.5576 Y61.1073
G01 X89.4444 Y61.0791
G01 X89.3984 Y61.0667
G01 X89.3637 Y61.0562
G01 X89.3262 Y61.0438
G01 X89.2178 Y61.0052
G01 X89.1913 Y60.9954
G01 X89.1564 Y60.9816
G01 X89.1337 Y60.9721
G01 X89.1082 Y60.9609
G01 X88.9968 Y60.9084
G01 X88.9727 Y60.8967
G01 X88.9462 Y60.8833
G01 X88.9093 Y60.8633
G01 X88.8811 Y60.8472
G01 X88.8218 Y60.8117
G01 X88.7502 Y60.8543
G01 X88.7246 Y60.8687
G01 X88.6929 Y60.8856
G01 X88.6467 Y60.9084
G01 X88.5554 Y60.9516
G01 X88.5195 Y60.9679
G01 X88.4765 Y60.9859
G01 X88.4258 Y61.0052
G01 X88.3122 Y61.0456
G01 X88.2799 Y61.0562
G01 X88.2451 Y61.0667
G01 X88.1991 Y61.0791
G01 X88.0811 Y61.1085
G01 X88.0503 Y61.1154
G01 X88.0213 Y61.1212
G01 X87.9728 Y61.1297
G01 X87.8496 Y61.1480
G01 X87.8166 Y61.1521
G01 X87.7876 Y61.1552
G01 X87.7345 Y61.1592
G01 X87.6110 Y61.1653
G01 X87.5610 Y61.1665
G01 X87.5314 Y61.1664
G01 X87.5005 Y61.1656
G01 X87.3789 Y61.1598
G01 X87.3537 Y61.1583
G01 X87.3222 Y61.1558
G01 X87.2914 Y61.1526
G01 X87.2584 Y61.1486
G01 X87.1397 Y61.1311
G01 X87.0931 Y61.1233
G01 X87.0470 Y61.1140
G01 X87.0054 Y61.1044
G01 X86.8840 Y61.0738
G01 X86.8584 Y61.0667
G01 X86.8288 Y61.0578
G01 X86.7829 Y61.0427
G01 X86.6655 Y61.0007
G01 X86.6164 Y60.9816
G01 X86.5894 Y60.9703
G01 X86.5587 Y60.9565
G01 X86.4523 Y60.9063
G01 X86.4269 Y60.9517
G01 X86.3888 Y61.0150
G01 X86.3717 Y61.0421
G01 X86.3552 Y61.0668
G01 X86.3291 Y61.1041
G01 X86.2865 Y61.1614
G01 X86.2657 Y61.1880
G01 X86.2462 Y61.2119
G01 X86.2159 Y61.2471
G01 X86.1805 Y61.2862
G01 X86.1604 Y61.3078
G01 X86.1326 Y61.3364
G01 X84.6819 Y62.7871
G00 Z0.5000
G00 X98.9213 Y55.4920
G01 F250.00
G01 Z-0.0400
G01 F1250.00
G01 X98.9214 Y55.3256
G01 X91.6998 Y48.1040
G01 X79.1844 Y48.1040
G01 X79.2506 Y48.1642
G01 X79.2675 Y48.1802
G01 X79.2840 Y48.1966
G01 X79.3097 Y48.2238
G01 X79.3855 Y48.3076
G01 X79.4132 Y48.3406
G01 X79.4346 Y48.3685
G01 X79.5011 Y48.4582
G01 X79.5140 Y48.4766
G01 X79.5270 Y48.4961
G01 X79.5448 Y48.5247
G01 X79.5952 Y48.6088
G01 X79.6137 Y48.6411
G01 X79.6246 Y48.6616
G01 X79.6351 Y48.6826
G01 X79.6811 Y48.7796
G01 X79.6955 Y48.8117
G01 X79.7116 Y48.8517
G01 X79.7497 Y48.9580
G01 X79.7612 Y48.9920
G01 X79.7680 Y49.0147
G01 X79.7747 Y49.0391
G01 X79.8028 Y49.1514
G01 X79.8091 Y49.1794
G01 X79.8136 Y49.2022
G01 X79.8174 Y49.2247
G01 X79.8344 Y49.3391
G01 X79.8371 Y49.3605
G01 X79.8395 Y49.3834
G01 X79.8423 Y49.4233
G01 X79.8477 Y49.5354
G01 X79.8482 Y49.5771
G01 X79.8475 Y49.6052
G01 X79.8418 Y49.7222
G01 X79.8399 Y49.7471
G01 X79.8376 Y49.7707
G01 X79.8332 Y49.8051
G01 X79.8188 Y49.9021
G01 X79.8136 Y49.9335
G01 X79.8091 Y49.9563
G01 X79.8040 Y49.9795
G01 X79.7944 Y50.0182
G01 X93.0212 Y50.0182
G01 X93.0619 Y50.0193
G01 X93.1091 Y50.0217
G01 X93.1392 Y50.0240
G01 X93.1620 Y50.0264
G01 X93.1835 Y50.0291
G01 X93.2378 Y50.0372
G01 X93.2651 Y50.0419
G01 X93.2880 Y50.0465
G01 X93.3111 Y50.0517
G01 X93.3646 Y50.0651
G01 X93.3889 Y50.0718
G01 X93.4117 Y50.0787
G01 X93.4310 Y50.0850
G01 X93.4949 Y50.1078
G01 X93.5178 Y50.1168
G01 X93.5549 Y50.1328
G01 X93.6007 Y50.1543
G01 X93.6300 Y50.1688
G01 X93.6506 Y50.1798
G01 X93.6750 Y50.1936
G01 X93.7231 Y50.2224
G01 X93.7435 Y50.2353
G01 X93.7631 Y50.2483
G01 X93.7852 Y50.2640
G01 X93.8294 Y50.2967
G01 X93.8503 Y50.3129
G01 X93.8685 Y50.3279
G01 X93.8944 Y50.3506
G01 X93.9295 Y50.3824
G01 X93.9529 Y50.4049
G01 X98.6601 Y55.1121
G01 X98.6778 Y55.1307
G01 X98.7096 Y55.1657
G01 X98.7356 Y55.1956
G01 X98.7501 Y55.2135
G01 X98.7635 Y55.2308
G01 X98.7962 Y55.2749
G01 X98.8119 Y55.2971
G01 X98.8249 Y55.3166
G01 X98.8377 Y55.3370
G01 X98.8666 Y55.3852
G01 X98.8781 Y55.4053
G01 X98.8891 Y55.4258
G01 X98.8997 Y55.4466
G01 X98.9213 Y55.4920
G00 Z0.5000
G00 X104.0011 Y53.7138
G01 F250.00
G01 Z-0.0400
G01 F1250.00
G01 X104.0015 Y52.2779
G01 X95.7563 Y44.0350
G01 X94.4129 Y44.0350
G01 X94.4655 Y44.0739
G01 X94.4827 Y44.0874
G01 X94.5010 Y44.1024
G01 X94.5196 Y44.1185
G01 X94.5546 Y44.1501
G01 X94.5714 Y44.1657
G01 X94.5884 Y44.1823
G01 X103.7353 Y53.3292
G01 X103.7645 Y53.3600
G01 X103.7961 Y53.3950
G01 X103.8156 Y53.4176
G01 X103.8301 Y53.4355
G01 X103.8435 Y53.4528
G01 X103.8762 Y53.4969
G01 X103.8892 Y53.5152
G01 X103.9049 Y53.5386
G01 X103.9177 Y53.5590
G01 X103.9466 Y53.6072
G01 X103.9581 Y53.6273
G01 X103.9691 Y53.6478
G01 X103.9797 Y53.6686
G01 X104.0011 Y53.7138
G00 Z0.5000
G00 X111.0625 Y55.8375
G01 F250.00
G01 Z-0.0400
G01 F1250.00
G01 X111.1090 Y55.8502
G01 X111.1091 Y55.7910
G01 X111.0625 Y55.8375
G01 X111.6204 Y54.5581
G01 X109.8309 Y56.3479
G01 X109.8586 Y56.3394
G01 X109.8910 Y56.3306
G01 X109.9953 Y56.3046
G01 X110.0185 Y56.2993
G01 X110.0414 Y56.2947
G01 X110.0775 Y56.2886
G01 X110.1875 Y56.2724
G01 X110.2273 Y56.2679
G01 X110.2574 Y56.2657
G01 X110.3652 Y56.2603
G01 X110.4026 Y56.2592
G01 X110.4259 Y56.2593
G01 X110.4491 Y56.2599
G01 X110.5563 Y56.2651
G01 X110.5962 Y56.2679
G01 X110.6360 Y56.2724
G01 X110.7460 Y56.2886
G01 X110.7774 Y56.2939
G01 X110.8051 Y56.2993
G01 X110.8373 Y56.3068
G01 X110.9405 Y56.3327
G01 X110.9607 Y56.3382
G01 X110.9825 Y56.3447
G01 X111.0216 Y56.3577
G01 X111.1231 Y56.3941
G01 X111.1509 Y56.4048
G01 X111.1880 Y56.4208
G01 X111.3014 Y56.4745
G01 X111.3386 Y56.4937
G01 X111.3708 Y56.5122
G01 X111.4631 Y56.5676
G01 X111.4835 Y56.5805
G01 X111.5030 Y56.5935
G01 X111.5324 Y56.6144
G01 X111.6203 Y56.6797
G01 X111.6204 Y54.5581
G00 Z0.5000
G00 X105.2088 Y32.2680
G01 F250.00
G01 Z-0.0400
G01 F1250.00
G01 X105.2316 Y32.2629
G01 X105.2721 Y32.2554
G01 X105.3313 Y32.2466
G01 X105.3572 Y32.2433
G01 X105.3807 Y32.2410
G01 X105.4056 Y32.2392
G01 X105.4611 Y32.2364
G01 X105.4935 Y32.2357
G01 X108.6473 Y32.2358
G01 X108.6721 Y32.2364
G01 X108.7177 Y32.2386
G01 X108.7576 Y32.2415
G01 X108.7805 Y32.2438
G01 X108.8019 Y32.2466
G01 X108.8563 Y32.2546
G01 X108.8835 Y32.2593
G01 X108.9064 Y32.2639
G01 X108.9296 Y32.2692
G01 X108.9830 Y32.2826
G01 X109.0074 Y32.2892
G01 X109.0302 Y32.2961
G01 X109.0495 Y32.3024
G01 X109.1133 Y32.3253
G01 X109.1363 Y32.3343
G01 X109.1734 Y32.3502
G01 X109.2192 Y32.3718
G01 X109.2485 Y32.3863
G01 X109.2691 Y32.3972
G01 X109.2893 Y32.4086
G01 X109.3459 Y32.4425
G01 X109.3662 Y32.4555
G01 X109.3999 Y32.4787
G01 X109.4409 Y32.5089
G01 X109.4651 Y32.5275
G01 X109.4830 Y32.5421
G01 X109.5018 Y32.5581
G01 X109.5479 Y32.5999
G01 X109.5744 Y32.6253
G01 X111.6064 Y34.6573
G01 X111.6215 Y34.6728
G01 X111.6215 Y34.4978
G01 X109.2258 Y32.1020
G01 X105.3747 Y32.1020
G01 X105.2088 Y32.2680
G00 Z0.5000
G00 X111.5907 Y2.9490
G01 F250.00
G01 Z-0.0400
G01 F1250.00
G01 X127.0510 Y11.7693
G01 X127.0510 Y2.9490
G01 X111.5907 Y2.9490
G01 X113.5139 Y3.4590
G01 X126.5410 Y10.8912
G01 X126.5410 Y3.4590
G01 X113.5139 Y3.4590
G01 X115.4370 Y3.9690
G01 X126.0310 Y10.0130
G01 X126.0310 Y3.9690
G01 X115.4370 Y3.9690
G01 X117.3601 Y4.4790
G01 X125.5210 Y9.1349
G01 X125.5210 Y4.4790
G01 X117.3601 Y4.4790
G01 X119.2832 Y4.9890
G01 X125.0110 Y8.2568
G01 X125.0110 Y4.9890
G01 X119.2832 Y4.9890
G01 X121.2063 Y5.4990
G01 X124.5010 Y7.3787
G01 X124.5010 Y5.4990
G01 X121.2063 Y5.4990
G01 X123.1294 Y6.0090
G01 X123.9910 Y6.5005
G01 X123.9910 Y6.0090
G01 X123.1294 Y6.0090
G00 Z0.5000
G00 X111.7486 Y86.1049
G01 F250.00
G01 Z-0.0400
G01 F1250.00
G01 X111.7486 Y85.6400
G01 X111.7281 Y85.6243
G01 X111.7103 Y85.6098
G01 X111.6818 Y85.5851
G01 X111.6532 Y85.6098
G01 X111.6217 Y85.6349
G01 X111.5214 Y85.7093
G01 X111.5030 Y85.7222
G01 X111.4835 Y85.7352
G01 X111.4631 Y85.7481
G01 X111.4185 Y85.7749
G01 X111.7486 Y86.1049
G00 Z0.5000
G00 X106.0248 Y87.8464
G01 F250.00
G01 Z-0.0400
G01 F1250.00
G01 X106.4833 Y87.3892
G01 X106.5580 Y87.3624
G01 X106.6018 Y87.3461
G01 X106.6518 Y87.3647
G01 X106.7807 Y87.4105
G01 X106.8393 Y87.4297
G01 X106.9023 Y87.4486
G01 X106.9711 Y87.4671
G01 X107.1085 Y87.5013
G01 X107.1737 Y87.5157
G01 X107.2163 Y87.5242
G01 X107.2473 Y87.5298
G01 X108.0577 Y88.3402
G01 X108.0562 Y88.5099
G01 X107.9931 Y88.4947
G01 X107.9560 Y88.4865
G01 X107.9153 Y88.4782
G01 X107.8806 Y88.4587
G01 X107.8494 Y88.4417
G01 X107.7851 Y88.4085
G01 X107.7266 Y88.3801
G01 X107.6668 Y88.3523
G01 X107.6254 Y88.3339
G01 X107.5620 Y88.3073
G01 X107.5022 Y88.2840
G01 X107.4638 Y88.2699
G01 X107.4051 Y88.2493
G01 X107.3513 Y88.2312
G01 X107.3161 Y88.2201
G01 X107.2726 Y88.2071
G01 X106.0248 Y87.8464
G01 X105.0522 Y88.0961
G01 X106.2023 Y86.9460
G01 X106.2445 Y86.9324
G01 X106.2804 Y86.9201
G01 X106.3838 Y86.8831
G01 X106.4346 Y86.8639
G01 X106.4633 Y86.8524
G01 X106.5068 Y86.8339
G01 X106.5416 Y86.8182
G01 X106.6018 Y86.7898
G01 X106.6646 Y86.8194
G01 X106.7048 Y86.8374
G01 X106.7489 Y86.8559
G01 X106.7871 Y86.8710
G01 X106.8244 Y86.8848
G01 X106.9393 Y86.9257
G01 X106.9882 Y86.9419
G01 X107.0292 Y86.9544
G01 X107.0692 Y86.9656
G01 X107.1032 Y86.9745
G01 X107.2152 Y87.0025
G01 X107.2728 Y87.0154
G01 X107.3154 Y87.0239
G01 X107.3591 Y87.0315
G01 X107.4899 Y87.0511
G01 X108.5696 Y88.1308
G01 X108.5696 Y89.2351
G01 X108.4459 Y89.1767
G01 X108.4070 Y89.1595
G01 X108.3669 Y89.1428
G01 X108.3285 Y89.1278
G01 X108.2943 Y89.1151
G01 X108.1939 Y89.0792
G01 X108.1403 Y89.0612
G01 X108.0895 Y89.0455
G01 X108.0468 Y89.0336
G01 X108.0155 Y89.0254
G01 X107.8988 Y88.9963
G01 X107.8539 Y88.9862
G01 X107.8125 Y88.9778
G01 X107.7687 Y88.9699
G01 X107.7363 Y88.9647
G01 X107.6627 Y88.9213
G01 X107.6332 Y88.9047
G01 X107.6002 Y88.8869
G01 X107.5681 Y88.8702
G01 X107.5322 Y88.8524
G01 X107.4554 Y88.8165
G01 X107.4207 Y88.8010
G01 X107.3894 Y88.7877
G01 X107.3311 Y88.7645
G01 X107.2928 Y88.7503
G01 X107.2365 Y88.7306
G01 X107.1893 Y88.7148
G01 X107.1298 Y88.6967
G01 X105.0522 Y88.0961
G01 X103.9679 Y88.5260
G01 X103.9052 Y88.5219
G01 X105.9375 Y86.4895
G01 X105.9899 Y86.4763
G01 X106.0209 Y86.4679
G01 X106.0547 Y86.4578
G01 X106.0857 Y86.4478
G01 X106.1134 Y86.4382
G01 X106.2212 Y86.3996
G01 X106.2565 Y86.3859
G01 X106.2841 Y86.3745
G01 X106.3153 Y86.3609
G01 X106.3381 Y86.3504
G01 X106.4379 Y86.3031
G01 X106.4729 Y86.2856
G01 X106.5046 Y86.2687
G01 X106.5302 Y86.2543
G01 X106.6018 Y86.2117
G01 X106.6680 Y86.2512
G01 X106.6990 Y86.2687
G01 X106.7262 Y86.2833
G01 X106.7740 Y86.3071
G01 X106.8882 Y86.3609
G01 X106.9137 Y86.3721
G01 X106.9364 Y86.3816
G01 X106.9824 Y86.3996
G01 X107.1029 Y86.4427
G01 X107.1488 Y86.4578
G01 X107.1784 Y86.4667
G01 X107.2094 Y86.4752
G01 X107.3223 Y86.5036
G01 X107.3732 Y86.5154
G01 X107.4131 Y86.5233
G01 X107.4627 Y86.5315
G01 X107.5626 Y86.5463
G01 X107.6011 Y86.5514
G01 X107.6541 Y86.5568
G01 X107.6857 Y86.5590
G01 X107.7209 Y86.5609
G01 X109.0796 Y87.9195
G01 X109.0796 Y90.2548
G01 X109.0209 Y90.1903
G01 X108.9962 Y90.1645
G01 X108.9743 Y90.1426
G01 X108.9358 Y90.1062
G01 X108.8447 Y90.0239
G01 X108.8111 Y89.9952
G01 X108.7884 Y89.9767
G01 X108.7654 Y89.9589
G01 X108.6689 Y89.8872
G01 X108.6311 Y89.8602
G01 X108.5973 Y89.8375
G01 X108.5523 Y89.8094
G01 X108.4507 Y89.7487
G01 X108.4197 Y89.7312
G01 X108.3925 Y89.7166
G01 X108.3447 Y89.6928
G01 X108.2358 Y89.6415
G01 X108.2092 Y89.6296
G01 X108.1823 Y89.6183
G01 X108.1412 Y89.6022
G01 X108.0286 Y89.5617
G01 X108.0009 Y89.5521
G01 X107.9750 Y89.5437
G01 X107.9463 Y89.5350
G01 X107.9147 Y89.5262
G01 X107.8916 Y89.5201
G01 X107.7763 Y89.4914
G01 X107.7455 Y89.4845
G01 X107.7164 Y89.4787
G01 X107.6679 Y89.4702
G01 X107.5527 Y89.4531
G01 X107.5197 Y89.4309
G01 X107.4941 Y89.4145
G01 X107.4690 Y89.3991
G01 X107.4140 Y89.3666
G01 X107.3872 Y89.3514
G01 X107.3625 Y89.3381
G01 X107.3362 Y89.3244
G01 X107.3036 Y89.3084
G01 X107.2469 Y89.2819
G01 X107.2215 Y89.2705
G01 X107.1875 Y89.2561
G01 X107.1582 Y89.2444
G01 X107.1217 Y89.2308
G01 X107.0647 Y89.2108
G01 X107.0338 Y89.2006
G01 X107.0034 Y89.1912
G01 X104.8431 Y88.5667
G01 X104.8042 Y88.5565
G01 X104.7299 Y88.5390
G01 X104.6918 Y88.5309
G01 X104.6500 Y88.5233
G01 X104.6068 Y88.5167
G01 X104.5325 Y88.5068
G01 X104.4880 Y88.5022
G01 X104.4361 Y88.4985
G01 X104.3587 Y88.4955
G01 X104.3134 Y88.4947
G01 X104.2727 Y88.4951
G01 X104.2218 Y88.4973
G01 X104.1482 Y88.5020
G01 X104.1171 Y88.5047
G01 X104.0876 Y88.5079
G01 X104.0415 Y88.5141
G01 X103.9679 Y88.5260
G01 X101.8578 Y89.8480
G01 X105.6811 Y86.0247
G01 X105.7202 Y86.0174
G01 X105.7573 Y86.0089
G01 X105.8647 Y85.9819
G01 X105.9025 Y85.9710
G01 X105.9269 Y85.9631
G01 X106.0340 Y85.9250
G01 X106.0709 Y85.9109
G01 X106.0921 Y85.9020
G01 X106.1121 Y85.8930
G01 X106.2087 Y85.8474
G01 X106.2423 Y85.8306
G01 X106.2787 Y85.8106
G01 X106.3749 Y85.7531
G01 X106.4077 Y85.7325
G01 X106.4269 Y85.7196
G01 X106.4452 Y85.7066
G01 X106.5417 Y85.6349
G01 X106.5732 Y85.6098
G01 X106.6018 Y85.5851
G01 X106.6303 Y85.6098
G01 X106.6618 Y85.6349
G01 X106.7512 Y85.7013
G01 X106.7766 Y85.7196
G01 X106.8000 Y85.7352
G01 X106.8204 Y85.7481
G01 X106.9127 Y85.8035
G01 X106.9407 Y85.8196
G01 X106.9656 Y85.8329
G01 X106.9865 Y85.8434
G01 X107.0835 Y85.8893
G01 X107.1156 Y85.9038
G01 X107.1374 Y85.9128
G01 X107.1604 Y85.9216
G01 X107.2619 Y85.9580
G01 X107.3010 Y85.9710
G01 X107.3388 Y85.9819
G01 X107.4462 Y86.0089
G01 X107.4785 Y86.0164
G01 X107.5014 Y86.0210
G01 X107.5239 Y86.0249
G01 X107.6345 Y86.0415
G01 X107.6690 Y86.0459
G01 X107.7122 Y86.0497
G01 X107.8252 Y86.0554
G01 X107.8577 Y86.0564
G01 X107.8810 Y86.0565
G01 X107.9043 Y86.0560
G01 X107.9358 Y86.0545
G01 X109.5896 Y87.7083
G01 X109.5896 Y95.1179
G01 X109.3398 Y95.3677
G01 X109.3401 Y95.3320
G01 X109.3396 Y95.3087
G01 X109.3342 Y95.1967
G01 X109.3314 Y95.1567
G01 X109.3291 Y95.1339
G01 X109.3263 Y95.1124
G01 X109.3093 Y94.9980
G01 X109.3055 Y94.9755
G01 X109.3011 Y94.9528
G01 X109.2926 Y94.9156
G01 X109.2687 Y94.8205
G01 X109.2600 Y94.7881
G01 X109.2531 Y94.7653
G01 X109.2450 Y94.7409
G01 X109.2053 Y94.6298
G01 X109.1945 Y94.6020
G01 X109.1856 Y94.5808
G01 X109.1767 Y94.5608
G01 X109.1271 Y94.4559
G01 X109.1166 Y94.4350
G01 X109.1056 Y94.4144
G01 X109.0872 Y94.3822
G01 X109.0291 Y94.2856
G01 X109.0059 Y94.2499
G01 X108.9850 Y94.2206
G01 X108.9186 Y94.1312
G01 X108.8935 Y94.0997
G01 X108.8774 Y94.0810
G01 X108.7954 Y93.9904
G01 X108.7794 Y93.9734
G01 X108.7629 Y93.9569
G01 X108.7358 Y93.9313
G01 X108.6519 Y93.8555
G01 X108.6189 Y93.8278
G01 X108.5911 Y93.8063
G01 X108.5013 Y93.7399
G01 X108.4830 Y93.7270
G01 X108.4634 Y93.7140
G01 X108.4349 Y93.6962
G01 X108.3507 Y93.6457
G01 X108.3228 Y93.6296
G01 X108.3023 Y93.6186
G01 X108.2814 Y93.6080
G01 X108.2201 Y93.5789
G01 X108.2982 Y93.5320
G01 X108.3187 Y93.5191
G01 X108.3382 Y93.5061
G01 X108.3675 Y93.4852
G01 X108.4569 Y93.4188
G01 X108.4884 Y93.3936
G01 X108.5110 Y93.3742
G01 X108.5978 Y93.2956
G01 X108.6147 Y93.2795
G01 X108.6312 Y93.2631
G01 X108.6568 Y93.2359
G01 X108.7326 Y93.1521
G01 X108.7603 Y93.1191
G01 X108.7766 Y93.0982
G01 X108.8402 Y93.0125
G01 X108.8611 Y92.9831
G01 X108.8741 Y92.9636
G01 X108.8870 Y92.9432
G01 X108.9424 Y92.8509
G01 X108.9608 Y92.8187
G01 X108.9801 Y92.7815
G01 X109.0282 Y92.6801
G01 X109.0427 Y92.6480
G01 X109.0517 Y92.6262
G01 X109.0605 Y92.6032
G01 X109.0969 Y92.5017
G01 X109.1083 Y92.4678
G01 X109.1164 Y92.4408
G01 X109.1239 Y92.4126
G01 X109.1511 Y92.3035
G01 X109.1599 Y92.2622
G01 X109.1646 Y92.2350
G01 X109.1815 Y92.1206
G01 X109.1843 Y92.0992
G01 X109.1866 Y92.0764
G01 X109.1895 Y92.0364
G01 X109.1943 Y91.9384
G01 X109.1954 Y91.9011
G01 X109.1948 Y91.8594
G01 X109.1895 Y91.7473
G01 X109.1866 Y91.7074
G01 X109.1843 Y91.6846
G01 X109.1815 Y91.6631
G01 X109.1646 Y91.5487
G01 X109.1599 Y91.5215
G01 X109.1511 Y91.4803
G01 X109.1219 Y91.3631
G01 X109.1164 Y91.3430
G01 X109.1099 Y91.3211
G01 X109.0969 Y91.2820
G01 X109.0639 Y91.1897
G01 X109.0497 Y91.1527
G01 X109.0338 Y91.1157
G01 X108.9863 Y91.0150
G01 X108.9718 Y90.9857
G01 X108.9585 Y90.9608
G01 X108.9424 Y90.9328
G01 X108.8870 Y90.8406
G01 X108.8741 Y90.8201
G01 X108.8611 Y90.8006
G01 X108.8402 Y90.7713
G01 X108.7738 Y90.6819
G01 X108.7487 Y90.6504
G01 X108.7326 Y90.6316
G01 X108.6473 Y90.5375
G01 X108.6182 Y90.5076
G01 X108.5910 Y90.4820
G01 X108.5183 Y90.4161
G01 X108.4884 Y90.3901
G01 X108.4706 Y90.3756
G01 X108.4532 Y90.3622
G01 X108.3675 Y90.2986
G01 X108.3421 Y90.2803
G01 X108.3229 Y90.2674
G01 X108.2901 Y90.2468
G01 X108.1939 Y90.1893
G01 X108.1575 Y90.1693
G01 X108.1366 Y90.1587
G01 X108.0273 Y90.1069
G01 X108.0073 Y90.0980
G01 X107.9861 Y90.0891
G01 X107.9491 Y90.0749
G01 X107.8472 Y90.0385
G01 X107.8177 Y90.0289
G01 X107.7958 Y90.0224
G01 X107.7757 Y90.0169
G01 X107.6634 Y89.9888
G01 X107.6402 Y89.9835
G01 X107.6173 Y89.9789
G01 X107.5812 Y89.9729
G01 X107.4841 Y89.9585
G01 X107.4542 Y89.9545
G01 X107.4314 Y89.9522
G01 X107.4065 Y89.9502
G01 X107.3636 Y89.9480
G01 X107.3417 Y89.9304
G01 X107.3211 Y89.9149
G01 X107.2785 Y89.8837
G01 X107.2475 Y89.8623
G01 X107.2263 Y89.8485
G01 X107.2033 Y89.8345
G01 X107.1571 Y89.8072
G01 X107.1248 Y89.7893
G01 X107.1043 Y89.7787
G01 X107.0798 Y89.7666
G01 X107.0300 Y89.7435
G01 X106.9954 Y89.7286
G01 X106.9711 Y89.7189
G01 X106.9506 Y89.7112
G01 X106.8994 Y89.6933
G01 X106.8750 Y89.6852
G01 X106.8465 Y89.6766
G01 X104.7104 Y89.0591
G01 X104.6836 Y89.0521
G01 X104.6183 Y89.0366
G01 X104.5965 Y89.0320
G01 X104.5738 Y89.0277
G01 X104.5449 Y89.0230
G01 X104.4761 Y89.0137
G01 X104.4513 Y89.0109
G01 X104.4232 Y89.0086
G01 X104.4016 Y89.0074
G01 X104.3433 Y89.0053
G01 X104.3081 Y89.0046
G01 X104.2651 Y89.0057
G01 X104.1911 Y89.0102
G01 X104.1627 Y89.0127
G01 X104.1396 Y89.0153
G01 X104.1168 Y89.0185
G01 X104.0458 Y89.0300
G01 X104.0248 Y89.0340
G01 X103.9956 Y89.0403
G01 X103.9641 Y89.0371
G01 X103.9026 Y89.0326
G01 X103.8754 Y89.0310
G01 X103.8529 Y89.0303
G01 X103.8202 Y89.0303
G01 X103.7596 Y89.0318
G01 X103.7232 Y89.0334
G01 X103.6994 Y89.0353
G01 X103.6748 Y89.0378
G01 X103.6082 Y89.0462
G01 X103.5804 Y89.0504
G01 X103.5575 Y89.0544
G01 X103.5256 Y89.0611
G01 X103.4638 Y89.0752
G01 X103.4243 Y89.0856
G01 X103.3872 Y89.0971
G01 X103.3257 Y89.1177
G01 X103.2854 Y89.1328
G01 X103.2530 Y89.1465
G01 X103.2030 Y89.1688
G01 X103.1790 Y89.1801
G01 X101.8578 Y89.8480
G00 Z0.5000
G00 X105.5179 Y95.8742
G01 F250.00
G01 Z-0.0400
G01 F1250.00
G01 X105.4875 Y95.7528
G01 X105.4824 Y95.7296
G01 X105.4748 Y95.6891
G01 X105.4583 Y95.5784
G01 X105.4538 Y95.5440
G01 X105.4500 Y95.5008
G01 X105.4471 Y95.4428
G01 X105.2817 Y95.2775
G01 X105.1556 Y95.3503
G01 X105.1288 Y95.3652
G01 X105.0917 Y95.3840
G01 X105.0749 Y95.3919
G01 X105.0507 Y95.4022
G01 X105.5179 Y95.8742
G00 Z0.5000
G00 X109.0796 Y93.5289
G01 F250.00
G01 Z-0.0400
G01 F1250.00
G01 X109.0668 Y93.5430
G01 X109.0796 Y93.5546
G01 X109.0796 Y93.5289
G00 Z0.5000
G00 X91.2392 Y81.8064
G01 F250.00
G01 Z-0.0400
G01 F1250.00
G01 X91.2455 Y81.8257
G01 X91.2529 Y81.8506
G01 X91.2605 Y81.8792
G01 X91.2727 Y81.9286
G01 X91.2797 Y81.9606
G01 X91.2855 Y81.9930
G01 X91.2942 Y82.0514
G01 X91.2975 Y82.0776
G01 X91.3009 Y82.0802
G01 X91.3011 Y81.8684
G01 X91.2392 Y81.8064
G00 Z0.5000
G00 X87.2976 Y93.7379
G01 F250.00
G01 Z-0.0400
G01 F1250.00
G01 X89.3717 Y91.6650
G01 X88.9885 Y91.6650
G01 X87.2976 Y93.7379
G00 Z0.5000
G00 X104.6880 Y128.1755
G01 F250.00
G01 Z-0.0400
G01 F1250.00
G01 X18.8171 Y128.1755
G01 X18.8171 Y78.5880
G01 X104.6880 Y128.1755
G01 X102.7850 Y127.6655
G01 X19.3271 Y127.6655
G01 X19.3271 Y79.4715
G01 X102.7850 Y127.6655
G01 X100.8820 Y127.1555
G01 X19.8371 Y127.1555
G01 X19.8371 Y80.3549
G01 X100.8820 Y127.1555
G01 X98.9790 Y126.6455
G01 X20.3471 Y126.6455
G01 X20.3471 Y81.2383
G01 X98.9790 Y126.6455
G01 X97.0759 Y126.1355
G01 X20.8571 Y126.1355
G01 X20.8571 Y82.1218
G01 X97.0759 Y126.1355
G01 X95.1729 Y125.6255
G01 X21.3671 Y125.6255
G01 X21.3671 Y83.0052
G01 X95.1729 Y125.6255
G01 X93.2699 Y125.1155
G01 X21.8771 Y125.1155
G01 X21.8771 Y83.8886
G01 X93.2699 Y125.1155
G01 X91.3669 Y124.6055
G01 X22.3871 Y124.6055
G01 X22.3871 Y84.7721
G01 X91.3669 Y124.6055
G01 X89.4639 Y124.0955
G01 X22.8971 Y124.0955
G01 X22.8971 Y85.6555
G01 X89.4639 Y124.0955
G01 X87.5608 Y123.5855
G01 X23.4071 Y123.5855
G01 X23.4071 Y86.5390
G01 X87.5608 Y123.5855
G01 X85.6578 Y123.0755
G01 X23.9171 Y123.0755
G01 X23.9171 Y87.4224
G01 X85.6578 Y123.0755
G01 X83.7548 Y122.5655
G01 X24.4271 Y122.5655
G01 X24.4271 Y88.3058
G01 X83.7548 Y122.5655
G01 X81.8518 Y122.0555
G01 X24.9371 Y122.0555
G01 X24.9371 Y89.1893
G01 X81.8518 Y122.0555
G01 X79.9488 Y121.5455
G01 X25.4471 Y121.5455
G01 X25.4471 Y90.0727
G01 X79.9488 Y121.5455
G01 X78.0458 Y121.0355
G01 X25.9571 Y121.0355
G01 X25.9571 Y90.9561
G01 X78.0458 Y121.0355
G01 X76.1427 Y120.5255
G01 X26.4671 Y120.5255
G01 X26.4671 Y91.8396
G01 X76.1427 Y120.5255
G01 X74.2397 Y120.0155
G01 X26.9771 Y120.0155
G01 X26.9771 Y92.7230
G01 X74.2397 Y120.0155
G01 X72.3367 Y119.5055
G01 X27.4871 Y119.5055
G01 X27.4871 Y93.6064
G01 X72.3367 Y119.5055
G01 X70.4337 Y118.9955
G01 X27.9971 Y118.9955
G01 X27.9971 Y94.4899
G01 X70.4337 Y118.9955
G01 X68.5307 Y118.4855
G01 X28.5071 Y118.4855
G01 X28.5071 Y95.3733
G01 X68.5307 Y118.4855
G01 X66.6276 Y117.9755
G01 X29.0171 Y117.9755
G01 X29.0171 Y96.2567
G01 X66.6276 Y117.9755
G01 X64.7246 Y117.4655
G01 X29.5271 Y117.4655
G01 X29.5271 Y97.1402
G01 X64.7246 Y117.4655
G01 X62.8216 Y116.9555
G01 X30.0371 Y116.9555
G01 X30.0371 Y98.0236
G01 X62.8216 Y116.9555
G01 X60.9186 Y116.4455
G01 X30.5471 Y116.4455
G01 X30.5471 Y98.9070
G01 X60.9186 Y116.4455
G01 X59.0156 Y115.9355
G01 X31.0571 Y115.9355
G01 X31.0571 Y99.7905
G01 X59.0156 Y115.9355
G01 X57.1125 Y115.4255
G01 X31.5671 Y115.4255
G01 X31.5671 Y100.6739
G01 X57.1125 Y115.4255
G01 X55.2095 Y114.9155
G01 X32.0771 Y114.9155
G01 X32.0771 Y101.5573
G01 X55.2095 Y114.9155
G01 X53.3065 Y114.4055
G01 X32.5871 Y114.4055
G01 X32.5871 Y102.4408
G01 X53.3065 Y114.4055
G01 X51.4035 Y113.8955
G01 X33.0971 Y113.8955
G01 X33.0971 Y103.3242
G01 X51.4035 Y113.8955
G01 X49.5005 Y113.3855
G01 X33.6071 Y113.3855
G01 X33.6071 Y104.2076
G01 X49.5005 Y113.3855
G01 X47.5974 Y112.8755
G01 X34.1171 Y112.8755
G01 X34.1171 Y105.0911
G01 X47.5974 Y112.8755
G01 X45.6944 Y112.3655
G01 X34.6271 Y112.3655
G01 X34.6271 Y105.9745
G01 X45.6944 Y112.3655
G01 X43.7914 Y111.8555
G01 X35.1371 Y111.8555
G01 X35.1371 Y106.8579
G01 X43.7914 Y111.8555
G01 X41.8884 Y111.3455
G01 X35.6471 Y111.3455
G01 X35.6471 Y107.7414
G01 X41.8884 Y111.3455
G01 X39.9854 Y110.8355
G01 X36.1571 Y110.8355
G01 X36.1571 Y108.6248
G01 X39.9854 Y110.8355
G01 X38.0824 Y110.3255
G01 X36.6671 Y110.3255
G01 X36.6671 Y109.5082
G01 X38.0824 Y110.3255
G00 Z0.5000
G00 X123.9910 Y124.5436
G01 F250.00
G01 Z-0.0400
G01 F1250.00
G01 X123.9910 Y125.1155
G01 X122.9994 Y125.1155
G01 X123.9910 Y124.5436
G01 X124.5010 Y123.6608
G01 X124.5010 Y125.6255
G01 X121.0941 Y125.6255
G01 X124.5010 Y123.6608
G01 X125.0110 Y122.7780
G01 X125.0110 Y126.1355
G01 X119.1888 Y126.1355
G01 X125.0110 Y122.7780
G01 X125.5210 Y121.8952
G01 X125.5210 Y126.6455
G01 X117.2835 Y126.6455
G01 X125.5210 Y121.8952
G01 X126.0310 Y121.0124
G01 X126.0310 Y127.1555
G01 X115.3782 Y127.1555
G01 X126.0310 Y121.0124
G01 X126.5410 Y120.1295
G01 X126.5410 Y127.6655
G01 X113.4729 Y127.6655
G01 X126.5410 Y120.1295
G01 X127.0510 Y119.2467
G01 X127.0510 Y128.1755
G01 X111.5676 Y128.1755
G01 X127.0510 Y119.2467
G00 Z0.5000
M05
G00 Z0.5000
G00 Z2.00
G00 X0.0 Y0.0

