(G-CODE GENERATED BY FLATCAM v8.991 - www.flatcam.org - Version Date: 2019/12/30)

(Name: Cncjob_Bottom_Copper_pyramidal)
(Type: G-code from Geometry)
(Units: MM)

(Created on Monday, 13 November 2023 at 17:34)

(TOOL DIAMETER: 0.199 mm)
(Feedrate: 2500.0 mm/min)
(Feedrate_Z: 250.0 mm/min)
(Feedrate rapids 1500.0 mm/min)

(Z_Cut: -0.04 mm)
(Z_Move: 0.5 mm)
(Z Toolchange: 15.0 mm)
(X,Y Toolchange: 0.0000, 0.0000 mm)
(Z Start: 0.5 mm)
(Z End: 2.0 mm)
(Steps per circle: 64)
(Preprocessor Geometry: default)

(X range:   17.9676 ...  127.9005  mm)
(Y range:    2.0995 ...  129.0250  mm)

(Spindle Speed: None RPM)
G21
G90
G94




G01 F2500.00
G00 Z0.5000
G00 Z0.5000
M03
G4 P1.0
G00 X18.0353 Y2.9964
G01 F250.00
G01 Z-0.0400
G01 F2500.00
G01 X18.0367 Y2.9823
G01 X18.0481 Y2.9062
G01 X18.0507 Y2.8934
G01 X18.0686 Y2.8220
G01 X18.0734 Y2.8063
G01 X18.0982 Y2.7370
G01 X18.1044 Y2.7219
G01 X18.1359 Y2.6553
G01 X18.1420 Y2.6437
G01 X18.1815 Y2.5777
G01 X18.1887 Y2.5668
G01 X18.2344 Y2.5050
G01 X18.2427 Y2.4948
G01 X18.2943 Y2.4378
G01 X18.3035 Y2.4284
G01 X18.3604 Y2.3767
G01 X18.3705 Y2.3684
G01 X18.4349 Y2.3206
G01 X18.4459 Y2.3134
G01 X18.5119 Y2.2739
G01 X18.5235 Y2.2678
G01 X18.5900 Y2.2363
G01 X18.6051 Y2.2300
G01 X18.6744 Y2.2052
G01 X18.6901 Y2.2005
G01 X18.7615 Y2.1826
G01 X18.7744 Y2.1800
G01 X18.8504 Y2.1686
G01 X18.8645 Y2.1672
G01 X18.0353 Y2.1672
G01 X18.0353 Y2.9964
G01 X18.1029 Y2.5772
G01 X18.1243 Y2.5415
G01 X18.1334 Y2.5278
G01 X18.1811 Y2.4633
G01 X18.1947 Y2.4468
G01 X18.2441 Y2.3923
G01 X18.2556 Y2.3806
G01 X18.3150 Y2.3266
G01 X18.3315 Y2.3130
G01 X18.3960 Y2.2652
G01 X18.4097 Y2.2562
G01 X18.4453 Y2.2348
G01 X18.1029 Y2.2348
G01 X18.1029 Y2.5772
G01 X18.1706 Y2.3727
G01 X18.1957 Y2.3450
G01 X18.2078 Y2.3328
G01 X18.2408 Y2.3025
G01 X18.1706 Y2.3025
G01 X18.1706 Y2.3727
G00 Z0.5000
G00 X42.8229 Y39.9281
G01 F250.00
G01 Z-0.0400
G01 F2500.00
G01 X42.8297 Y39.9416
G01 X42.8339 Y39.9512
G01 X42.8380 Y39.9620
G01 X42.8419 Y39.9740
G01 X42.8450 Y39.9858
G01 X42.8475 Y39.9975
G01 X42.8493 Y40.0085
G01 X42.8507 Y40.0215
G01 X42.8673 Y40.0062
G01 X42.9127 Y39.9696
G01 X42.9248 Y39.9609
G01 X42.9604 Y39.9374
G01 X42.9394 Y39.9377
G01 X42.9221 Y39.9371
G01 X42.8503 Y39.9318
G01 X42.8347 Y39.9300
G01 X42.8229 Y39.9281
G00 Z0.5000
G00 X57.5034 Y35.7972
G01 F250.00
G01 Z-0.0400
G01 F2500.00
G01 X57.5722 Y35.8598
G01 X57.5844 Y35.8723
G01 X57.6127 Y35.9035
G01 X57.6089 Y35.8920
G01 X57.6055 Y35.8798
G01 X57.5811 Y35.7825
G01 X57.5781 Y35.7690
G01 X57.5757 Y35.7559
G01 X57.5034 Y35.7972
G01 X57.6255 Y35.6216
G01 X57.5970 Y35.6534
G01 X57.5838 Y35.6665
G01 X57.5730 Y35.6759
G01 X57.5636 Y35.6832
G01 X57.5527 Y35.6906
G01 X57.5434 Y35.6964
G01 X57.4685 Y35.7392
G01 X57.4582 Y35.7446
G01 X57.4488 Y35.7490
G01 X57.4329 Y35.7554
G01 X57.4222 Y35.7590
G01 X57.3803 Y35.7709
G01 X57.3643 Y35.7747
G01 X57.4295 Y35.8230
G01 X57.4394 Y35.8309
G01 X57.5196 Y35.9033
G01 X57.5292 Y35.9124
G01 X57.6087 Y36.0002
G01 X57.6162 Y36.0098
G01 X57.6756 Y36.0898
G01 X57.6848 Y36.1033
G01 X57.7101 Y36.1455
G01 X57.7176 Y36.1564
G01 X57.7233 Y36.1657
G01 X57.9737 Y36.5994
G01 X57.9829 Y36.6172
G01 X57.9923 Y36.6332
G01 X57.9979 Y36.6443
G01 X58.0398 Y36.7329
G01 X58.0449 Y36.7445
G01 X58.0818 Y36.8470
G01 X58.0853 Y36.8577
G01 X58.0883 Y36.8683
G01 X58.1146 Y36.9744
G01 X58.1167 Y36.9864
G01 X58.1311 Y37.0834
G01 X58.1333 Y37.1050
G01 X58.1383 Y37.2073
G01 X58.2277 Y37.1288
G01 X58.2447 Y37.1161
G01 X58.2529 Y37.1107
G01 X58.2624 Y37.1050
G01 X58.2741 Y37.0989
G01 X58.2834 Y37.0946
G01 X58.2962 Y37.0894
G01 X58.3064 Y37.0860
G01 X58.3753 Y37.0651
G01 X58.3888 Y37.0620
G01 X58.4018 Y37.0597
G01 X58.4146 Y37.0582
G01 X58.4324 Y37.0573
G01 X58.4471 Y37.0575
G01 X58.4624 Y37.0587
G01 X58.4761 Y37.0607
G01 X58.4917 Y37.0640
G01 X58.5044 Y37.0675
G01 X58.5171 Y37.0718
G01 X58.5268 Y37.0756
G01 X58.5403 Y37.0818
G01 X58.5547 Y37.0896
G01 X58.5674 Y37.0976
G01 X58.5812 Y37.1077
G01 X58.5913 Y37.1162
G01 X58.6018 Y37.1260
G01 X58.6147 Y37.1393
G01 X58.6147 Y37.0786
G01 X58.5318 Y37.0394
G01 X58.5211 Y37.0340
G01 X58.4267 Y36.9776
G01 X58.4089 Y36.9657
G01 X58.3295 Y36.9068
G01 X58.3196 Y36.8990
G01 X58.2316 Y36.8192
G01 X58.2230 Y36.8103
G01 X58.1572 Y36.7376
G01 X58.1496 Y36.7289
G01 X58.1428 Y36.7201
G01 X58.0839 Y36.6407
G01 X58.0765 Y36.6301
G01 X58.0488 Y36.5843
G01 X58.0414 Y36.5734
G01 X58.0357 Y36.5641
G01 X58.0355 Y36.5638
G01 X57.7853 Y36.1304
G01 X57.7845 Y36.1291
G01 X57.7760 Y36.1127
G01 X57.7689 Y36.1006
G01 X57.7631 Y36.0897
G01 X57.7169 Y35.9920
G01 X57.7103 Y35.9756
G01 X57.6739 Y35.8730
G01 X57.6707 Y35.8616
G01 X57.6467 Y35.7657
G01 X57.6425 Y35.7451
G01 X57.6279 Y35.6465
G01 X57.6264 Y35.6341
G01 X57.6255 Y35.6216
G01 X58.1463 Y36.8263
G01 X58.1502 Y36.8383
G01 X58.1536 Y36.8506
G01 X58.1801 Y36.9572
G01 X58.1835 Y36.9757
G01 X58.1970 Y37.0670
G01 X58.2120 Y37.0565
G01 X58.2252 Y37.0484
G01 X58.2423 Y37.0391
G01 X58.2568 Y37.0324
G01 X58.2722 Y37.0262
G01 X58.2845 Y37.0219
G01 X58.3459 Y37.0032
G01 X58.2858 Y36.9586
G01 X58.2684 Y36.9442
G01 X58.1872 Y36.8705
G01 X58.1746 Y36.8575
G01 X58.1463 Y36.8263
G00 Z0.5000
G00 X60.3459 Y35.5563
G01 F250.00
G01 Z-0.0400
G01 F2500.00
G01 X60.3497 Y35.5679
G01 X60.3531 Y35.5800
G01 X60.3775 Y35.6773
G01 X60.3805 Y35.6908
G01 X60.3829 Y35.7040
G01 X60.4552 Y35.6626
G01 X60.3864 Y35.6001
G01 X60.3742 Y35.5875
G01 X60.3459 Y35.5563
G01 X59.7030 Y34.5272
G01 X59.7718 Y34.5898
G01 X59.7840 Y34.6023
G01 X59.8123 Y34.6335
G01 X59.8086 Y34.6220
G01 X59.8052 Y34.6098
G01 X59.7808 Y34.5125
G01 X59.7777 Y34.4990
G01 X59.7754 Y34.4859
G01 X59.7030 Y34.5272
G01 X59.8252 Y34.3516
G01 X59.7966 Y34.3834
G01 X59.7834 Y34.3965
G01 X59.7726 Y34.4059
G01 X59.7632 Y34.4132
G01 X59.7524 Y34.4206
G01 X59.7430 Y34.4264
G01 X59.6681 Y34.4692
G01 X59.6578 Y34.4746
G01 X59.6485 Y34.4790
G01 X59.6325 Y34.4854
G01 X59.6218 Y34.4890
G01 X59.5799 Y34.5009
G01 X59.5640 Y34.5047
G01 X59.6291 Y34.5530
G01 X59.6390 Y34.5609
G01 X59.7193 Y34.6333
G01 X59.7282 Y34.6418
G01 X59.8083 Y34.7302
G01 X59.8158 Y34.7398
G01 X59.8745 Y34.8189
G01 X59.8842 Y34.8329
G01 X59.9098 Y34.8755
G01 X59.9172 Y34.8864
G01 X59.9229 Y34.8957
G01 X60.1733 Y35.3294
G01 X60.1826 Y35.3472
G01 X60.1897 Y35.3593
G01 X60.1955 Y35.3702
G01 X60.2423 Y35.4693
G01 X60.2481 Y35.4838
G01 X60.2839 Y35.5843
G01 X60.2880 Y35.5986
G01 X60.3118 Y35.6938
G01 X60.3146 Y35.7060
G01 X60.3309 Y35.8146
G01 X60.3322 Y35.8258
G01 X60.3331 Y35.8383
G01 X60.3616 Y35.8065
G01 X60.3684 Y35.7995
G01 X60.3775 Y35.7909
G01 X60.3864 Y35.7833
G01 X60.3980 Y35.7746
G01 X60.4066 Y35.7687
G01 X60.4173 Y35.7623
G01 X60.4921 Y35.7196
G01 X60.5043 Y35.7133
G01 X60.5168 Y35.7079
G01 X60.5312 Y35.7026
G01 X60.5448 Y35.6985
G01 X60.5970 Y35.6872
G01 X60.5291 Y35.6368
G01 X60.5182 Y35.6282
G01 X60.4380 Y35.5557
G01 X60.4235 Y35.5412
G01 X60.3559 Y35.4666
G01 X60.3445 Y35.4529
G01 X60.2782 Y35.3632
G01 X60.2716 Y35.3529
G01 X60.2485 Y35.3143
G01 X60.2410 Y35.3034
G01 X60.2351 Y35.2938
G01 X59.9828 Y34.8567
G01 X59.9757 Y34.8427
G01 X59.9685 Y34.8306
G01 X59.9625 Y34.8193
G01 X59.9161 Y34.7209
G01 X59.9100 Y34.7056
G01 X59.8735 Y34.6030
G01 X59.8703 Y34.5916
G01 X59.8463 Y34.4957
G01 X59.8422 Y34.4751
G01 X59.8275 Y34.3765
G01 X59.8260 Y34.3641
G01 X59.8252 Y34.3516
G01 X59.8929 Y34.1369
G01 X59.8945 Y34.1215
G01 X59.9101 Y34.0174
G01 X59.9368 Y33.9097
G01 X59.9406 Y33.8976
G01 X59.9737 Y33.8052
G01 X59.9780 Y33.7943
G01 X60.0260 Y33.6933
G01 X60.0846 Y33.5957
G01 X60.1526 Y33.5040
G01 X60.2239 Y33.4250
G01 X60.2325 Y33.4162
G01 X60.3150 Y33.3417
G01 X60.3996 Y33.2787
G01 X60.4133 Y33.2696
G01 X60.4981 Y33.2188
G01 X60.5119 Y33.2114
G01 X60.6084 Y33.1660
G01 X60.7080 Y33.1302
G01 X60.7237 Y33.1254
G01 X60.8262 Y33.0999
G01 X60.9388 Y33.0831
G01 X60.9483 Y33.0824
G01 X61.0537 Y33.0774
G01 X61.1650 Y33.0827
G01 X61.1770 Y33.0840
G01 X61.2811 Y33.0996
G01 X61.3916 Y33.1272
G01 X61.4009 Y33.1302
G01 X61.5006 Y33.1660
G01 X61.5971 Y33.2114
G01 X61.6116 Y33.2192
G01 X61.7019 Y33.2735
G01 X61.7881 Y33.3371
G01 X61.8008 Y33.3476
G01 X61.8741 Y33.4140
G01 X61.8851 Y33.4250
G01 X61.9510 Y33.4977
G01 X61.9595 Y33.5079
G01 X62.0226 Y33.5930
G01 X62.0285 Y33.6021
G01 X62.0532 Y33.6433
G01 X62.0621 Y33.6563
G01 X62.3159 Y34.0960
G01 X62.3223 Y34.1087
G01 X62.3303 Y34.1223
G01 X62.3356 Y34.1325
G01 X62.3779 Y34.2219
G01 X62.3827 Y34.2330
G01 X62.4198 Y34.3371
G01 X62.4458 Y34.4402
G01 X62.4490 Y34.4563
G01 X62.4643 Y34.5601
G01 X62.4650 Y34.5697
G01 X62.4699 Y34.6676
G01 X62.4699 Y34.6832
G01 X62.4645 Y34.7899
G01 X62.4528 Y34.8700
G01 X66.0612 Y38.4784
G01 X99.2440 Y38.4786
G01 X99.3033 Y38.4818
G01 X99.3682 Y38.4916
G01 X99.4319 Y38.5075
G01 X99.4885 Y38.5276
G01 X99.5010 Y38.5328
G01 X99.5468 Y38.5545
G01 X99.5613 Y38.5622
G01 X99.6119 Y38.5929
G01 X99.6578 Y38.6267
G01 X99.6672 Y38.6342
G01 X99.7134 Y38.6763
G01 X101.2935 Y40.2564
G01 X104.7929 Y40.2564
G01 X105.8283 Y39.2211
G01 X105.8166 Y39.1409
G01 X105.8112 Y39.0342
G01 X105.8112 Y39.0187
G01 X105.8163 Y38.9172
G01 X105.8177 Y38.9044
G01 X105.8333 Y38.8002
G01 X105.8591 Y38.6961
G01 X105.8621 Y38.6856
G01 X105.8969 Y38.5880
G01 X105.9003 Y38.5792
G01 X105.9451 Y38.4842
G01 X105.9528 Y38.4698
G01 X106.0037 Y38.3849
G01 X106.0124 Y38.3720
G01 X106.0753 Y38.2874
G01 X106.1471 Y38.2078
G01 X106.1587 Y38.1962
G01 X106.2369 Y38.1256
G01 X106.3294 Y38.0569
G01 X106.4270 Y37.9984
G01 X106.5301 Y37.9495
G01 X106.5389 Y37.9461
G01 X106.6390 Y37.9105
G01 X106.7421 Y37.8844
G01 X106.7510 Y37.8824
G01 X106.8636 Y37.8658
G01 X106.9695 Y37.8604
G01 X106.9810 Y37.8602
G01 X107.0917 Y37.8658
G01 X107.2060 Y37.8828
G01 X107.3164 Y37.9105
G01 X107.4165 Y37.9461
G01 X107.4253 Y37.9495
G01 X107.5284 Y37.9984
G01 X107.6260 Y38.0569
G01 X107.7185 Y38.1256
G01 X107.7967 Y38.1962
G01 X107.8083 Y38.2078
G01 X107.8800 Y38.2874
G01 X107.9430 Y38.3720
G01 X107.9521 Y38.3856
G01 X108.0030 Y38.4705
G01 X108.0103 Y38.4842
G01 X108.0557 Y38.5808
G01 X108.0915 Y38.6804
G01 X108.0963 Y38.6961
G01 X108.1218 Y38.7986
G01 X108.1386 Y38.9111
G01 X108.1393 Y38.9207
G01 X108.1443 Y39.0260
G01 X108.1390 Y39.1374
G01 X108.1377 Y39.1493
G01 X108.1221 Y39.2535
G01 X108.1201 Y39.2625
G01 X108.0941 Y39.3656
G01 X108.0557 Y39.4729
G01 X108.0069 Y39.5761
G01 X107.9478 Y39.6749
G01 X107.8800 Y39.7663
G01 X107.8020 Y39.8524
G01 X107.7240 Y39.9233
G01 X107.7168 Y39.9295
G01 X107.6258 Y39.9969
G01 X107.5269 Y40.0561
G01 X107.4238 Y40.1048
G01 X107.3241 Y40.1407
G01 X107.3113 Y40.1447
G01 X107.2043 Y40.1713
G01 X107.1002 Y40.1869
G01 X107.0847 Y40.1884
G01 X106.9851 Y40.1933
G01 X106.9703 Y40.1933
G01 X106.8636 Y40.1879
G01 X106.7835 Y40.1762
G01 X105.5503 Y41.4094
G01 X105.5025 Y41.4528
G01 X105.4947 Y41.4590
G01 X105.4481 Y41.4933
G01 X105.3982 Y41.5235
G01 X105.3864 Y41.5299
G01 X105.3387 Y41.5525
G01 X105.3235 Y41.5588
G01 X105.2672 Y41.5786
G01 X105.2035 Y41.5945
G01 X105.1386 Y41.6040
G01 X105.0758 Y41.6072
G01 X101.0124 Y41.6073
G01 X100.9549 Y41.6046
G01 X100.9394 Y41.6030
G01 X100.8813 Y41.5942
G01 X100.8192 Y41.5786
G01 X100.8099 Y41.5756
G01 X100.7541 Y41.5554
G01 X100.7020 Y41.5309
G01 X100.6882 Y41.5235
G01 X100.6386 Y41.4935
G01 X100.5918 Y41.4590
G01 X100.5797 Y41.4492
G01 X100.5396 Y41.4127
G01 X98.9560 Y39.8293
G01 X65.7814 Y39.8293
G01 X65.7234 Y39.8266
G01 X65.7139 Y39.8259
G01 X65.6506 Y39.8165
G01 X65.5925 Y39.8022
G01 X65.5784 Y39.7979
G01 X65.5306 Y39.7808
G01 X65.5155 Y39.7745
G01 X65.4623 Y39.7491
G01 X65.4060 Y39.7153
G01 X65.3531 Y39.6760
G01 X65.3072 Y39.6347
G01 X61.4976 Y35.8252
G01 X61.4175 Y35.8369
G01 X61.3108 Y35.8423
G01 X61.2952 Y35.8423
G01 X61.1937 Y35.8373
G01 X61.1809 Y35.8359
G01 X61.0768 Y35.8203
G01 X60.9727 Y35.7944
G01 X60.9621 Y35.7914
G01 X60.8646 Y35.7566
G01 X60.8494 Y35.7504
G01 X60.7541 Y35.7051
G01 X60.6622 Y35.6503
G01 X60.6485 Y35.6411
G01 X60.5639 Y35.5782
G01 X60.4790 Y35.5014
G01 X60.4015 Y35.4158
G01 X60.3381 Y35.3307
G01 X60.3308 Y35.3199
G01 X60.3047 Y35.2765
G01 X60.2990 Y35.2685
G01 X60.2937 Y35.2599
G01 X60.0431 Y34.8259
G01 X60.0356 Y34.8111
G01 X60.0276 Y34.7976
G01 X60.0233 Y34.7896
G01 X59.9771 Y34.6917
G01 X59.9737 Y34.6828
G01 X59.9381 Y34.5828
G01 X59.9120 Y34.4796
G01 X59.9088 Y34.4636
G01 X59.8934 Y34.3581
G01 X59.8880 Y34.2522
G01 X59.8880 Y34.2367
G01 X59.8929 Y34.1369
G00 Z0.5000
G00 X59.9605 Y34.1412
G01 F250.00
G01 Z-0.0400
G01 F2500.00
G01 X59.9614 Y34.1315
G01 X59.9766 Y34.0297
G01 X60.0015 Y33.9297
G01 X60.0043 Y33.9204
G01 X60.0393 Y33.8232
G01 X60.0831 Y33.7303
G01 X60.0877 Y33.7217
G01 X60.1406 Y33.6336
G01 X60.2019 Y33.5507
G01 X60.2081 Y33.5431
G01 X60.2774 Y33.4669
G01 X60.3536 Y33.3977
G01 X60.3611 Y33.3915
G01 X60.4440 Y33.3302
G01 X60.5322 Y33.2772
G01 X60.5408 Y33.2726
G01 X60.6337 Y33.2288
G01 X60.7308 Y33.1939
G01 X60.7402 Y33.1911
G01 X60.8402 Y33.1661
G01 X60.9419 Y33.1509
G01 X60.9516 Y33.1500
G01 X61.0545 Y33.1450
G01 X61.1573 Y33.1500
G01 X61.1671 Y33.1509
G01 X61.2688 Y33.1661
G01 X61.3688 Y33.1911
G01 X61.3781 Y33.1939
G01 X61.4753 Y33.2288
G01 X61.5682 Y33.2726
G01 X61.5768 Y33.2772
G01 X61.6609 Y33.3276
G01 X61.6690 Y33.3331
G01 X61.7515 Y33.3943
G01 X61.8316 Y33.4669
G01 X61.9042 Y33.5471
G01 X61.9668 Y33.6314
G01 X61.9972 Y33.6814
G01 X62.0003 Y33.6855
G01 X62.0056 Y33.6938
G01 X62.2558 Y34.1271
G01 X62.2618 Y34.1394
G01 X62.2737 Y34.1599
G01 X62.3177 Y34.2529
G01 X62.3205 Y34.2598
G01 X62.3535 Y34.3522
G01 X62.3564 Y34.3615
G01 X62.3813 Y34.4615
G01 X62.3971 Y34.5678
G01 X62.4024 Y34.6758
G01 X62.3975 Y34.7787
G01 X62.3965 Y34.7884
G01 X62.3821 Y34.8854
G01 X62.3806 Y34.8935
G01 X66.0332 Y38.5461
G01 X99.2358 Y38.5461
G01 X99.2905 Y38.5487
G01 X99.3002 Y38.5496
G01 X99.3495 Y38.5569
G01 X99.3591 Y38.5588
G01 X99.4117 Y38.5721
G01 X99.4686 Y38.5925
G01 X99.5223 Y38.6179
G01 X99.5693 Y38.6459
G01 X99.5774 Y38.6513
G01 X99.6175 Y38.6810
G01 X99.6250 Y38.6872
G01 X99.6655 Y38.7241
G01 X101.2655 Y40.3241
G01 X104.8209 Y40.3241
G01 X105.9005 Y39.2445
G01 X105.8990 Y39.2364
G01 X105.8840 Y39.1349
G01 X105.8787 Y39.0269
G01 X105.8840 Y38.9188
G01 X105.8990 Y38.8173
G01 X105.9009 Y38.8077
G01 X105.9247 Y38.7125
G01 X105.9275 Y38.7032
G01 X105.9625 Y38.6060
G01 X106.0063 Y38.5132
G01 X106.0109 Y38.5045
G01 X106.0638 Y38.4164
G01 X106.1280 Y38.3299
G01 X106.2006 Y38.2497
G01 X106.2807 Y38.1771
G01 X106.3670 Y38.1132
G01 X106.4554 Y38.0600
G01 X106.4640 Y38.0554
G01 X106.5527 Y38.0135
G01 X106.5617 Y38.0098
G01 X106.6591 Y37.9750
G01 X106.7585 Y37.9500
G01 X106.7657 Y37.9485
G01 X106.8651 Y37.9337
G01 X106.8748 Y37.9328
G01 X106.9777 Y37.9279
G01 X107.0805 Y37.9328
G01 X107.0903 Y37.9337
G01 X107.1920 Y37.9490
G01 X107.2962 Y37.9750
G01 X107.3985 Y38.0116
G01 X107.4914 Y38.0554
G01 X107.5000 Y38.0600
G01 X107.5841 Y38.1105
G01 X107.5922 Y38.1159
G01 X107.6747 Y38.1771
G01 X107.7513 Y38.2464
G01 X107.7582 Y38.2533
G01 X107.8274 Y38.3299
G01 X107.8915 Y38.4164
G01 X107.9469 Y38.5088
G01 X107.9910 Y38.6018
G01 X107.9948 Y38.6108
G01 X108.0278 Y38.7032
G01 X108.0307 Y38.7125
G01 X108.0556 Y38.8125
G01 X108.0708 Y38.9143
G01 X108.0717 Y38.9240
G01 X108.0767 Y39.0269
G01 X108.0714 Y39.1349
G01 X108.0556 Y39.2412
G01 X108.0295 Y39.3454
G01 X107.9929 Y39.4477
G01 X107.9469 Y39.5449
G01 X107.8915 Y39.6373
G01 X107.8274 Y39.7238
G01 X107.7548 Y39.8040
G01 X107.6747 Y39.8766
G01 X107.5882 Y39.9407
G01 X107.5000 Y39.9937
G01 X107.4914 Y39.9983
G01 X107.3985 Y40.0421
G01 X107.3013 Y40.0770
G01 X107.2920 Y40.0798
G01 X107.1969 Y40.1037
G01 X107.1873 Y40.1056
G01 X107.0858 Y40.1205
G01 X106.9777 Y40.1258
G01 X106.8696 Y40.1205
G01 X106.7681 Y40.1056
G01 X106.7600 Y40.1040
G01 X105.5024 Y41.3616
G01 X105.4600 Y41.4002
G01 X105.4105 Y41.4371
G01 X105.3634 Y41.4654
G01 X105.3548 Y41.4700
G01 X105.3097 Y41.4914
G01 X105.3007 Y41.4951
G01 X105.2486 Y41.5136
G01 X105.1912 Y41.5279
G01 X105.1326 Y41.5366
G01 X105.0737 Y41.5396
G01 X101.0127 Y41.5396
G01 X100.9538 Y41.5366
G01 X100.9000 Y41.5288
G01 X100.8904 Y41.5269
G01 X100.8378 Y41.5136
G01 X100.7809 Y41.4932
G01 X100.7316 Y41.4700
G01 X100.7230 Y41.4654
G01 X100.6762 Y41.4372
G01 X100.6321 Y41.4047
G01 X100.6245 Y41.3985
G01 X100.5863 Y41.3638
G01 X98.9840 Y39.7616
G01 X65.7814 Y39.7616
G01 X65.7215 Y39.7586
G01 X65.6630 Y39.7499
G01 X65.6097 Y39.7367
G01 X65.6004 Y39.7339
G01 X65.5534 Y39.7171
G01 X65.5444 Y39.7134
G01 X65.4949 Y39.6898
G01 X65.4436 Y39.6591
G01 X65.3961 Y39.6238
G01 X65.3539 Y39.5858
G01 X61.5210 Y35.7530
G01 X61.5130 Y35.7545
G01 X61.4115 Y35.7695
G01 X61.3083 Y35.7747
G01 X61.2985 Y35.7747
G01 X61.1953 Y35.7695
G01 X61.0938 Y35.7545
G01 X61.0842 Y35.7526
G01 X60.9849 Y35.7276
G01 X60.8826 Y35.6911
G01 X60.7897 Y35.6473
G01 X60.7811 Y35.6427
G01 X60.6929 Y35.5897
G01 X60.6101 Y35.5284
G01 X60.6025 Y35.5222
G01 X60.5280 Y35.4546
G01 X60.5229 Y35.4494
G01 X60.4537 Y35.3728
G01 X60.3924 Y35.2904
G01 X60.3883 Y35.2844
G01 X60.3607 Y35.2384
G01 X60.3576 Y35.2344
G01 X60.3523 Y35.2261
G01 X60.1021 Y34.7928
G01 X60.0961 Y34.7804
G01 X60.0841 Y34.7599
G01 X60.0402 Y34.6670
G01 X60.0374 Y34.6600
G01 X60.0027 Y34.5626
G01 X59.9777 Y34.4632
G01 X59.9758 Y34.4536
G01 X59.9608 Y34.3521
G01 X59.9556 Y34.2489
G01 X59.9556 Y34.2392
G01 X59.9605 Y34.1412
G00 Z0.5000
G00 X61.9026 Y33.2572
G01 F250.00
G01 Z-0.0400
G01 F2500.00
G01 X61.9714 Y33.3198
G01 X61.9837 Y33.3323
G01 X62.0120 Y33.3635
G01 X62.0082 Y33.3520
G01 X62.0048 Y33.3398
G01 X61.9804 Y33.2425
G01 X61.9774 Y33.2290
G01 X61.9750 Y33.2159
G01 X61.9026 Y33.2572
G01 X62.0248 Y33.0816
G01 X61.9963 Y33.1134
G01 X61.9831 Y33.1265
G01 X61.9723 Y33.1359
G01 X61.9628 Y33.1432
G01 X61.9520 Y33.1506
G01 X61.9427 Y33.1564
G01 X61.8678 Y33.1992
G01 X61.8575 Y33.2046
G01 X61.8481 Y33.2090
G01 X61.8321 Y33.2154
G01 X61.8214 Y33.2190
G01 X61.7796 Y33.2309
G01 X61.7636 Y33.2347
G01 X61.8288 Y33.2830
G01 X61.8387 Y33.2909
G01 X61.9189 Y33.3633
G01 X61.9279 Y33.3718
G01 X62.0079 Y33.4602
G01 X62.0155 Y33.4698
G01 X62.0741 Y33.5489
G01 X62.0838 Y33.5629
G01 X62.1094 Y33.6055
G01 X62.1169 Y33.6164
G01 X62.1226 Y33.6257
G01 X62.3756 Y34.0642
G01 X62.3822 Y34.0772
G01 X62.3894 Y34.0893
G01 X62.3954 Y34.1006
G01 X62.4429 Y34.2014
G01 X62.4478 Y34.2138
G01 X62.4810 Y34.3066
G01 X62.4862 Y34.3233
G01 X62.5118 Y34.4250
G01 X62.5157 Y34.4448
G01 X62.5316 Y34.5533
G01 X62.5326 Y34.5659
G01 X62.5363 Y34.6406
G01 X62.5427 Y34.6261
G01 X62.5518 Y34.6093
G01 X62.5618 Y34.5939
G01 X62.5707 Y34.5821
G01 X62.5820 Y34.5690
G01 X62.5911 Y34.5598
G01 X62.6029 Y34.5493
G01 X62.6184 Y34.5373
G01 X62.6319 Y34.5285
G01 X62.6465 Y34.5203
G01 X62.7779 Y34.4546
G01 X62.7913 Y34.4486
G01 X62.8027 Y34.4442
G01 X62.8142 Y34.4405
G01 X62.8256 Y34.4374
G01 X62.8082 Y34.4257
G01 X62.7208 Y34.3606
G01 X62.7113 Y34.3524
G01 X62.6308 Y34.2792
G01 X62.6223 Y34.2703
G01 X62.5564 Y34.1976
G01 X62.5489 Y34.1889
G01 X62.5418 Y34.1798
G01 X62.4776 Y34.0929
G01 X62.4713 Y34.0829
G01 X62.4481 Y34.0443
G01 X62.4406 Y34.0334
G01 X62.4347 Y34.0238
G01 X62.1845 Y33.5904
G01 X62.1753 Y33.5727
G01 X62.1652 Y33.5552
G01 X62.1184 Y33.4569
G01 X62.1137 Y33.4461
G01 X62.1096 Y33.4356
G01 X62.0750 Y33.3386
G01 X62.0700 Y33.3216
G01 X62.0461 Y33.2261
G01 X62.0433 Y33.2138
G01 X62.0270 Y33.1053
G01 X62.0257 Y33.0941
G01 X62.0248 Y33.0816
G01 X62.0926 Y32.8669
G01 X62.0941 Y32.8515
G01 X62.1097 Y32.7474
G01 X62.1365 Y32.6397
G01 X62.1403 Y32.6276
G01 X62.1733 Y32.5352
G01 X62.1796 Y32.5201
G01 X62.2256 Y32.4233
G01 X62.2797 Y32.3328
G01 X62.2847 Y32.3250
G01 X62.3529 Y32.2332
G01 X62.4235 Y32.1550
G01 X62.4351 Y32.1434
G01 X62.5146 Y32.0717
G01 X62.5993 Y32.0087
G01 X62.6129 Y31.9996
G01 X62.6977 Y31.9488
G01 X62.7115 Y31.9414
G01 X62.8080 Y31.8960
G01 X62.9077 Y31.8602
G01 X62.9234 Y31.8554
G01 X63.0262 Y31.8299
G01 X63.1384 Y31.8131
G01 X63.1480 Y31.8124
G01 X63.2533 Y31.8074
G01 X63.3682 Y31.8130
G01 X63.4821 Y31.8299
G01 X63.5929 Y31.8576
G01 X63.7002 Y31.8960
G01 X63.8005 Y31.9433
G01 X63.8112 Y31.9492
G01 X63.9022 Y32.0040
G01 X63.9941 Y32.0721
G01 X64.0797 Y32.1497
G01 X64.1506 Y32.2277
G01 X64.1571 Y32.2353
G01 X64.2222 Y32.3230
G01 X64.2281 Y32.3321
G01 X64.2528 Y32.3733
G01 X64.2617 Y32.3863
G01 X64.5140 Y32.8233
G01 X64.5219 Y32.8387
G01 X64.5334 Y32.8588
G01 X64.5810 Y32.9597
G01 X64.6169 Y33.0594
G01 X64.6216 Y33.0751
G01 X64.6457 Y33.1710
G01 X64.6486 Y33.1855
G01 X64.6641 Y33.2918
G01 X64.6697 Y33.4050
G01 X64.6643 Y33.5173
G01 X64.6631 Y33.5283
G01 X64.6524 Y33.6000
G01 X66.7368 Y35.6844
G01 X92.0167 Y35.6844
G01 X94.8301 Y32.8711
G01 X94.8195 Y32.7993
G01 X94.8182 Y32.7883
G01 X94.8128 Y32.6760
G01 X94.8184 Y32.5628
G01 X94.8340 Y32.4565
G01 X94.8368 Y32.4421
G01 X94.8609 Y32.3461
G01 X94.8656 Y32.3304
G01 X94.9015 Y32.2308
G01 X94.9473 Y32.1335
G01 X94.9542 Y32.1205
G01 X95.0051 Y32.0356
G01 X95.0142 Y32.0220
G01 X95.0779 Y31.9364
G01 X95.1540 Y31.8525
G01 X95.2332 Y31.7804
G01 X95.2458 Y31.7700
G01 X95.3318 Y31.7065
G01 X95.4238 Y31.6512
G01 X95.4369 Y31.6443
G01 X95.5327 Y31.5992
G01 X95.6330 Y31.5630
G01 X95.6487 Y31.5582
G01 X95.7512 Y31.5328
G01 X95.8570 Y31.5168
G01 X95.8729 Y31.5152
G01 X95.9803 Y31.5102
G01 X96.0861 Y31.5152
G01 X96.1020 Y31.5168
G01 X96.2078 Y31.5328
G01 X96.3102 Y31.5582
G01 X96.3259 Y31.5630
G01 X96.4263 Y31.5992
G01 X96.5221 Y31.6443
G01 X96.5362 Y31.6518
G01 X96.6272 Y31.7065
G01 X96.7131 Y31.7700
G01 X96.7258 Y31.7804
G01 X96.8038 Y31.8513
G01 X96.8760 Y31.9305
G01 X96.8864 Y31.9432
G01 X96.9496 Y32.0288
G01 X97.0043 Y32.1198
G01 X97.0121 Y32.1342
G01 X97.0575 Y32.2308
G01 X97.0933 Y32.3304
G01 X97.0981 Y32.3461
G01 X97.1236 Y32.4486
G01 X97.1395 Y32.5544
G01 X97.1411 Y32.5707
G01 X97.1461 Y32.6760
G01 X97.1405 Y32.7909
G01 X97.1236 Y32.9051
G01 X97.0959 Y33.0156
G01 X97.0603 Y33.1157
G01 X97.0540 Y33.1308
G01 X97.0080 Y33.2276
G01 X96.9539 Y33.3181
G01 X96.9448 Y33.3317
G01 X96.8859 Y33.4111
G01 X96.8760 Y33.4232
G01 X96.8050 Y33.5012
G01 X96.7258 Y33.5733
G01 X96.7131 Y33.5837
G01 X96.6278 Y33.6468
G01 X96.5302 Y33.7053
G01 X96.4256 Y33.7548
G01 X96.3259 Y33.7907
G01 X96.3138 Y33.7945
G01 X96.2061 Y33.8213
G01 X96.1020 Y33.8369
G01 X96.0865 Y33.8384
G01 X95.9869 Y33.8433
G01 X95.9721 Y33.8433
G01 X95.8654 Y33.8379
G01 X95.7853 Y33.8262
G01 X92.7686 Y36.8427
G01 X92.7249 Y36.8820
G01 X92.6717 Y36.9215
G01 X92.6142 Y36.9559
G01 X92.5546 Y36.9840
G01 X92.4926 Y37.0062
G01 X92.4289 Y37.0222
G01 X92.3624 Y37.0320
G01 X92.2978 Y37.0353
G01 X66.4571 Y37.0353
G01 X66.3982 Y37.0326
G01 X66.3835 Y37.0311
G01 X66.3246 Y37.0222
G01 X66.2661 Y37.0076
G01 X66.2541 Y37.0039
G01 X66.2062 Y36.9868
G01 X66.1911 Y36.9805
G01 X66.1379 Y36.9551
G01 X66.0819 Y36.9215
G01 X66.0287 Y36.8820
G01 X65.9850 Y36.8427
G01 X63.6973 Y34.5552
G01 X63.6171 Y34.5669
G01 X63.5104 Y34.5723
G01 X63.4948 Y34.5723
G01 X63.3934 Y34.5673
G01 X63.3805 Y34.5659
G01 X63.2764 Y34.5503
G01 X63.1723 Y34.5244
G01 X63.1617 Y34.5214
G01 X63.0642 Y34.4866
G01 X63.0554 Y34.4832
G01 X62.9604 Y34.4384
G01 X62.9459 Y34.4307
G01 X62.8550 Y34.3759
G01 X62.7694 Y34.3127
G01 X62.7567 Y34.3023
G01 X62.6804 Y34.2331
G01 X62.6724 Y34.2248
G01 X62.6011 Y34.1458
G01 X62.5377 Y34.0607
G01 X62.5304 Y34.0499
G01 X62.5043 Y34.0065
G01 X62.4986 Y33.9985
G01 X62.4933 Y33.9899
G01 X62.2428 Y33.5559
G01 X62.2353 Y33.5411
G01 X62.2272 Y33.5276
G01 X62.2230 Y33.5196
G01 X62.1768 Y33.4217
G01 X62.1733 Y33.4128
G01 X62.1377 Y33.3128
G01 X62.1117 Y33.2096
G01 X62.1085 Y33.1936
G01 X62.0931 Y33.0881
G01 X62.0877 Y32.9822
G01 X62.0876 Y32.9667
G01 X62.0926 Y32.8669
G00 Z0.5000
G00 X62.1601 Y32.8712
G01 F250.00
G01 Z-0.0400
G01 F2500.00
G01 X62.1610 Y32.8615
G01 X62.1762 Y32.7597
G01 X62.2012 Y32.6597
G01 X62.2040 Y32.6504
G01 X62.2389 Y32.5532
G01 X62.2827 Y32.4603
G01 X62.2873 Y32.4517
G01 X62.3403 Y32.3636
G01 X62.4016 Y32.2807
G01 X62.4078 Y32.2731
G01 X62.4770 Y32.1969
G01 X62.5532 Y32.1277
G01 X62.5608 Y32.1215
G01 X62.6436 Y32.0602
G01 X62.7318 Y32.0072
G01 X62.7404 Y32.0026
G01 X62.8333 Y31.9588
G01 X62.9305 Y31.9239
G01 X62.9398 Y31.9211
G01 X63.0398 Y31.8961
G01 X63.1416 Y31.8809
G01 X63.1513 Y31.8800
G01 X63.2541 Y31.8750
G01 X63.3570 Y31.8800
G01 X63.3667 Y31.8809
G01 X63.4684 Y31.8961
G01 X63.5684 Y31.9211
G01 X63.5778 Y31.9239
G01 X63.6750 Y31.9588
G01 X63.7678 Y32.0026
G01 X63.7764 Y32.0072
G01 X63.8627 Y32.0590
G01 X63.8687 Y32.0631
G01 X63.9511 Y32.1243
G01 X64.0312 Y32.1969
G01 X64.1038 Y32.2771
G01 X64.1665 Y32.3614
G01 X64.1971 Y32.4119
G01 X64.1999 Y32.4155
G01 X64.2052 Y32.4238
G01 X64.4554 Y32.8571
G01 X64.4614 Y32.8694
G01 X64.4734 Y32.8899
G01 X64.5174 Y32.9829
G01 X64.5201 Y32.9898
G01 X64.5532 Y33.0822
G01 X64.5560 Y33.0915
G01 X64.5809 Y33.1915
G01 X64.5967 Y33.2978
G01 X64.6020 Y33.4058
G01 X64.5971 Y33.5087
G01 X64.5961 Y33.5184
G01 X64.5818 Y33.6154
G01 X64.5802 Y33.6235
G01 X66.7088 Y35.7521
G01 X92.0447 Y35.7521
G01 X94.9023 Y32.8945
G01 X94.9008 Y32.8864
G01 X94.8864 Y32.7894
G01 X94.8854 Y32.7797
G01 X94.8805 Y32.6769
G01 X94.8858 Y32.5688
G01 X94.9016 Y32.4625
G01 X94.9265 Y32.3625
G01 X94.9293 Y32.3532
G01 X94.9643 Y32.2560
G01 X95.0081 Y32.1632
G01 X95.0127 Y32.1545
G01 X95.0658 Y32.0661
G01 X95.1298 Y31.9799
G01 X95.2024 Y31.8997
G01 X95.2786 Y31.8305
G01 X95.2861 Y31.8243
G01 X95.3649 Y31.7659
G01 X95.3730 Y31.7605
G01 X95.4614 Y31.7076
G01 X95.5545 Y31.6635
G01 X95.5635 Y31.6598
G01 X95.6609 Y31.6250
G01 X95.7604 Y31.6000
G01 X95.7699 Y31.5981
G01 X95.8714 Y31.5832
G01 X95.9746 Y31.5780
G01 X95.9844 Y31.5780
G01 X96.0876 Y31.5832
G01 X96.1891 Y31.5981
G01 X96.1986 Y31.6000
G01 X96.2980 Y31.6250
G01 X96.3955 Y31.6598
G01 X96.4045 Y31.6635
G01 X96.4976 Y31.7076
G01 X96.5902 Y31.7632
G01 X96.6728 Y31.8243
G01 X96.6804 Y31.8305
G01 X96.7566 Y31.8997
G01 X96.8258 Y31.9760
G01 X96.8320 Y31.9835
G01 X96.8933 Y32.0664
G01 X96.9463 Y32.1545
G01 X96.9509 Y32.1632
G01 X96.9947 Y32.2560
G01 X97.0296 Y32.3532
G01 X97.0325 Y32.3625
G01 X97.0574 Y32.4625
G01 X97.0726 Y32.5643
G01 X97.0735 Y32.5740
G01 X97.0785 Y32.6769
G01 X97.0732 Y32.7849
G01 X97.0574 Y32.8912
G01 X97.0313 Y32.9954
G01 X96.9966 Y33.0929
G01 X96.9928 Y33.1019
G01 X96.9487 Y33.1949
G01 X96.8959 Y33.2833
G01 X96.8905 Y33.2914
G01 X96.8320 Y33.3702
G01 X96.8258 Y33.3777
G01 X96.7566 Y33.4540
G01 X96.6804 Y33.5232
G01 X96.6728 Y33.5294
G01 X96.5902 Y33.5905
G01 X96.4976 Y33.6461
G01 X96.4003 Y33.6921
G01 X96.3031 Y33.7270
G01 X96.2938 Y33.7298
G01 X96.1987 Y33.7537
G01 X96.1891 Y33.7556
G01 X96.0876 Y33.7705
G01 X95.9844 Y33.7757
G01 X95.9746 Y33.7757
G01 X95.8714 Y33.7705
G01 X95.7699 Y33.7556
G01 X95.7618 Y33.7540
G01 X92.7240 Y36.7918
G01 X92.6818 Y36.8298
G01 X92.6340 Y36.8652
G01 X92.5830 Y36.8958
G01 X92.5293 Y36.9212
G01 X92.4724 Y36.9416
G01 X92.4150 Y36.9559
G01 X92.3564 Y36.9646
G01 X92.2975 Y36.9676
G01 X66.4571 Y36.9676
G01 X66.4024 Y36.9650
G01 X66.3949 Y36.9644
G01 X66.3386 Y36.9559
G01 X66.2853 Y36.9427
G01 X66.2760 Y36.9399
G01 X66.2290 Y36.9231
G01 X66.2200 Y36.9194
G01 X66.1705 Y36.8958
G01 X66.1193 Y36.8651
G01 X66.0717 Y36.8298
G01 X66.0296 Y36.7918
G01 X63.7207 Y34.4830
G01 X63.7126 Y34.4845
G01 X63.6111 Y34.4995
G01 X63.5079 Y34.5047
G01 X63.4982 Y34.5047
G01 X63.3950 Y34.4995
G01 X63.2935 Y34.4845
G01 X63.2839 Y34.4826
G01 X63.1845 Y34.4576
G01 X63.0822 Y34.4211
G01 X62.9893 Y34.3773
G01 X62.9807 Y34.3727
G01 X62.8926 Y34.3197
G01 X62.8097 Y34.2584
G01 X62.8022 Y34.2522
G01 X62.7277 Y34.1846
G01 X62.7226 Y34.1794
G01 X62.6533 Y34.1028
G01 X62.5921 Y34.0204
G01 X62.5880 Y34.0144
G01 X62.5604 Y33.9684
G01 X62.5573 Y33.9644
G01 X62.5519 Y33.9561
G01 X62.3017 Y33.5228
G01 X62.2958 Y33.5104
G01 X62.2838 Y33.4899
G01 X62.2398 Y33.3970
G01 X62.2370 Y33.3900
G01 X62.2023 Y33.2926
G01 X62.1773 Y33.1932
G01 X62.1754 Y33.1836
G01 X62.1605 Y33.0821
G01 X62.1553 Y32.9789
G01 X62.1553 Y32.9692
G01 X62.1601 Y32.8712
G00 Z0.5000
G00 X62.5455 Y34.2863
G01 F250.00
G01 Z-0.0400
G01 F2500.00
G01 X62.5494 Y34.2983
G01 X62.5528 Y34.3102
G01 X62.5787 Y34.4141
G01 X62.5821 Y34.4315
G01 X62.5887 Y34.4757
G01 X62.6024 Y34.4673
G01 X62.6151 Y34.4604
G01 X62.6904 Y34.4226
G01 X62.6785 Y34.4134
G01 X62.6678 Y34.4043
G01 X62.5883 Y34.3322
G01 X62.5757 Y34.3195
G01 X62.5455 Y34.2863
G00 Z0.5000
G00 X66.4933 Y30.5557
G01 F250.00
G01 Z-0.0400
G01 F2500.00
G01 X66.4918 Y30.5402
G01 X66.4868 Y30.4349
G01 X66.4918 Y30.3279
G01 X66.4933 Y30.3123
G01 X66.5079 Y30.2137
G01 X66.5110 Y30.1984
G01 X66.5370 Y30.0953
G01 X66.5726 Y29.9952
G01 X66.5789 Y29.9801
G01 X66.6241 Y29.8848
G01 X66.6833 Y29.7859
G01 X66.7518 Y29.6936
G01 X66.8228 Y29.6150
G01 X66.8344 Y29.6034
G01 X66.9130 Y29.5324
G01 X66.9985 Y29.4687
G01 X67.0114 Y29.4601
G01 X67.0967 Y29.4090
G01 X67.1108 Y29.4014
G01 X67.2065 Y29.3564
G01 X67.3151 Y29.3175
G01 X67.4179 Y29.2916
G01 X67.4339 Y29.2884
G01 X67.5391 Y29.2730
G01 X67.6452 Y29.2676
G01 X67.6616 Y29.2676
G01 X67.7677 Y29.2730
G01 X67.8729 Y29.2884
G01 X67.8841 Y29.2904
G01 X67.9917 Y29.3175
G01 X68.1002 Y29.3563
G01 X68.2027 Y29.4048
G01 X68.3011 Y29.4637
G01 X68.3938 Y29.5324
G01 X68.4778 Y29.6085
G01 X68.5550 Y29.6936
G01 X68.6210 Y29.7824
G01 X68.6270 Y29.7915
G01 X68.6521 Y29.8333
G01 X68.6578 Y29.8414
G01 X68.6631 Y29.8499
G01 X68.9133 Y30.2833
G01 X68.9212 Y30.2987
G01 X68.9316 Y30.3166
G01 X68.9803 Y30.4197
G01 X69.0162 Y30.5194
G01 X69.0200 Y30.5315
G01 X69.0464 Y30.6376
G01 X69.0624 Y30.7433
G01 X69.0640 Y30.7597
G01 X69.0690 Y30.8667
G01 X69.0634 Y30.9799
G01 X69.0480 Y31.0854
G01 X69.0448 Y31.1014
G01 X69.0209 Y31.1966
G01 X69.0182 Y31.2062
G01 X69.8135 Y32.0015
G01 X73.3064 Y32.0015
G01 X73.5396 Y31.7683
G01 X73.5229 Y31.7331
G01 X73.5185 Y31.7227
G01 X73.4839 Y31.6263
G01 X73.4801 Y31.6142
G01 X73.4537 Y31.5081
G01 X73.4372 Y31.3986
G01 X73.4361 Y31.3860
G01 X73.4313 Y31.2881
G01 X73.4313 Y31.2717
G01 X73.4367 Y31.1658
G01 X73.4528 Y31.0564
G01 X73.4553 Y31.0442
G01 X73.4792 Y30.9491
G01 X73.4839 Y30.9334
G01 X73.5204 Y30.8322
G01 X73.5685 Y30.7306
G01 X73.6235 Y30.6383
G01 X73.6325 Y30.6250
G01 X73.6962 Y30.5394
G01 X73.7722 Y30.4555
G01 X73.8514 Y30.3834
G01 X73.8641 Y30.3730
G01 X73.9501 Y30.3095
G01 X74.0470 Y30.2514
G01 X74.1438 Y30.2053
G01 X74.1590 Y30.1991
G01 X74.2595 Y30.1633
G01 X74.3622 Y30.1374
G01 X74.3776 Y30.1343
G01 X74.4835 Y30.1188
G01 X74.5896 Y30.1134
G01 X74.6060 Y30.1134
G01 X74.7121 Y30.1188
G01 X74.8173 Y30.1342
G01 X74.8333 Y30.1374
G01 X74.9285 Y30.1612
G01 X74.9382 Y30.1640
G01 X76.2420 Y28.8601
G01 X76.2763 Y28.8287
G01 X76.2859 Y28.8208
G01 X76.3184 Y28.7966
G01 X76.3313 Y28.7880
G01 X76.3720 Y28.7639
G01 X76.4195 Y28.7414
G01 X76.4697 Y28.7234
G01 X76.5148 Y28.7118
G01 X76.5303 Y28.7087
G01 X76.5686 Y28.7030
G01 X76.5798 Y28.7018
G01 X76.6298 Y28.6995
G01 X103.3011 Y28.6995
G01 X103.3470 Y28.7016
G01 X103.3617 Y28.7031
G01 X103.4067 Y28.7100
G01 X103.4509 Y28.7209
G01 X103.4659 Y28.7254
G01 X103.5088 Y28.7409
G01 X103.5508 Y28.7605
G01 X103.5612 Y28.7658
G01 X103.5982 Y28.7879
G01 X103.6111 Y28.7966
G01 X103.6476 Y28.8240
G01 X103.6835 Y28.8562
G01 X103.6932 Y28.8661
G01 X103.7242 Y28.9006
G01 X103.7521 Y28.9380
G01 X103.7621 Y28.9535
G01 X113.4611 Y28.9535
G01 X113.5071 Y28.9556
G01 X113.5217 Y28.9571
G01 X113.5674 Y28.9642
G01 X113.6118 Y28.9751
G01 X113.6259 Y28.9794
G01 X113.6700 Y28.9954
G01 X113.7116 Y29.0149
G01 X113.7254 Y29.0223
G01 X113.7639 Y29.0456
G01 X113.8018 Y29.0734
G01 X113.8132 Y29.0827
G01 X113.8473 Y29.1139
G01 X118.3316 Y33.5982
G01 X118.3665 Y33.6368
G01 X118.3941 Y33.6736
G01 X118.4027 Y33.6865
G01 X118.4261 Y33.7257
G01 X118.4465 Y33.7683
G01 X118.4521 Y33.7819
G01 X118.4676 Y33.8257
G01 X118.4791 Y33.8708
G01 X118.4820 Y33.8853
G01 X118.4884 Y33.9299
G01 X118.4892 Y33.9394
G01 X118.4912 Y33.9850
G01 X118.4912 Y57.1357
G01 X118.5825 Y57.1792
G01 X118.6730 Y57.2332
G01 X118.6860 Y57.2419
G01 X118.7654 Y57.3008
G01 X118.7781 Y57.3112
G01 X118.8561 Y57.3821
G01 X118.9282 Y57.4613
G01 X118.9386 Y57.4740
G01 X119.0017 Y57.5593
G01 X119.0602 Y57.6569
G01 X119.1091 Y57.7600
G01 X119.1459 Y57.8621
G01 X119.1502 Y57.8762
G01 X119.1742 Y57.9721
G01 X119.1774 Y57.9881
G01 X119.1928 Y58.0936
G01 X119.1984 Y58.2077
G01 X119.1984 Y58.7094
G01 X119.1934 Y58.8151
G01 X119.1918 Y58.8305
G01 X119.1762 Y58.9347
G01 X119.1504 Y59.0388
G01 X119.1473 Y59.0494
G01 X121.3285 Y61.2306
G01 X121.3637 Y61.2694
G01 X121.3913 Y61.3063
G01 X121.3999 Y61.3192
G01 X121.4233 Y61.3584
G01 X121.4468 Y61.4081
G01 X121.4648 Y61.4584
G01 X121.4777 Y61.5100
G01 X121.4858 Y61.5642
G01 X121.4884 Y61.6163
G01 X121.4884 Y62.0341
G01 X121.5240 Y62.0509
G01 X121.5343 Y62.0563
G01 X121.6255 Y62.1110
G01 X121.6356 Y62.1179
G01 X121.7174 Y62.1786
G01 X121.7270 Y62.1867
G01 X121.8051 Y62.2577
G01 X121.8801 Y62.3401
G01 X121.8876 Y62.3495
G01 X121.9506 Y62.4349
G01 X122.0100 Y62.5339
G01 X122.0587 Y62.6371
G01 X122.0945 Y62.7367
G01 X122.0993 Y62.7524
G01 X122.1251 Y62.8565
G01 X122.1418 Y62.9691
G01 X122.1474 Y63.0840
G01 X122.1423 Y63.1894
G01 X122.1416 Y63.1989
G01 X122.1248 Y63.3115
G01 X122.0971 Y63.4219
G01 X122.0615 Y63.5220
G01 X122.0581 Y63.5308
G01 X122.0133 Y63.6258
G01 X122.0056 Y63.6403
G01 X121.9547 Y63.7252
G01 X121.9460 Y63.7381
G01 X121.8831 Y63.8227
G01 X121.8113 Y63.9022
G01 X121.7997 Y63.9138
G01 X121.7215 Y63.9845
G01 X121.6356 Y64.0485
G01 X121.6219 Y64.0576
G01 X121.5314 Y64.1117
G01 X121.4283 Y64.1605
G01 X121.4195 Y64.1640
G01 X121.3194 Y64.1996
G01 X121.2163 Y64.2256
G01 X121.2074 Y64.2276
G01 X121.0948 Y64.2443
G01 X120.9889 Y64.2496
G01 X120.9725 Y64.2496
G01 X120.8667 Y64.2443
G01 X120.7612 Y64.2288
G01 X120.7459 Y64.2258
G01 X120.6500 Y64.2018
G01 X120.6343 Y64.1970
G01 X120.5346 Y64.1612
G01 X120.4314 Y64.1125
G01 X120.3324 Y64.0531
G01 X120.2471 Y63.9901
G01 X120.2344 Y63.9797
G01 X120.1552 Y63.9075
G01 X120.0842 Y63.8295
G01 X120.0743 Y63.8175
G01 X120.0154 Y63.7381
G01 X120.0063 Y63.7244
G01 X119.9522 Y63.6339
G01 X119.9027 Y63.5293
G01 X119.8669 Y63.4296
G01 X119.8638 Y63.4203
G01 X119.8383 Y63.3188
G01 X119.8351 Y63.3027
G01 X119.8196 Y63.1972
G01 X119.8143 Y63.0914
G01 X119.8142 Y63.0758
G01 X119.8193 Y62.9726
G01 X119.8207 Y62.9607
G01 X119.8366 Y62.8549
G01 X119.8621 Y62.7524
G01 X119.8669 Y62.7367
G01 X119.9027 Y62.6371
G01 X119.9481 Y62.5406
G01 X119.9554 Y62.5268
G01 X120.0085 Y62.4383
G01 X120.0154 Y62.4283
G01 X120.0784 Y62.3437
G01 X120.1501 Y62.2642
G01 X120.1587 Y62.2554
G01 X120.2344 Y62.1867
G01 X120.2446 Y62.1782
G01 X120.3316 Y62.1138
G01 X120.3917 Y62.0775
G01 X120.3917 Y61.8447
G01 X118.3712 Y59.8242
G01 X118.2600 Y59.8521
G01 X118.1458 Y59.8691
G01 X118.0309 Y59.8747
G01 X117.9177 Y59.8691
G01 X117.8035 Y59.8521
G01 X117.6930 Y59.8244
G01 X117.5857 Y59.7860
G01 X117.4810 Y59.7365
G01 X117.3837 Y59.6781
G01 X117.2918 Y59.6100
G01 X117.2062 Y59.5324
G01 X117.1294 Y59.4475
G01 X117.0617 Y59.3561
G01 X117.0025 Y59.2573
G01 X116.9538 Y59.1541
G01 X116.9179 Y59.0545
G01 X116.9133 Y59.0395
G01 X116.8873 Y58.9347
G01 X116.8717 Y58.8305
G01 X116.8702 Y58.8151
G01 X116.8651 Y58.7094
G01 X116.8651 Y58.2077
G01 X116.8701 Y58.1015
G01 X116.8717 Y58.0852
G01 X116.8877 Y57.9794
G01 X116.9139 Y57.8741
G01 X116.9179 Y57.8612
G01 X116.9538 Y57.7616
G01 X117.0025 Y57.6584
G01 X117.0617 Y57.5596
G01 X117.1249 Y57.4740
G01 X117.1353 Y57.4613
G01 X117.2062 Y57.3833
G01 X117.2854 Y57.3112
G01 X117.2975 Y57.3012
G01 X117.3769 Y57.2424
G01 X117.3844 Y57.2371
G01 X117.3945 Y57.2309
G01 X117.3945 Y34.2121
G01 X113.2326 Y30.0502
G01 X103.2732 Y30.0502
G01 X99.7089 Y33.6166
G01 X99.7056 Y33.6295
G01 X99.7022 Y33.6395
G01 X99.6973 Y33.6511
G01 X99.6905 Y33.6643
G01 X98.6875 Y35.4013
G01 X98.6806 Y35.4116
G01 X98.6729 Y35.4214
G01 X98.6603 Y35.4347
G01 X98.6522 Y35.4419
G01 X98.6452 Y35.4474
G01 X98.6371 Y35.4531
G01 X98.6274 Y35.4590
G01 X98.6192 Y35.4634
G01 X98.6085 Y35.4682
G01 X98.5980 Y35.4720
G01 X98.5885 Y35.4749
G01 X98.5706 Y35.4786
G01 X98.5576 Y35.4801
G01 X98.5475 Y35.4806
G01 X98.5382 Y35.4804
G01 X98.5251 Y35.4794
G01 X98.5141 Y35.4776
G01 X98.5049 Y35.4756
G01 X98.4923 Y35.4720
G01 X98.4824 Y35.4683
G01 X98.4744 Y35.4648
G01 X98.4624 Y35.4586
G01 X96.7282 Y34.4574
G01 X96.7150 Y34.4488
G01 X96.7022 Y34.4386
G01 X96.6905 Y34.4272
G01 X96.6799 Y34.4147
G01 X96.6706 Y34.4012
G01 X96.6626 Y34.3869
G01 X96.6561 Y34.3719
G01 X96.6524 Y34.3610
G01 X96.6497 Y34.3507
G01 X96.6480 Y34.3421
G01 X96.6461 Y34.3280
G01 X96.6455 Y34.3109
G01 X96.6461 Y34.2978
G01 X96.6468 Y34.2912
G01 X96.6488 Y34.2797
G01 X96.6527 Y34.2642
G01 X96.6561 Y34.2542
G01 X96.6596 Y34.2455
G01 X96.6659 Y34.2328
G01 X97.6703 Y32.4931
G01 X97.6776 Y32.4821
G01 X97.6874 Y32.4699
G01 X97.6956 Y32.4613
G01 X97.7060 Y32.4518
G01 X97.7184 Y32.4425
G01 X97.7279 Y32.4364
G01 X97.7391 Y32.4303
G01 X97.7541 Y32.4238
G01 X97.7697 Y32.4188
G01 X97.7836 Y32.4157
G01 X97.7965 Y32.4139
G01 X97.8107 Y32.4132
G01 X97.8249 Y32.4136
G01 X97.8363 Y32.4148
G01 X97.8510 Y32.4175
G01 X97.8631 Y32.4208
G01 X97.8789 Y32.4267
G01 X97.8883 Y32.4311
G01 X97.8965 Y32.4355
G01 X98.7686 Y32.9390
G01 X98.7976 Y32.9219
G01 X98.8409 Y32.9013
G01 X98.8513 Y32.8970
G01 X98.8922 Y32.8824
G01 X101.9765 Y29.7962
G01 X76.8569 Y29.7962
G01 X75.7136 Y30.9395
G01 X75.7164 Y30.9491
G01 X75.7402 Y31.0442
G01 X75.7434 Y31.0603
G01 X75.7588 Y31.1658
G01 X75.7642 Y31.2717
G01 X75.7642 Y31.2881
G01 X75.7588 Y31.3939
G01 X75.7434 Y31.4994
G01 X75.7402 Y31.5155
G01 X75.7142 Y31.6186
G01 X75.6786 Y31.7187
G01 X75.6723 Y31.7338
G01 X75.6262 Y31.8306
G01 X75.5678 Y31.9279
G01 X75.5046 Y32.0135
G01 X75.4942 Y32.0262
G01 X75.4221 Y32.1054
G01 X75.3378 Y32.1818
G01 X75.2526 Y32.2452
G01 X75.2390 Y32.2543
G01 X75.1470 Y32.3091
G01 X75.0517 Y32.3544
G01 X75.0371 Y32.3605
G01 X74.9399 Y32.3952
G01 X74.9285 Y32.3985
G01 X74.8260 Y32.4239
G01 X74.7203 Y32.4399
G01 X74.7083 Y32.4412
G01 X74.6060 Y32.4463
G01 X74.5937 Y32.4465
G01 X74.4863 Y32.4411
G01 X74.4760 Y32.4400
G01 X74.4262 Y32.4326
G01 X73.9206 Y32.9383
G01 X73.8869 Y32.9690
G01 X73.8749 Y32.9788
G01 X73.8374 Y33.0063
G01 X73.7913 Y33.0338
G01 X73.7445 Y33.0560
G01 X73.7005 Y33.0720
G01 X73.6848 Y33.0768
G01 X73.6477 Y33.0861
G01 X73.6348 Y33.0887
G01 X73.5870 Y33.0956
G01 X73.5366 Y33.0982
G01 X69.5850 Y33.0982
G01 X69.5329 Y33.0956
G01 X69.4803 Y33.0879
G01 X69.4287 Y33.0750
G01 X69.3842 Y33.0594
G01 X69.3697 Y33.0535
G01 X69.3285 Y33.0338
G01 X69.2825 Y33.0063
G01 X69.2386 Y32.9738
G01 X69.2020 Y32.9409
G01 X68.2427 Y31.9817
G01 X68.2331 Y31.9844
G01 X68.1290 Y32.0103
G01 X68.0248 Y32.0259
G01 X68.0085 Y32.0275
G01 X67.9015 Y32.0325
G01 X67.7962 Y32.0275
G01 X67.7798 Y32.0259
G01 X67.6740 Y32.0099
G01 X67.5716 Y31.9844
G01 X67.5559 Y31.9797
G01 X67.4555 Y31.9435
G01 X67.3597 Y31.8984
G01 X67.3456 Y31.8909
G01 X67.2546 Y31.8362
G01 X67.1687 Y31.7727
G01 X67.1593 Y31.7652
G01 X67.0780 Y31.6914
G01 X67.0058 Y31.6122
G01 X66.9959 Y31.6001
G01 X66.9342 Y31.5168
G01 X66.9287 Y31.5084
G01 X66.9036 Y31.4665
G01 X66.8979 Y31.4585
G01 X66.8926 Y31.4499
G01 X66.6405 Y31.0132
G01 X66.6346 Y31.0011
G01 X66.6265 Y30.9876
G01 X66.6223 Y30.9796
G01 X66.5770 Y30.8838
G01 X66.5726 Y30.8728
G01 X66.5381 Y30.7762
G01 X66.5348 Y30.7648
G01 X66.5093 Y30.6623
G01 X66.4933 Y30.5557
G00 Z0.5000
G00 X66.5604 Y30.5466
G01 F250.00
G01 Z-0.0400
G01 F2500.00
G01 X66.5593 Y30.5369
G01 X66.5544 Y30.4340
G01 X66.5597 Y30.3260
G01 X66.5755 Y30.2197
G01 X66.6004 Y30.1197
G01 X66.6033 Y30.1104
G01 X66.6382 Y30.0132
G01 X66.6820 Y29.9203
G01 X66.6866 Y29.9117
G01 X66.7370 Y29.8276
G01 X66.7424 Y29.8195
G01 X66.8037 Y29.7371
G01 X66.8729 Y29.6605
G01 X66.8798 Y29.6536
G01 X66.9564 Y29.5843
G01 X67.0388 Y29.5231
G01 X67.0470 Y29.5176
G01 X67.1311 Y29.4672
G01 X67.1397 Y29.4626
G01 X67.2326 Y29.4188
G01 X67.3349 Y29.3822
G01 X67.4343 Y29.3572
G01 X67.4438 Y29.3553
G01 X67.5453 Y29.3404
G01 X67.6485 Y29.3352
G01 X67.6583 Y29.3352
G01 X67.7615 Y29.3404
G01 X67.8630 Y29.3553
G01 X67.8701 Y29.3567
G01 X67.9719 Y29.3822
G01 X68.0742 Y29.4188
G01 X68.1715 Y29.4648
G01 X68.2641 Y29.5204
G01 X68.3504 Y29.5843
G01 X68.4305 Y29.6569
G01 X68.5031 Y29.7371
G01 X68.5658 Y29.8214
G01 X68.5964 Y29.8719
G01 X68.5992 Y29.8755
G01 X68.6045 Y29.8838
G01 X68.8547 Y30.3171
G01 X68.8582 Y30.3238
G01 X68.8607 Y30.3294
G01 X68.8715 Y30.3477
G01 X68.9176 Y30.4450
G01 X68.9525 Y30.5422
G01 X68.9547 Y30.5494
G01 X68.9802 Y30.6515
G01 X68.9954 Y30.7533
G01 X68.9964 Y30.7630
G01 X69.0012 Y30.8610
G01 X69.0013 Y30.8683
G01 X68.9960 Y30.9739
G01 X68.9807 Y31.0778
G01 X68.9791 Y31.0850
G01 X68.9547 Y31.1823
G01 X68.9402 Y31.2239
G01 X69.7855 Y32.0692
G01 X73.3344 Y32.0692
G01 X73.6211 Y31.7825
G01 X73.5825 Y31.7007
G01 X73.5460 Y31.5984
G01 X73.5199 Y31.4942
G01 X73.5047 Y31.3924
G01 X73.5037 Y31.3827
G01 X73.4989 Y31.2847
G01 X73.4989 Y31.2750
G01 X73.5041 Y31.1718
G01 X73.5191 Y31.0703
G01 X73.5210 Y31.0607
G01 X73.5448 Y30.9655
G01 X73.5476 Y30.9562
G01 X73.5825 Y30.8590
G01 X73.6286 Y30.7618
G01 X73.6839 Y30.6694
G01 X73.7452 Y30.5865
G01 X73.7514 Y30.5790
G01 X73.8207 Y30.5027
G01 X73.8969 Y30.4335
G01 X73.9044 Y30.4273
G01 X73.9871 Y30.3662
G01 X74.0797 Y30.3106
G01 X74.1727 Y30.2665
G01 X74.1818 Y30.2628
G01 X74.2792 Y30.2280
G01 X74.3810 Y30.2025
G01 X74.4852 Y30.1867
G01 X74.4949 Y30.1858
G01 X74.5978 Y30.1809
G01 X74.7019 Y30.1859
G01 X74.7103 Y30.1867
G01 X74.8145 Y30.2025
G01 X74.9142 Y30.2274
G01 X74.9558 Y30.2420
G01 X76.2899 Y28.9080
G01 X76.3211 Y28.8795
G01 X76.3287 Y28.8733
G01 X76.3587 Y28.8510
G01 X76.3668 Y28.8456
G01 X76.4031 Y28.8239
G01 X76.4455 Y28.8039
G01 X76.4894 Y28.7881
G01 X76.5313 Y28.7775
G01 X76.5408 Y28.7756
G01 X76.5849 Y28.7693
G01 X76.6298 Y28.7672
G01 X103.3008 Y28.7672
G01 X103.3467 Y28.7695
G01 X103.3886 Y28.7755
G01 X103.3983 Y28.7775
G01 X103.4387 Y28.7877
G01 X103.4790 Y28.8019
G01 X103.4882 Y28.8057
G01 X103.5263 Y28.8239
G01 X103.5626 Y28.8455
G01 X103.5708 Y28.8510
G01 X103.6046 Y28.8762
G01 X103.6360 Y28.9045
G01 X103.6430 Y28.9115
G01 X103.6713 Y28.9428
G01 X103.6966 Y28.9767
G01 X103.7015 Y28.9839
G01 X103.7236 Y29.0212
G01 X113.4608 Y29.0212
G01 X113.5033 Y29.0232
G01 X113.5117 Y29.0241
G01 X113.5534 Y29.0304
G01 X113.5583 Y29.0315
G01 X113.5946 Y29.0406
G01 X113.6039 Y29.0434
G01 X113.6439 Y29.0578
G01 X113.6820 Y29.0757
G01 X113.6906 Y29.0803
G01 X113.7270 Y29.1023
G01 X113.7609 Y29.1273
G01 X113.7684 Y29.1335
G01 X113.7997 Y29.1620
G01 X118.2833 Y33.6456
G01 X118.3146 Y33.6802
G01 X118.3397 Y33.7139
G01 X118.3452 Y33.7220
G01 X118.3668 Y33.7583
G01 X118.3850 Y33.7965
G01 X118.3887 Y33.8056
G01 X118.4030 Y33.8459
G01 X118.4133 Y33.8864
G01 X118.4152 Y33.8960
G01 X118.4212 Y33.9375
G01 X118.4236 Y33.9850
G01 X118.4236 Y57.1819
G01 X118.4547 Y57.1933
G01 X118.5477 Y57.2373
G01 X118.5541 Y57.2408
G01 X118.6404 Y57.2926
G01 X118.6463 Y57.2967
G01 X118.7287 Y57.3579
G01 X118.8053 Y57.4272
G01 X118.8106 Y57.4323
G01 X118.8781 Y57.5068
G01 X118.8843 Y57.5143
G01 X118.9456 Y57.5972
G01 X118.9986 Y57.6854
G01 X119.0032 Y57.6940
G01 X119.0470 Y57.7868
G01 X119.0828 Y57.8866
G01 X119.1097 Y57.9934
G01 X119.1249 Y58.0951
G01 X119.1258 Y58.1048
G01 X119.1308 Y58.2066
G01 X119.1308 Y58.7091
G01 X119.1254 Y58.8161
G01 X119.1101 Y58.9200
G01 X119.1086 Y58.9272
G01 X119.0842 Y59.0245
G01 X119.0693 Y59.0670
G01 X121.2805 Y61.2782
G01 X121.3118 Y61.3129
G01 X121.3369 Y61.3466
G01 X121.3424 Y61.3547
G01 X121.3640 Y61.3910
G01 X121.3841 Y61.4334
G01 X121.4002 Y61.4786
G01 X121.4115 Y61.5239
G01 X121.4186 Y61.5728
G01 X121.4208 Y61.6176
G01 X121.4208 Y62.0769
G01 X121.4988 Y62.1140
G01 X121.5871 Y62.1668
G01 X121.5953 Y62.1722
G01 X121.6740 Y62.2307
G01 X121.6816 Y62.2368
G01 X121.7578 Y62.3061
G01 X121.8270 Y62.3823
G01 X121.8332 Y62.3898
G01 X121.8944 Y62.4725
G01 X121.9499 Y62.5651
G01 X121.9959 Y62.6624
G01 X122.0308 Y62.7595
G01 X122.0331 Y62.7668
G01 X122.0586 Y62.8689
G01 X122.0744 Y62.9751
G01 X122.0797 Y63.0832
G01 X122.0744 Y63.1913
G01 X122.0586 Y63.2975
G01 X122.0325 Y63.4017
G01 X121.9959 Y63.5040
G01 X121.9521 Y63.5969
G01 X121.9475 Y63.6055
G01 X121.8971 Y63.6896
G01 X121.8917 Y63.6978
G01 X121.8304 Y63.7802
G01 X121.7612 Y63.8568
G01 X121.7543 Y63.8637
G01 X121.6785 Y63.9322
G01 X121.5953 Y63.9942
G01 X121.5871 Y63.9996
G01 X121.4988 Y64.0524
G01 X121.4015 Y64.0984
G01 X121.2992 Y64.1350
G01 X121.1999 Y64.1600
G01 X121.1903 Y64.1619
G01 X121.0888 Y64.1769
G01 X120.9856 Y64.1821
G01 X120.9758 Y64.1821
G01 X120.8779 Y64.1773
G01 X120.8681 Y64.1763
G01 X120.7664 Y64.1611
G01 X120.6622 Y64.1350
G01 X120.5599 Y64.0984
G01 X120.4670 Y64.0546
G01 X120.4584 Y64.0500
G01 X120.3743 Y63.9996
G01 X120.3661 Y63.9942
G01 X120.2837 Y63.9329
G01 X120.2071 Y63.8637
G01 X120.2002 Y63.8568
G01 X120.1310 Y63.7802
G01 X120.0669 Y63.6937
G01 X120.0115 Y63.6013
G01 X119.9673 Y63.5082
G01 X119.9636 Y63.4992
G01 X119.9306 Y63.4069
G01 X119.9277 Y63.3975
G01 X119.9028 Y63.2975
G01 X119.8876 Y63.1958
G01 X119.8866 Y63.1860
G01 X119.8817 Y63.0832
G01 X119.8866 Y62.9803
G01 X119.8873 Y62.9729
G01 X119.9020 Y62.8736
G01 X119.9039 Y62.8640
G01 X119.9289 Y62.7647
G01 X119.9636 Y62.6672
G01 X119.9673 Y62.6582
G01 X120.0115 Y62.5651
G01 X120.0669 Y62.4727
G01 X120.1310 Y62.3862
G01 X120.2002 Y62.3096
G01 X120.2071 Y62.3027
G01 X120.2837 Y62.2335
G01 X120.3661 Y62.1722
G01 X120.3743 Y62.1668
G01 X120.4594 Y62.1158
G01 X120.4594 Y61.8167
G01 X118.3889 Y59.7462
G01 X118.3482 Y59.7605
G01 X118.2485 Y59.7854
G01 X118.1421 Y59.8015
G01 X118.1346 Y59.8021
G01 X118.0318 Y59.8070
G01 X117.9263 Y59.8019
G01 X117.8175 Y59.7859
G01 X117.7132 Y59.7599
G01 X117.6109 Y59.7233
G01 X117.5159 Y59.6784
G01 X117.5095 Y59.6749
G01 X117.4213 Y59.6219
G01 X117.3348 Y59.5578
G01 X117.2547 Y59.4851
G01 X117.1820 Y59.4050
G01 X117.1179 Y59.3185
G01 X117.0626 Y59.2261
G01 X117.0165 Y59.1289
G01 X116.9816 Y59.0317
G01 X116.9788 Y59.0224
G01 X116.9539 Y58.9224
G01 X116.9387 Y58.8206
G01 X116.9377 Y58.8109
G01 X116.9328 Y58.7091
G01 X116.9328 Y58.2077
G01 X116.9377 Y58.1048
G01 X116.9387 Y58.0951
G01 X116.9539 Y57.9934
G01 X116.9793 Y57.8912
G01 X116.9816 Y57.8840
G01 X117.0165 Y57.7868
G01 X117.0626 Y57.6896
G01 X117.1179 Y57.5972
G01 X117.1806 Y57.5125
G01 X117.1854 Y57.5068
G01 X117.2547 Y57.4306
G01 X117.3328 Y57.3596
G01 X117.4191 Y57.2953
G01 X117.4622 Y57.2692
G01 X117.4622 Y34.1841
G01 X113.2607 Y29.9825
G01 X103.2451 Y29.9825
G01 X99.6451 Y33.5848
G01 X99.6443 Y33.5937
G01 X99.6428 Y33.6023
G01 X99.6411 Y33.6089
G01 X99.6362 Y33.6220
G01 X99.6319 Y33.6304
G01 X98.6302 Y35.3653
G01 X98.6258 Y35.3719
G01 X98.6200 Y35.3791
G01 X98.6157 Y35.3838
G01 X98.6058 Y35.3924
G01 X98.5954 Y35.3994
G01 X98.5836 Y35.4053
G01 X98.5710 Y35.4095
G01 X98.5615 Y35.4116
G01 X98.5559 Y35.4124
G01 X98.5453 Y35.4129
G01 X98.5323 Y35.4121
G01 X98.5226 Y35.4103
G01 X98.5132 Y35.4076
G01 X98.5065 Y35.4051
G01 X98.4955 Y35.3996
G01 X96.7628 Y34.3992
G01 X96.7545 Y34.3938
G01 X96.7469 Y34.3878
G01 X96.7399 Y34.3810
G01 X96.7336 Y34.3735
G01 X96.7280 Y34.3655
G01 X96.7233 Y34.3570
G01 X96.7194 Y34.3481
G01 X96.7164 Y34.3388
G01 X96.7144 Y34.3292
G01 X96.7133 Y34.3195
G01 X96.7131 Y34.3098
G01 X96.7139 Y34.3000
G01 X96.7157 Y34.2903
G01 X96.7184 Y34.2809
G01 X96.7220 Y34.2717
G01 X96.7253 Y34.2653
G01 X97.7294 Y32.5263
G01 X97.7325 Y32.5218
G01 X97.7382 Y32.5146
G01 X97.7450 Y32.5076
G01 X97.7524 Y32.5013
G01 X97.7605 Y32.4958
G01 X97.7690 Y32.4910
G01 X97.7779 Y32.4871
G01 X97.7872 Y32.4842
G01 X97.7967 Y32.4821
G01 X97.8024 Y32.4813
G01 X97.8130 Y32.4808
G01 X97.8210 Y32.4811
G01 X97.8304 Y32.4823
G01 X97.8356 Y32.4834
G01 X97.8451 Y32.4861
G01 X97.8542 Y32.4897
G01 X97.8627 Y32.4941
G01 X98.7713 Y33.0187
G01 X98.7903 Y33.0049
G01 X98.8246 Y32.9843
G01 X98.8332 Y32.9797
G01 X98.8736 Y32.9609
G01 X98.9138 Y32.9465
G01 X98.9275 Y32.9428
G01 X102.1398 Y29.7285
G01 X76.8289 Y29.7285
G01 X75.6356 Y30.9218
G01 X75.6502 Y30.9634
G01 X75.6751 Y31.0631
G01 X75.6765 Y31.0703
G01 X75.6917 Y31.1744
G01 X75.6968 Y31.2799
G01 X75.6918 Y31.3827
G01 X75.6909 Y31.3924
G01 X75.6751 Y31.4966
G01 X75.6496 Y31.5984
G01 X75.6149 Y31.6959
G01 X75.6111 Y31.7049
G01 X75.5670 Y31.7979
G01 X75.5116 Y31.8903
G01 X75.4503 Y31.9732
G01 X75.4441 Y31.9807
G01 X75.3749 Y32.0570
G01 X75.2987 Y32.1262
G01 X75.2911 Y32.1324
G01 X75.2082 Y32.1937
G01 X75.1201 Y32.2467
G01 X75.1115 Y32.2513
G01 X75.0186 Y32.2951
G01 X74.9163 Y32.3317
G01 X74.8121 Y32.3577
G01 X74.7103 Y32.3730
G01 X74.7006 Y32.3739
G01 X74.6026 Y32.3787
G01 X74.5929 Y32.3787
G01 X74.4897 Y32.3735
G01 X74.4025 Y32.3607
G01 X73.8734 Y32.8898
G01 X73.8422 Y32.9182
G01 X73.8364 Y32.9230
G01 X73.8005 Y32.9496
G01 X73.7601 Y32.9738
G01 X73.7177 Y32.9938
G01 X73.6777 Y33.0083
G01 X73.6683 Y33.0111
G01 X73.6320 Y33.0202
G01 X73.6225 Y33.0221
G01 X73.5810 Y33.0282
G01 X73.5355 Y33.0305
G01 X69.5853 Y33.0305
G01 X69.5389 Y33.0282
G01 X69.4974 Y33.0221
G01 X69.4878 Y33.0202
G01 X69.4515 Y33.0111
G01 X69.4422 Y33.0083
G01 X69.4055 Y32.9952
G01 X69.3979 Y32.9920
G01 X69.3597 Y32.9738
G01 X69.3234 Y32.9521
G01 X69.3153 Y32.9467
G01 X69.2816 Y32.9216
G01 X69.2487 Y32.8920
G01 X68.2604 Y31.9037
G01 X68.2188 Y31.9182
G01 X68.1191 Y31.9432
G01 X68.1119 Y31.9445
G01 X68.0078 Y31.9597
G01 X67.9072 Y31.9647
G01 X67.8974 Y31.9647
G01 X67.7943 Y31.9595
G01 X67.6904 Y31.9442
G01 X67.6832 Y31.9426
G01 X67.5838 Y31.9176
G01 X67.4863 Y31.8829
G01 X67.4773 Y31.8792
G01 X67.3842 Y31.8350
G01 X67.2959 Y31.7822
G01 X67.2878 Y31.7768
G01 X67.2034 Y31.7139
G01 X67.1252 Y31.6429
G01 X67.0560 Y31.5667
G01 X67.0498 Y31.5592
G01 X66.9886 Y31.4765
G01 X66.9594 Y31.4279
G01 X66.9566 Y31.4244
G01 X66.9512 Y31.4161
G01 X66.6999 Y30.9808
G01 X66.6950 Y30.9704
G01 X66.6831 Y30.9499
G01 X66.6391 Y30.8570
G01 X66.6363 Y30.8500
G01 X66.6024 Y30.7551
G01 X66.5755 Y30.6483
G01 X66.5604 Y30.5466
G00 Z0.5000
G00 X68.2716 Y29.2882
G01 F250.00
G01 Z-0.0400
G01 F2500.00
G01 X68.3649 Y29.3440
G01 X68.3832 Y29.3560
G01 X68.4749 Y29.4240
G01 X68.4888 Y29.4357
G01 X68.5234 Y29.4670
G01 X68.3618 Y29.1871
G01 X68.2716 Y29.2882
G01 X68.3603 Y29.0493
G01 X68.3569 Y29.0610
G01 X68.3516 Y29.0756
G01 X68.3462 Y29.0882
G01 X68.3455 Y29.0896
G01 X68.3441 Y29.0926
G01 X68.3434 Y29.0940
G01 X68.3409 Y29.0989
G01 X68.3344 Y29.1102
G01 X68.3272 Y29.1214
G01 X68.3177 Y29.1343
G01 X68.3087 Y29.1451
G01 X68.2244 Y29.2397
G01 X68.2161 Y29.2483
G01 X68.2052 Y29.2586
G01 X68.1903 Y29.2707
G01 X68.1760 Y29.2806
G01 X68.1604 Y29.2898
G01 X68.1491 Y29.2955
G01 X68.1393 Y29.2998
G01 X68.2253 Y29.3404
G01 X68.2360 Y29.3459
G01 X68.3305 Y29.4022
G01 X68.3486 Y29.4144
G01 X68.4283 Y29.4735
G01 X68.4439 Y29.4863
G01 X68.5178 Y29.5533
G01 X68.5268 Y29.5618
G01 X68.6052 Y29.6482
G01 X68.6144 Y29.6598
G01 X68.6770 Y29.7443
G01 X68.6846 Y29.7560
G01 X68.7083 Y29.7955
G01 X68.7158 Y29.8064
G01 X68.7211 Y29.8150
G01 X68.9719 Y30.2494
G01 X68.9812 Y30.2672
G01 X68.9916 Y30.2854
G01 X69.0380 Y30.3829
G01 X69.0428 Y30.3937
G01 X69.0799 Y30.4966
G01 X69.0852 Y30.5136
G01 X69.1128 Y30.6244
G01 X69.1149 Y30.6364
G01 X69.1293 Y30.7334
G01 X69.1315 Y30.7550
G01 X69.1366 Y30.8642
G01 X69.1364 Y30.8769
G01 X69.1315 Y30.9753
G01 X69.1298 Y30.9945
G01 X69.1133 Y31.1048
G01 X69.1105 Y31.1175
G01 X69.0934 Y31.1857
G01 X69.4736 Y31.5660
G01 X69.4738 Y31.5453
G01 X69.4749 Y31.5307
G01 X69.4905 Y31.4035
G01 X69.4922 Y31.3918
G01 X69.4963 Y31.3733
G01 X69.5000 Y31.3605
G01 X69.5062 Y31.3432
G01 X69.5154 Y31.3235
G01 X69.5275 Y31.3029
G01 X69.5339 Y31.2938
G01 X69.5413 Y31.2842
G01 X69.5499 Y31.2741
G01 X69.5568 Y31.2669
G01 X69.5718 Y31.2530
G01 X69.5849 Y31.2427
G01 X69.5987 Y31.2334
G01 X69.6750 Y31.1891
G01 X69.6650 Y31.1861
G01 X69.6530 Y31.1820
G01 X69.6431 Y31.1779
G01 X69.6318 Y31.1727
G01 X69.6227 Y31.1679
G01 X69.6117 Y31.1614
G01 X69.5944 Y31.1495
G01 X69.5851 Y31.1421
G01 X69.5760 Y31.1340
G01 X69.5609 Y31.1186
G01 X69.5547 Y31.1113
G01 X69.5468 Y31.1011
G01 X69.5357 Y31.0846
G01 X68.3603 Y29.0493
G01 X69.1759 Y30.5970
G01 X69.1791 Y30.6108
G01 X69.1815 Y30.6246
G01 X69.1962 Y30.7237
G01 X69.1979 Y30.7365
G01 X69.1991 Y30.7524
G01 X69.2039 Y30.8510
G01 X69.2043 Y30.8708
G01 X69.1991 Y30.9795
G01 X69.1972 Y31.0008
G01 X69.1806 Y31.1126
G01 X69.1773 Y31.1292
G01 X69.1683 Y31.1650
G01 X69.4206 Y31.4172
G01 X69.4255 Y31.3801
G01 X69.4299 Y31.3599
G01 X69.4325 Y31.3498
G01 X69.4360 Y31.3385
G01 X69.4425 Y31.3204
G01 X69.4489 Y31.3054
G01 X69.4554 Y31.2921
G01 X69.4645 Y31.2760
G01 X69.4714 Y31.2651
G01 X69.4806 Y31.2520
G01 X69.4910 Y31.2387
G01 X69.5025 Y31.2258
G01 X69.5123 Y31.2158
G01 X69.5265 Y31.2028
G01 X69.5396 Y31.1921
G01 X69.5242 Y31.1781
G01 X69.5148 Y31.1683
G01 X69.5065 Y31.1592
G01 X69.4993 Y31.1504
G01 X69.4906 Y31.1389
G01 X69.4778 Y31.1196
G01 X69.1759 Y30.5970
G01 X69.2709 Y30.8967
G01 X69.2666 Y30.9833
G01 X69.2649 Y31.0042
G01 X69.2484 Y31.1171
G01 X69.2460 Y31.1311
G01 X69.2432 Y31.1442
G01 X69.3840 Y31.2849
G01 X69.3960 Y31.2598
G01 X69.4110 Y31.2339
G01 X69.4192 Y31.2215
G01 X69.4264 Y31.2116
G01 X69.4359 Y31.1993
G01 X69.4441 Y31.1896
G01 X69.4304 Y31.1709
G01 X69.4171 Y31.1500
G01 X69.2709 Y30.8967
G01 X69.3175 Y31.1128
G01 X69.3163 Y31.1211
G01 X69.3307 Y31.1357
G01 X69.3175 Y31.1128
G00 Z0.5000
G00 X71.2704 Y29.1489
G01 F250.00
G01 Z-0.0400
G01 F2500.00
G01 X71.2715 Y29.1449
G01 X71.2718 Y29.1440
G01 X71.2686 Y29.1458
G01 X71.2704 Y29.1489
G00 Z0.5000
G00 X70.6558 Y28.0770
G01 F250.00
G01 Z-0.0400
G01 F2500.00
G01 X70.6512 Y28.0759
G01 X70.6506 Y28.0757
G01 X70.6525 Y28.0789
G01 X70.6558 Y28.0770
G00 Z0.5000
G00 X74.8071 Y25.6724
G01 F250.00
G01 Z-0.0400
G01 F2500.00
G01 X74.8060 Y25.6766
G01 X74.8041 Y25.6832
G01 X74.8111 Y25.6792
G01 X74.8071 Y25.6724
G00 Z0.5000
G00 X75.4224 Y26.7488
G01 F250.00
G01 Z-0.0400
G01 F2500.00
G01 X75.4266 Y26.7499
G01 X75.4297 Y26.7507
G01 X75.4271 Y26.7461
G01 X75.4224 Y26.7488
G00 Z0.5000
G00 X65.1521 Y27.1111
G01 F250.00
G01 Z-0.0400
G01 F2500.00
G01 X65.1435 Y27.1030
G01 X65.1335 Y27.0925
G01 X65.1188 Y27.0742
G01 X65.1121 Y27.0644
G01 X65.1055 Y27.0537
G01 X65.0988 Y27.0411
G01 X65.0941 Y27.0311
G01 X65.0824 Y27.0534
G01 X65.0436 Y27.1185
G01 X65.0345 Y27.1324
G01 X65.0709 Y27.1235
G01 X65.0878 Y27.1201
G01 X65.1399 Y27.1125
G01 X65.1521 Y27.1111
G01 X65.1064 Y26.8073
G01 X65.0996 Y26.8340
G01 X65.0954 Y26.8482
G01 X65.0705 Y26.9196
G01 X65.0641 Y26.9353
G01 X65.0321 Y27.0039
G01 X65.0259 Y27.0158
G01 X64.9855 Y27.0838
G01 X64.9761 Y27.0979
G01 X64.9310 Y27.1587
G01 X64.9225 Y27.1691
G01 X64.8693 Y27.2276
G01 X64.8598 Y27.2372
G01 X64.8009 Y27.2900
G01 X64.7905 Y27.2985
G01 X64.7266 Y27.3452
G01 X64.7116 Y27.3550
G01 X64.9141 Y27.2500
G01 X64.9595 Y27.2289
G01 X64.9746 Y27.2226
G01 X65.0269 Y27.2044
G01 X65.0398 Y27.2007
G01 X65.0869 Y27.1892
G01 X65.1034 Y27.1861
G01 X65.1490 Y27.1796
G01 X65.1725 Y27.1774
G01 X65.2226 Y27.1754
G01 X68.4005 Y27.1754
G01 X68.4663 Y27.1787
G01 X68.5310 Y27.1882
G01 X68.5399 Y27.1902
G01 X68.5971 Y27.2048
G01 X68.6518 Y27.2242
G01 X68.6661 Y27.2302
G01 X68.7179 Y27.2548
G01 X68.7685 Y27.2849
G01 X68.7815 Y27.2935
G01 X68.8289 Y27.3290
G01 X68.8776 Y27.3731
G01 X69.5153 Y28.0109
G01 X70.1352 Y27.6528
G01 X70.1479 Y27.6461
G01 X70.1648 Y27.6393
G01 X70.1825 Y27.6344
G01 X70.1909 Y27.6327
G01 X70.2018 Y27.6312
G01 X70.2201 Y27.6304
G01 X70.2376 Y27.6314
G01 X70.2533 Y27.6340
G01 X70.2623 Y27.6361
G01 X70.2722 Y27.6391
G01 X70.2878 Y27.6453
G01 X70.2992 Y27.6510
G01 X70.3075 Y27.6558
G01 X70.3163 Y27.6617
G01 X70.3265 Y27.6697
G01 X70.3335 Y27.6759
G01 X70.3445 Y27.6874
G01 X70.3537 Y27.6989
G01 X70.3590 Y27.7064
G01 X70.6277 Y28.1713
G01 X74.9035 Y25.7040
G01 X74.6685 Y25.2968
G01 X74.6615 Y25.2833
G01 X74.6554 Y25.2679
G01 X74.6528 Y25.2595
G01 X74.6498 Y25.2473
G01 X74.6479 Y25.2357
G01 X74.6466 Y25.2210
G01 X74.6469 Y25.2020
G01 X74.6487 Y25.1867
G01 X74.6508 Y25.1762
G01 X74.6535 Y25.1660
G01 X74.6571 Y25.1551
G01 X74.6613 Y25.1452
G01 X74.6656 Y25.1364
G01 X74.6716 Y25.1257
G01 X74.6781 Y25.1161
G01 X74.6845 Y25.1077
G01 X74.6929 Y25.0983
G01 X74.7023 Y25.0892
G01 X74.7097 Y25.0830
G01 X74.7199 Y25.0755
G01 X74.7300 Y25.0692
G01 X76.4628 Y24.0688
G01 X76.4770 Y24.0614
G01 X76.4939 Y24.0548
G01 X76.5066 Y24.0512
G01 X76.5152 Y24.0493
G01 X76.5319 Y24.0470
G01 X76.5426 Y24.0464
G01 X76.5557 Y24.0466
G01 X76.5651 Y24.0474
G01 X76.5751 Y24.0489
G01 X76.5879 Y24.0516
G01 X76.5970 Y24.0542
G01 X76.6074 Y24.0579
G01 X76.6202 Y24.0636
G01 X76.6296 Y24.0686
G01 X76.6409 Y24.0757
G01 X76.6480 Y24.0808
G01 X76.6587 Y24.0897
G01 X76.6649 Y24.0957
G01 X76.6739 Y24.1056
G01 X76.6817 Y24.1154
G01 X76.6885 Y24.1256
G01 X77.6919 Y25.8634
G01 X77.6997 Y25.8788
G01 X77.7032 Y25.8875
G01 X77.7066 Y25.8975
G01 X77.7106 Y25.9134
G01 X77.7132 Y25.9310
G01 X77.7138 Y25.9409
G01 X77.7136 Y25.9572
G01 X77.7114 Y25.9753
G01 X77.7086 Y25.9881
G01 X77.7059 Y25.9974
G01 X77.7022 Y26.0076
G01 X77.6967 Y26.0201
G01 X77.6903 Y26.0318
G01 X77.6842 Y26.0414
G01 X77.6785 Y26.0491
G01 X77.6701 Y26.0591
G01 X77.6633 Y26.0661
G01 X77.6555 Y26.0732
G01 X77.6452 Y26.0813
G01 X77.6368 Y26.0871
G01 X75.8976 Y27.0914
G01 X75.8834 Y27.0988
G01 X75.8665 Y27.1054
G01 X75.8538 Y27.1090
G01 X75.8419 Y27.1115
G01 X75.8310 Y27.1130
G01 X75.8194 Y27.1137
G01 X75.8094 Y27.1138
G01 X75.7953 Y27.1128
G01 X75.7809 Y27.1105
G01 X75.7708 Y27.1081
G01 X75.7572 Y27.1039
G01 X75.7465 Y27.0996
G01 X75.7385 Y27.0958
G01 X75.7258 Y27.0887
G01 X75.7123 Y27.0794
G01 X75.7042 Y27.0727
G01 X75.6978 Y27.0668
G01 X75.6902 Y27.0589
G01 X75.6787 Y27.0448
G01 X75.6697 Y27.0310
G01 X75.4519 Y26.6537
G01 X71.1761 Y29.1211
G01 X71.6132 Y29.8780
G01 X71.6203 Y29.8916
G01 X71.6271 Y29.9089
G01 X71.6293 Y29.9160
G01 X71.6322 Y29.9282
G01 X71.6342 Y29.9398
G01 X71.6352 Y29.9496
G01 X71.6356 Y29.9595
G01 X71.6352 Y29.9735
G01 X71.6338 Y29.9859
G01 X71.6320 Y29.9961
G01 X71.6296 Y30.0060
G01 X71.6256 Y30.0185
G01 X71.6183 Y30.0357
G01 X71.6124 Y30.0467
G01 X71.6078 Y30.0539
G01 X71.6009 Y30.0636
G01 X71.5947 Y30.0712
G01 X71.5902 Y30.0761
G01 X71.5808 Y30.0853
G01 X71.5745 Y30.0908
G01 X71.5653 Y30.0979
G01 X71.5521 Y30.1063
G01 X69.8198 Y31.1071
G01 X69.8071 Y31.1137
G01 X69.7950 Y31.1188
G01 X69.7841 Y31.1225
G01 X69.7725 Y31.1255
G01 X69.7596 Y31.1279
G01 X69.7481 Y31.1291
G01 X69.7349 Y31.1295
G01 X69.7232 Y31.1290
G01 X69.7088 Y31.1272
G01 X69.6950 Y31.1243
G01 X69.6828 Y31.1207
G01 X69.6703 Y31.1160
G01 X69.6604 Y31.1113
G01 X69.6475 Y31.1041
G01 X69.6387 Y31.0981
G01 X69.6285 Y31.0902
G01 X69.6215 Y31.0840
G01 X69.6101 Y31.0721
G01 X69.6013 Y31.0610
G01 X69.5949 Y31.0517
G01 X68.3399 Y28.8785
G01 X68.3336 Y28.8658
G01 X68.3301 Y28.8571
G01 X68.3267 Y28.8471
G01 X68.3228 Y28.8316
G01 X68.3208 Y28.8201
G01 X68.3198 Y28.8102
G01 X68.3194 Y28.8003
G01 X68.3197 Y28.7872
G01 X68.3216 Y28.7709
G01 X68.3254 Y28.7539
G01 X68.3311 Y28.7369
G01 X68.1204 Y28.5263
G01 X65.3872 Y28.5263
G01 X62.3971 Y30.0755
G01 X54.5124 Y34.7060
G01 X44.0312 Y40.9499
G01 X44.0312 Y87.8901
G01 X65.5897 Y100.3390
G01 X65.8780 Y99.8398
G01 X65.8864 Y99.8266
G01 X65.8940 Y99.8167
G01 X65.9004 Y99.8095
G01 X65.9098 Y99.8001
G01 X65.9205 Y99.7911
G01 X65.9321 Y99.7829
G01 X65.9405 Y99.7778
G01 X65.9518 Y99.7720
G01 X65.9635 Y99.7670
G01 X65.9747 Y99.7632
G01 X65.9860 Y99.7603
G01 X65.9984 Y99.7580
G01 X66.0116 Y99.7566
G01 X66.0248 Y99.7563
G01 X66.0347 Y99.7566
G01 X66.0445 Y99.7576
G01 X66.0584 Y99.7600
G01 X66.0697 Y99.7629
G01 X66.0815 Y99.7669
G01 X66.0902 Y99.7704
G01 X66.1063 Y99.7786
G01 X67.8386 Y100.7794
G01 X67.8486 Y100.7856
G01 X67.8623 Y100.7960
G01 X67.8694 Y100.8022
G01 X67.8812 Y100.8145
G01 X67.8894 Y100.8248
G01 X67.8968 Y100.8356
G01 X67.9048 Y100.8500
G01 X67.9114 Y100.8651
G01 X67.9164 Y100.8807
G01 X67.9199 Y100.8968
G01 X67.9218 Y100.9124
G01 X67.9221 Y100.9295
G01 X67.9215 Y100.9394
G01 X67.9190 Y100.9565
G01 X67.9154 Y100.9710
G01 X67.9103 Y100.9860
G01 X67.9042 Y100.9994
G01 X67.8998 Y101.0077
G01 X66.6501 Y103.1718
G01 X66.6453 Y103.1796
G01 X66.6361 Y103.1922
G01 X66.6277 Y103.2020
G01 X66.6183 Y103.2114
G01 X66.6044 Y103.2228
G01 X66.5931 Y103.2305
G01 X66.5788 Y103.2384
G01 X66.5645 Y103.2445
G01 X66.5489 Y103.2496
G01 X66.5328 Y103.2531
G01 X66.5171 Y103.2549
G01 X66.4999 Y103.2553
G01 X66.4901 Y103.2546
G01 X66.4730 Y103.2522
G01 X66.4584 Y103.2486
G01 X66.4434 Y103.2434
G01 X66.4300 Y103.2374
G01 X66.4217 Y103.2329
G01 X64.6894 Y102.2322
G01 X64.6762 Y102.2237
G01 X64.6658 Y102.2156
G01 X64.6587 Y102.2093
G01 X64.6469 Y102.1971
G01 X64.6406 Y102.1894
G01 X64.6330 Y102.1787
G01 X64.6232 Y102.1616
G01 X64.6167 Y102.1465
G01 X64.6139 Y102.1386
G01 X64.6112 Y102.1292
G01 X64.6084 Y102.1163
G01 X64.6066 Y102.1025
G01 X64.6061 Y102.0951
G01 X64.6060 Y102.0820
G01 X64.6066 Y102.0722
G01 X64.6077 Y102.0629
G01 X64.6103 Y102.0493
G01 X64.6136 Y102.0373
G01 X64.6166 Y102.0286
G01 X64.6217 Y102.0166
G01 X64.6283 Y102.0038
G01 X64.9142 Y101.5088
G01 X43.0176 Y88.8646
G01 X42.9832 Y88.8433
G01 X42.9633 Y88.8297
G01 X42.9250 Y88.8002
G01 X42.9080 Y88.7856
G01 X42.8788 Y88.7582
G01 X42.8608 Y88.7396
G01 X42.8367 Y88.7121
G01 X42.8171 Y88.6874
G01 X42.7948 Y88.6561
G01 X42.7807 Y88.6341
G01 X42.7617 Y88.6013
G01 X42.7507 Y88.5802
G01 X42.7306 Y88.5357
G01 X42.7223 Y88.5142
G01 X42.7095 Y88.4761
G01 X42.7024 Y88.4512
G01 X42.6931 Y88.4108
G01 X42.6889 Y88.3867
G01 X42.6836 Y88.3459
G01 X42.6816 Y88.3205
G01 X42.6803 Y88.2800
G01 X42.6804 Y40.5640
G01 X42.6833 Y40.5031
G01 X42.6922 Y40.4402
G01 X42.7072 Y40.3776
G01 X42.7270 Y40.3194
G01 X42.7532 Y40.2610
G01 X42.7845 Y40.2058
G01 X42.8203 Y40.1544
G01 X42.8571 Y40.1107
G01 X42.8666 Y40.1005
G01 X42.9083 Y40.0602
G01 X42.9519 Y40.0248
G01 X42.9635 Y40.0164
G01 X43.0098 Y39.9860
G01 X43.3543 Y39.7808
G01 X43.3454 Y39.7849
G01 X43.2805 Y39.8121
G01 X43.2687 Y39.8165
G01 X43.1985 Y39.8385
G01 X43.1864 Y39.8417
G01 X43.1144 Y39.8570
G01 X43.1020 Y39.8591
G01 X43.0289 Y39.8676
G01 X43.0132 Y39.8686
G01 X42.9428 Y39.8701
G01 X42.9303 Y39.8698
G01 X42.8569 Y39.8645
G01 X42.8413 Y39.8626
G01 X42.7718 Y39.8509
G01 X42.7565 Y39.8475
G01 X42.6854 Y39.8284
G01 X42.6735 Y39.8246
G01 X42.6265 Y39.8071
G01 X42.6335 Y39.8123
G01 X42.6411 Y39.8187
G01 X42.6537 Y39.8311
G01 X42.7422 Y39.9300
G01 X42.7481 Y39.9371
G01 X42.7564 Y39.9486
G01 X42.7640 Y39.9615
G01 X42.7687 Y39.9709
G01 X42.7740 Y39.9841
G01 X42.7771 Y39.9937
G01 X42.7806 Y40.0078
G01 X42.7823 Y40.0179
G01 X42.7834 Y40.0291
G01 X42.7837 Y40.0456
G01 X42.7827 Y40.0594
G01 X42.7800 Y40.0758
G01 X42.7756 Y40.0918
G01 X42.7698 Y40.1074
G01 X42.7623 Y40.1222
G01 X42.7535 Y40.1363
G01 X42.7032 Y40.2014
G01 X42.6702 Y40.2880
G01 X42.6303 Y40.3842
G01 X42.6199 Y40.4754
G01 X42.6060 Y40.5774
G01 X42.6060 Y88.2685
G01 X42.6345 Y88.4746
G01 X42.7093 Y88.6553
G01 X42.8274 Y88.8086
G01 X42.9919 Y88.9359
G01 X64.6819 Y101.4584
G01 X64.6922 Y101.4654
G01 X64.7007 Y101.4722
G01 X64.7106 Y101.4813
G01 X64.7217 Y101.4934
G01 X64.7301 Y101.5046
G01 X64.7374 Y101.5161
G01 X64.7430 Y101.5266
G01 X64.7494 Y101.5415
G01 X64.7533 Y101.5534
G01 X64.7565 Y101.5667
G01 X64.7588 Y101.5805
G01 X64.7598 Y101.5951
G01 X64.7595 Y101.6094
G01 X64.7584 Y101.6214
G01 X64.7564 Y101.6337
G01 X64.7527 Y101.6482
G01 X64.7471 Y101.6638
G01 X64.7421 Y101.6748
G01 X64.7376 Y101.6832
G01 X64.4551 Y102.1736
G01 X66.5892 Y103.4084
G01 X66.7010 Y103.2153
G01 X66.7094 Y103.2022
G01 X66.7150 Y103.1947
G01 X66.7230 Y103.1855
G01 X66.7293 Y103.1790
G01 X66.7367 Y103.1723
G01 X66.7478 Y103.1635
G01 X66.7546 Y103.1589
G01 X66.7629 Y103.1538
G01 X66.7722 Y103.1489
G01 X66.7839 Y103.1437
G01 X66.7956 Y103.1395
G01 X66.8075 Y103.1363
G01 X66.8209 Y103.1337
G01 X66.8360 Y103.1322
G01 X66.8444 Y103.1319
G01 X66.8553 Y103.1321
G01 X66.8679 Y103.1334
G01 X66.8791 Y103.1352
G01 X67.0113 Y103.1624
G01 X67.0292 Y103.1681
G01 X67.0410 Y103.1730
G01 X67.0540 Y103.1798
G01 X67.0616 Y103.1845
G01 X67.0709 Y103.1911
G01 X67.0805 Y103.1988
G01 X67.0918 Y103.2098
G01 X67.1016 Y103.2211
G01 X67.1094 Y103.2320
G01 X67.1175 Y103.2455
G01 X67.1209 Y103.2523
G01 X67.1255 Y103.2627
G01 X67.1311 Y103.2795
G01 X67.1345 Y103.2938
G01 X67.1378 Y103.3157
G01 X67.2610 Y103.6159
G01 X67.4599 Y103.8729
G01 X67.7175 Y104.0701
G01 X68.0174 Y104.1954
G01 X68.3392 Y104.2378
G01 X68.6610 Y104.1954
G01 X68.9609 Y104.0701
G01 X69.2182 Y103.8732
G01 X69.4217 Y103.6073
G01 X69.6621 Y103.1920
G01 X69.7892 Y102.8822
G01 X69.8317 Y102.5601
G01 X69.7991 Y102.3180
G01 X69.7979 Y102.3039
G01 X69.7977 Y102.2925
G01 X69.7980 Y102.2856
G01 X69.7989 Y102.2754
G01 X69.8014 Y102.2603
G01 X69.8036 Y102.2516
G01 X69.8069 Y102.2409
G01 X69.8119 Y102.2282
G01 X69.8166 Y102.2184
G01 X69.8206 Y102.2112
G01 X69.8299 Y102.1969
G01 X69.8385 Y102.1863
G01 X69.8466 Y102.1775
G01 X72.0031 Y100.0211
G01 X72.0103 Y100.0143
G01 X72.0204 Y100.0060
G01 X72.0299 Y99.9993
G01 X72.0376 Y99.9946
G01 X72.0472 Y99.9894
G01 X72.0540 Y99.9863
G01 X72.0649 Y99.9819
G01 X72.0789 Y99.9776
G01 X72.0974 Y99.9738
G01 X72.1099 Y99.9725
G01 X72.1196 Y99.9721
G01 X73.4370 Y99.9721
G01 X73.4451 Y99.9723
G01 X73.4580 Y99.9735
G01 X73.4739 Y99.9763
G01 X73.4843 Y99.9789
G01 X73.4944 Y99.9823
G01 X73.5064 Y99.9872
G01 X73.5174 Y99.9927
G01 X73.5258 Y99.9976
G01 X73.5355 Y100.0042
G01 X73.5439 Y100.0108
G01 X73.5538 Y100.0197
G01 X73.5597 Y100.0257
G01 X73.5671 Y100.0344
G01 X73.5718 Y100.0404
G01 X73.5793 Y100.0515
G01 X73.6124 Y100.1111
G01 X73.8418 Y100.3383
G01 X74.1214 Y100.5016
G01 X74.4341 Y100.5842
G01 X74.7615 Y100.5842
G01 X75.0741 Y100.5016
G01 X75.3537 Y100.3383
G01 X75.5844 Y100.1098
G01 X75.7474 Y99.8285
G01 X75.8301 Y99.5156
G01 X75.8301 Y99.1907
G01 X75.7474 Y98.8778
G01 X75.5842 Y98.5961
G01 X75.3537 Y98.3655
G01 X75.0741 Y98.2045
G01 X74.7609 Y98.1195
G01 X74.4346 Y98.1195
G01 X74.1214 Y98.2045
G01 X73.8418 Y98.3655
G01 X73.6117 Y98.5957
G01 X73.5780 Y98.6542
G01 X73.5688 Y98.6673
G01 X73.5628 Y98.6745
G01 X73.5565 Y98.6813
G01 X73.5484 Y98.6891
G01 X73.5400 Y98.6961
G01 X73.5316 Y98.7022
G01 X73.5209 Y98.7090
G01 X73.5107 Y98.7145
G01 X73.4990 Y98.7197
G01 X73.4873 Y98.7239
G01 X73.4766 Y98.7269
G01 X73.4653 Y98.7292
G01 X73.4577 Y98.7303
G01 X73.4450 Y98.7314
G01 X73.4370 Y98.7316
G01 X71.8076 Y98.7316
G01 X71.6374 Y98.7550
G01 X71.5780 Y98.7799
G01 X71.4864 Y98.8174
G01 X71.3503 Y98.9216
G01 X68.9705 Y101.3014
G01 X68.9643 Y101.3073
G01 X68.9511 Y101.3180
G01 X68.9368 Y101.3274
G01 X68.9296 Y101.3314
G01 X68.9198 Y101.3361
G01 X68.9071 Y101.3411
G01 X68.8964 Y101.3444
G01 X68.8877 Y101.3466
G01 X68.8725 Y101.3491
G01 X68.8624 Y101.3500
G01 X68.8555 Y101.3503
G01 X68.8441 Y101.3501
G01 X68.8300 Y101.3489
G01 X68.5879 Y101.3163
G01 X68.2662 Y101.3587
G01 X68.2488 Y101.3658
G01 X68.2351 Y101.3701
G01 X68.2203 Y101.3733
G01 X68.2074 Y101.3750
G01 X68.1990 Y101.3756
G01 X68.1863 Y101.3757
G01 X68.1704 Y101.3744
G01 X68.1544 Y101.3715
G01 X68.1424 Y101.3682
G01 X68.1334 Y101.3652
G01 X68.1246 Y101.3616
G01 X68.1158 Y101.3574
G01 X68.1011 Y101.3489
G01 X68.0942 Y101.3443
G01 X68.0861 Y101.3380
G01 X68.0758 Y101.3288
G01 X68.0671 Y101.3199
G01 X67.9781 Y101.2198
G01 X67.9720 Y101.2117
G01 X67.9647 Y101.2005
G01 X67.9589 Y101.1901
G01 X67.9536 Y101.1785
G01 X67.9489 Y101.1657
G01 X67.9458 Y101.1545
G01 X67.9431 Y101.1416
G01 X67.9418 Y101.1321
G01 X67.9409 Y101.1161
G01 X67.9412 Y101.1047
G01 X67.9423 Y101.0928
G01 X67.9435 Y101.0855
G01 X67.9456 Y101.0753
G01 X67.9481 Y101.0661
G01 X67.9525 Y101.0534
G01 X67.9573 Y101.0426
G01 X67.9629 Y101.0317
G01 X68.0734 Y100.8384
G01 X65.9370 Y99.6058
G01 X65.6546 Y100.0980
G01 X65.6504 Y100.1050
G01 X65.6440 Y100.1142
G01 X65.6394 Y100.1202
G01 X65.6319 Y100.1288
G01 X65.6232 Y100.1374
G01 X65.6134 Y100.1458
G01 X65.6005 Y100.1551
G01 X65.5888 Y100.1620
G01 X65.5764 Y100.1681
G01 X65.5610 Y100.1739
G01 X65.5451 Y100.1781
G01 X65.5357 Y100.1799
G01 X65.5230 Y100.1814
G01 X65.5093 Y100.1819
G01 X65.4961 Y100.1814
G01 X65.4811 Y100.1795
G01 X65.4724 Y100.1777
G01 X65.4580 Y100.1737
G01 X65.4455 Y100.1691
G01 X65.4318 Y100.1627
G01 X44.1891 Y87.8964
G01 X44.1823 Y87.8923
G01 X44.1694 Y87.8831
G01 X44.1602 Y87.8753
G01 X44.1527 Y87.8680
G01 X44.1455 Y87.8601
G01 X44.1365 Y87.8486
G01 X44.1303 Y87.8393
G01 X44.1241 Y87.8282
G01 X44.1188 Y87.8170
G01 X44.1154 Y87.8083
G01 X44.1103 Y87.7911
G01 X44.1070 Y87.7732
G01 X44.1060 Y87.7635
G01 X44.1055 Y87.7517
G01 X44.1055 Y41.0868
G01 X44.1062 Y41.0722
G01 X44.1072 Y41.0633
G01 X44.1089 Y41.0537
G01 X44.1137 Y41.0352
G01 X44.1194 Y41.0202
G01 X44.1274 Y41.0042
G01 X44.1358 Y40.9909
G01 X44.1454 Y40.9785
G01 X44.1561 Y40.9670
G01 X44.1691 Y40.9556
G01 X44.1792 Y40.9482
G01 X44.1871 Y40.9432
G01 X54.5507 Y34.7682
G01 X62.4281 Y30.1424
G01 X65.3693 Y28.6193
G01 X65.3784 Y28.6150
G01 X65.3913 Y28.6099
G01 X65.4012 Y28.6068
G01 X65.4130 Y28.6040
G01 X65.4285 Y28.6016
G01 X65.4461 Y28.6006
G01 X68.0112 Y28.6007
G01 X68.0208 Y28.6013
G01 X68.0303 Y28.6023
G01 X68.0459 Y28.6054
G01 X68.0612 Y28.6099
G01 X68.0760 Y28.6158
G01 X68.0902 Y28.6231
G01 X68.1036 Y28.6317
G01 X68.1161 Y28.6416
G01 X68.1285 Y28.6536
G01 X68.1333 Y28.6589
G01 X68.1409 Y28.6685
G01 X68.1506 Y28.6831
G01 X68.2822 Y28.9125
G01 X68.2897 Y28.9295
G01 X68.2932 Y28.9395
G01 X68.2959 Y28.9494
G01 X68.2991 Y28.9662
G01 X68.3001 Y28.9759
G01 X68.3006 Y28.9872
G01 X68.3003 Y28.9989
G01 X68.2990 Y29.0118
G01 X68.2965 Y29.0255
G01 X68.2934 Y29.0375
G01 X68.2889 Y29.0504
G01 X68.2845 Y29.0604
G01 X68.2800 Y29.0692
G01 X68.2729 Y29.0810
G01 X68.2667 Y29.0897
G01 X68.2582 Y29.1000
G01 X68.1733 Y29.1952
G01 X68.1681 Y29.2007
G01 X68.1573 Y29.2106
G01 X68.1422 Y29.2219
G01 X68.1312 Y29.2287
G01 X68.1169 Y29.2358
G01 X68.1036 Y29.2410
G01 X68.0918 Y29.2445
G01 X68.0799 Y29.2471
G01 X68.0667 Y29.2490
G01 X68.0535 Y29.2499
G01 X68.0393 Y29.2496
G01 X68.0235 Y29.2479
G01 X68.0080 Y29.2446
G01 X67.9928 Y29.2399
G01 X67.9753 Y29.2329
G01 X67.6534 Y29.1904
G01 X67.3316 Y29.2329
G01 X67.0317 Y29.3582
G01 X66.7741 Y29.5553
G01 X66.5752 Y29.8123
G01 X66.4523 Y30.1117
G01 X66.4098 Y30.4340
G01 X66.4523 Y30.7564
G01 X66.5794 Y31.0660
G01 X66.8199 Y31.4790
G01 X67.0236 Y31.7476
G01 X67.2802 Y31.9439
G01 X67.5800 Y32.0669
G01 X67.9029 Y32.1095
G01 X68.1458 Y32.0792
G01 X68.1542 Y32.0783
G01 X68.1640 Y32.0779
G01 X68.1769 Y32.0782
G01 X68.1860 Y32.0790
G01 X68.1976 Y32.0808
G01 X68.2061 Y32.0827
G01 X68.2191 Y32.0864
G01 X68.2285 Y32.0898
G01 X68.2364 Y32.0932
G01 X68.2479 Y32.0991
G01 X68.2576 Y32.1049
G01 X68.2655 Y32.1104
G01 X68.2736 Y32.1167
G01 X68.2847 Y32.1269
G01 X69.1405 Y32.9826
G01 X69.2768 Y33.0870
G01 X69.4262 Y33.1488
G01 X69.5968 Y33.1701
G01 X73.5231 Y33.1701
G01 X73.6936 Y33.1488
G01 X73.8430 Y33.0870
G01 X73.9792 Y32.9828
G01 X74.3982 Y32.5613
G01 X74.4118 Y32.5491
G01 X74.4211 Y32.5421
G01 X74.4303 Y32.5362
G01 X74.4423 Y32.5296
G01 X74.4507 Y32.5257
G01 X74.4600 Y32.5221
G01 X74.4684 Y32.5193
G01 X74.4757 Y32.5173
G01 X74.4863 Y32.5150
G01 X74.4973 Y32.5133
G01 X74.5063 Y32.5126
G01 X74.5165 Y32.5122
G01 X74.7615 Y32.5122
G01 X75.0741 Y32.4296
G01 X75.3537 Y32.2663
G01 X75.5844 Y32.0378
G01 X75.7474 Y31.7565
G01 X75.8301 Y31.4436
G01 X75.8301 Y31.1176
G01 X75.8129 Y31.0478
G01 X75.8105 Y31.0308
G01 X75.8098 Y31.0136
G01 X75.8103 Y31.0026
G01 X75.8114 Y30.9934
G01 X75.8138 Y30.9795
G01 X75.8173 Y30.9663
G01 X75.8195 Y30.9599
G01 X75.8255 Y30.9450
G01 X75.8311 Y30.9342
G01 X75.8361 Y30.9258
G01 X75.8455 Y30.9125
G01 X75.8527 Y30.9039
G01 X75.8586 Y30.8976
G01 X76.8391 Y29.9147
G01 X76.8517 Y29.9037
G01 X76.8623 Y29.8961
G01 X76.8706 Y29.8909
G01 X76.8833 Y29.8842
G01 X76.8972 Y29.8784
G01 X76.9097 Y29.8743
G01 X76.9223 Y29.8713
G01 X76.9381 Y29.8690
G01 X76.9549 Y29.8681
G01 X101.2322 Y29.8681
G01 X101.2457 Y29.8686
G01 X101.2569 Y29.8699
G01 X101.2731 Y29.8732
G01 X101.2889 Y29.8780
G01 X101.3042 Y29.8844
G01 X101.3173 Y29.8914
G01 X101.3316 Y29.9009
G01 X101.3437 Y29.9107
G01 X101.3552 Y29.9221
G01 X101.3627 Y29.9308
G01 X101.3688 Y29.9389
G01 X101.3752 Y29.9488
G01 X101.3839 Y29.9650
G01 X101.4360 Y30.0935
G01 X101.4399 Y30.1043
G01 X101.4429 Y30.1152
G01 X101.4453 Y30.1271
G01 X101.4464 Y30.1345
G01 X101.4475 Y30.1474
G01 X101.4476 Y30.1565
G01 X101.4471 Y30.1668
G01 X101.4457 Y30.1799
G01 X101.4434 Y30.1919
G01 X101.4407 Y30.2022
G01 X101.4373 Y30.2125
G01 X101.4323 Y30.2245
G01 X101.4288 Y30.2317
G01 X101.4225 Y30.2427
G01 X101.4153 Y30.2535
G01 X101.4089 Y30.2616
G01 X101.3987 Y30.2728
G01 X98.8841 Y32.7874
G01 X98.8767 Y32.7943
G01 X98.8663 Y32.8028
G01 X98.8509 Y32.8132
G01 X98.8433 Y32.8174
G01 X98.8340 Y32.8219
G01 X98.8248 Y32.8257
G01 X98.8135 Y32.8294
G01 X98.7971 Y32.8334
G01 X98.7857 Y32.8352
G01 X98.7699 Y32.8363
G01 X98.7517 Y32.8358
G01 X98.7374 Y32.8340
G01 X98.7210 Y32.8303
G01 X98.7050 Y32.8249
G01 X98.6897 Y32.8180
G01 X97.7273 Y32.2626
G01 X97.6203 Y32.4480
G01 X97.6115 Y32.4616
G01 X97.6057 Y32.4693
G01 X97.5971 Y32.4792
G01 X97.5837 Y32.4919
G01 X97.5732 Y32.5001
G01 X97.5655 Y32.5053
G01 X97.5567 Y32.5105
G01 X97.5486 Y32.5148
G01 X97.5369 Y32.5199
G01 X97.5267 Y32.5236
G01 X97.5173 Y32.5263
G01 X97.5061 Y32.5288
G01 X97.4946 Y32.5305
G01 X97.4842 Y32.5313
G01 X97.4761 Y32.5316
G01 X97.4618 Y32.5310
G01 X97.3190 Y32.5124
G01 X97.3099 Y32.5109
G01 X97.2950 Y32.5074
G01 X97.2849 Y32.5041
G01 X97.2688 Y32.4974
G01 X97.2583 Y32.4919
G01 X97.2491 Y32.4863
G01 X97.2370 Y32.4776
G01 X97.2282 Y32.4701
G01 X97.2183 Y32.4602
G01 X97.2119 Y32.4530
G01 X97.2035 Y32.4418
G01 X97.1975 Y32.4324
G01 X97.1911 Y32.4208
G01 X97.1854 Y32.4080
G01 X97.1798 Y32.3912
G01 X97.1293 Y32.2030
G01 X96.9660 Y31.9211
G01 X96.7354 Y31.6905
G01 X96.4558 Y31.5295
G01 X96.1426 Y31.4445
G01 X95.8163 Y31.4445
G01 X95.5031 Y31.5295
G01 X95.2235 Y31.6905
G01 X94.9930 Y31.9211
G01 X94.8298 Y32.2028
G01 X94.7471 Y32.5157
G01 X94.7471 Y32.7835
G01 X94.7469 Y32.7917
G01 X94.7457 Y32.8047
G01 X94.7428 Y32.8209
G01 X94.7406 Y32.8296
G01 X94.7373 Y32.8398
G01 X94.7324 Y32.8520
G01 X94.7292 Y32.8587
G01 X94.7221 Y32.8714
G01 X94.7148 Y32.8823
G01 X94.7084 Y32.8905
G01 X94.6981 Y32.9017
G01 X92.0362 Y35.5637
G01 X92.0283 Y35.5711
G01 X92.0176 Y35.5797
G01 X92.0045 Y35.5885
G01 X91.9921 Y35.5953
G01 X91.9804 Y35.6005
G01 X91.9686 Y35.6048
G01 X91.9568 Y35.6080
G01 X91.9412 Y35.6110
G01 X91.9282 Y35.6123
G01 X91.9180 Y35.6126
G01 X66.8355 Y35.6126
G01 X66.8254 Y35.6123
G01 X66.8123 Y35.6110
G01 X66.8021 Y35.6092
G01 X66.7881 Y35.6057
G01 X66.7774 Y35.6022
G01 X66.7640 Y35.5965
G01 X66.7499 Y35.5890
G01 X66.7373 Y35.5807
G01 X66.7283 Y35.5737
G01 X66.7172 Y35.5636
G01 X64.7843 Y33.6281
G01 X64.7774 Y33.6208
G01 X64.7689 Y33.6104
G01 X64.7625 Y33.6011
G01 X64.7571 Y33.5923
G01 X64.7508 Y33.5800
G01 X64.7474 Y33.5720
G01 X64.7445 Y33.5644
G01 X64.7414 Y33.5544
G01 X64.7395 Y33.5466
G01 X64.7368 Y33.5317
G01 X64.7355 Y33.5149
G01 X64.7358 Y33.4981
G01 X64.7468 Y33.4067
G01 X64.7042 Y33.0861
G01 X64.5770 Y32.7762
G01 X64.3366 Y32.3610
G01 X64.1331 Y32.0951
G01 X63.8758 Y31.8982
G01 X63.5760 Y31.7729
G01 X63.2541 Y31.7304
G01 X62.9323 Y31.7729
G01 X62.6324 Y31.8982
G01 X62.3748 Y32.0953
G01 X62.1759 Y32.3523
G01 X62.0529 Y32.6519
G01 X62.0122 Y32.9534
G01 X62.0093 Y32.9680
G01 X62.0055 Y32.9814
G01 X62.0013 Y32.9924
G01 X61.9950 Y33.0060
G01 X61.9865 Y33.0204
G01 X61.9756 Y33.0351
G01 X61.9434 Y33.0708
G01 X61.9377 Y33.0763
G01 X61.9290 Y33.0838
G01 X61.9203 Y33.0904
G01 X61.9081 Y33.0983
G01 X61.8280 Y33.1437
G01 X61.8177 Y33.1485
G01 X61.8020 Y33.1541
G01 X61.7618 Y33.1657
G01 X61.7471 Y33.1690
G01 X61.7314 Y33.1711
G01 X61.7187 Y33.1717
G01 X61.7007 Y33.1708
G01 X61.6870 Y33.1689
G01 X61.6698 Y33.1647
G01 X61.6538 Y33.1591
G01 X61.3763 Y33.0429
G01 X61.0545 Y33.0004
G01 X60.7327 Y33.0429
G01 X60.4328 Y33.1682
G01 X60.1751 Y33.3653
G01 X59.9763 Y33.6223
G01 X59.8533 Y33.9219
G01 X59.8126 Y34.2234
G01 X59.8112 Y34.2312
G01 X59.8078 Y34.2451
G01 X59.8047 Y34.2546
G01 X59.7998 Y34.2669
G01 X59.7953 Y34.2760
G01 X59.7908 Y34.2841
G01 X59.7858 Y34.2919
G01 X59.7780 Y34.3026
G01 X59.7483 Y34.3360
G01 X59.7426 Y34.3420
G01 X59.7354 Y34.3487
G01 X59.7236 Y34.3583
G01 X59.7100 Y34.3673
G01 X59.6329 Y34.4114
G01 X59.6180 Y34.4185
G01 X59.6044 Y34.4235
G01 X59.5637 Y34.4352
G01 X59.5507 Y34.4384
G01 X59.5380 Y34.4404
G01 X59.5285 Y34.4413
G01 X59.5190 Y34.4417
G01 X59.5011 Y34.4408
G01 X59.4874 Y34.4389
G01 X59.4701 Y34.4347
G01 X59.4541 Y34.4291
G01 X59.1766 Y34.3129
G01 X58.8548 Y34.2704
G01 X58.5330 Y34.3129
G01 X58.2331 Y34.4382
G01 X57.9755 Y34.6353
G01 X57.7766 Y34.8923
G01 X57.6537 Y35.1919
G01 X57.6130 Y35.4934
G01 X57.6116 Y35.5012
G01 X57.6082 Y35.5151
G01 X57.6051 Y35.5246
G01 X57.6001 Y35.5369
G01 X57.5957 Y35.5460
G01 X57.5911 Y35.5541
G01 X57.5862 Y35.5619
G01 X57.5783 Y35.5726
G01 X57.5486 Y35.6060
G01 X57.5430 Y35.6120
G01 X57.5358 Y35.6187
G01 X57.5240 Y35.6283
G01 X57.5103 Y35.6373
G01 X57.4358 Y35.6800
G01 X57.4221 Y35.6869
G01 X57.4081 Y35.6924
G01 X57.3641 Y35.7052
G01 X57.3510 Y35.7084
G01 X57.3383 Y35.7104
G01 X57.3289 Y35.7113
G01 X57.3194 Y35.7117
G01 X57.3014 Y35.7108
G01 X57.2877 Y35.7089
G01 X57.2705 Y35.7047
G01 X57.2545 Y35.6991
G01 X56.9770 Y35.5829
G01 X56.6552 Y35.5404
G01 X56.3334 Y35.5829
G01 X56.0335 Y35.7082
G01 X55.7759 Y35.9053
G01 X55.5770 Y36.1623
G01 X55.4541 Y36.4617
G01 X55.4116 Y36.7840
G01 X55.4541 Y37.1064
G01 X55.5812 Y37.4160
G01 X55.8217 Y37.8290
G01 X56.0256 Y38.0978
G01 X56.1342 Y38.1817
G01 X56.1418 Y38.1883
G01 X56.1488 Y38.1952
G01 X56.1599 Y38.2081
G01 X56.1685 Y38.2203
G01 X56.1745 Y38.2305
G01 X56.1810 Y38.2437
G01 X56.1845 Y38.2524
G01 X56.1884 Y38.2642
G01 X56.1910 Y38.2741
G01 X56.1931 Y38.2852
G01 X56.1947 Y38.3003
G01 X56.1950 Y38.3106
G01 X56.1950 Y46.9034
G01 X56.1948 Y46.9116
G01 X56.1938 Y46.9231
G01 X56.1924 Y46.9326
G01 X56.1900 Y46.9440
G01 X56.1858 Y46.9579
G01 X56.1818 Y46.9685
G01 X56.1789 Y46.9748
G01 X56.1732 Y46.9859
G01 X56.1685 Y46.9936
G01 X56.1612 Y47.0041
G01 X56.1530 Y47.0142
G01 X56.1461 Y47.0216
G01 X50.5372 Y52.6329
G01 X50.4103 Y52.7949
G01 X50.3361 Y52.9741
G01 X50.3098 Y53.1802
G01 X50.3098 Y57.9727
G01 X50.3090 Y57.9891
G01 X50.3072 Y58.0020
G01 X50.3048 Y58.0133
G01 X50.3006 Y58.0272
G01 X50.2966 Y58.0378
G01 X50.2927 Y58.0463
G01 X50.2860 Y58.0587
G01 X50.2815 Y58.0657
G01 X50.2735 Y58.0768
G01 X50.2665 Y58.0850
G01 X50.2608 Y58.0909
G01 X50.0731 Y58.2786
G01 X49.9096 Y58.5608
G01 X49.8247 Y58.8738
G01 X49.8247 Y59.1977
G01 X49.9096 Y59.5130
G01 X50.0731 Y59.7929
G01 X50.3013 Y60.0233
G01 X50.5830 Y60.1843
G01 X50.8964 Y60.2693
G01 X51.2202 Y60.2693
G01 X51.5337 Y60.1843
G01 X51.8157 Y60.0231
G01 X52.0459 Y59.7929
G01 X52.2069 Y59.5134
G01 X52.2920 Y59.1977
G01 X52.2920 Y58.8738
G01 X52.2069 Y58.5603
G01 X52.0460 Y58.2787
G01 X51.8565 Y58.0916
G01 X51.8457 Y58.0798
G01 X51.8375 Y58.0691
G01 X51.8310 Y58.0593
G01 X51.8251 Y58.0488
G01 X51.8201 Y58.0379
G01 X51.8161 Y58.0276
G01 X51.8119 Y58.0136
G01 X51.8094 Y58.0020
G01 X51.8076 Y57.9886
G01 X51.8068 Y57.9727
G01 X51.8068 Y53.5480
G01 X51.8076 Y53.5316
G01 X51.8100 Y53.5155
G01 X51.8143 Y53.4987
G01 X51.8166 Y53.4917
G01 X51.8214 Y53.4799
G01 X51.8286 Y53.4655
G01 X51.8351 Y53.4550
G01 X51.8453 Y53.4414
G01 X51.8558 Y53.4298
G01 X57.4666 Y47.8190
G01 X57.5913 Y47.6572
G01 X57.6660 Y47.4765
G01 X57.6945 Y47.2703
G01 X57.6945 Y38.2471
G01 X57.6953 Y38.2316
G01 X57.6965 Y38.2213
G01 X57.6984 Y38.2114
G01 X57.7025 Y38.1963
G01 X57.7056 Y38.1873
G01 X57.7122 Y38.1723
G01 X57.7171 Y38.1633
G01 X57.7222 Y38.1549
G01 X57.7290 Y38.1455
G01 X57.7343 Y38.1389
G01 X57.7406 Y38.1319
G01 X57.7529 Y38.1202
G01 X57.7614 Y38.1133
G01 X57.7837 Y38.0966
G01 X57.9822 Y37.8379
G01 X58.1051 Y37.5385
G01 X58.1278 Y37.3617
G01 X58.1308 Y37.3451
G01 X58.1352 Y37.3299
G01 X58.1386 Y37.3206
G01 X58.1425 Y37.3117
G01 X58.1511 Y37.2960
G01 X58.1604 Y37.2824
G01 X58.1689 Y37.2721
G01 X58.1807 Y37.2601
G01 X58.2696 Y37.1820
G01 X58.2793 Y37.1744
G01 X58.2883 Y37.1683
G01 X58.3018 Y37.1607
G01 X58.3099 Y37.1569
G01 X58.3269 Y37.1504
G01 X58.3887 Y37.1316
G01 X58.4032 Y37.1281
G01 X58.4165 Y37.1260
G01 X58.4274 Y37.1251
G01 X58.4374 Y37.1249
G01 X58.4459 Y37.1252
G01 X58.4590 Y37.1265
G01 X58.4682 Y37.1281
G01 X58.4777 Y37.1302
G01 X58.4850 Y37.1323
G01 X58.4967 Y37.1364
G01 X58.5072 Y37.1409
G01 X58.5217 Y37.1486
G01 X58.5337 Y37.1566
G01 X58.5424 Y37.1633
G01 X58.5528 Y37.1727
G01 X58.5647 Y37.1849
G01 X58.5716 Y37.1931
G01 X58.5797 Y37.2041
G01 X58.5852 Y37.2129
G01 X58.5919 Y37.2256
G01 X58.5965 Y37.2362
G01 X58.6005 Y37.2478
G01 X58.6035 Y37.2585
G01 X58.6062 Y37.2726
G01 X58.6077 Y37.2868
G01 X58.6080 Y37.2971
G01 X58.6080 Y48.3004
G01 X58.6072 Y48.3168
G01 X58.6048 Y48.3329
G01 X58.6015 Y48.3465
G01 X58.5982 Y48.3567
G01 X58.5935 Y48.3686
G01 X58.5878 Y48.3800
G01 X58.5815 Y48.3906
G01 X58.5751 Y48.4000
G01 X58.5659 Y48.4112
G01 X58.5590 Y48.4186
G01 X55.6613 Y51.3163
G01 X55.5365 Y51.4806
G01 X55.4614 Y51.6619
G01 X55.4330 Y51.8655
G01 X55.4330 Y68.3664
G01 X55.4327 Y68.3765
G01 X55.4314 Y68.3896
G01 X55.4296 Y68.3998
G01 X55.4275 Y68.4087
G01 X55.4237 Y68.4213
G01 X55.4205 Y68.4298
G01 X55.4169 Y68.4379
G01 X55.4100 Y68.4510
G01 X55.4040 Y68.4605
G01 X55.3985 Y68.4681
G01 X55.3897 Y68.4787
G01 X55.3840 Y68.4846
G01 X52.9304 Y70.9382
G01 X52.9217 Y70.9463
G01 X52.9118 Y70.9543
G01 X52.8981 Y70.9634
G01 X52.8873 Y70.9693
G01 X52.8806 Y70.9725
G01 X52.8685 Y70.9774
G01 X52.8528 Y70.9822
G01 X52.8400 Y70.9848
G01 X52.8204 Y70.9870
G01 X52.1238 Y70.9872
G01 X52.1125 Y70.9868
G01 X52.0987 Y70.9853
G01 X52.0839 Y70.9823
G01 X52.0697 Y70.9782
G01 X52.0551 Y70.9724
G01 X52.0444 Y70.9671
G01 X52.0351 Y70.9617
G01 X52.0235 Y70.9537
G01 X52.0147 Y70.9466
G01 X52.0072 Y70.9398
G01 X51.9069 Y70.8420
G01 X51.8946 Y70.8284
G01 X51.8869 Y70.8179
G01 X51.8829 Y70.8119
G01 X51.8742 Y70.7962
G01 X51.8686 Y70.7830
G01 X51.8655 Y70.7743
G01 X51.8628 Y70.7649
G01 X51.8607 Y70.7553
G01 X51.8587 Y70.7428
G01 X51.8580 Y70.7339
G01 X51.8576 Y70.7252
G01 X51.8578 Y70.7154
G01 X51.8587 Y70.7043
G01 X51.8601 Y70.6951
G01 X51.8622 Y70.6848
G01 X51.8645 Y70.6760
G01 X51.8676 Y70.6665
G01 X51.8707 Y70.6588
G01 X51.9240 Y70.5318
G01 X51.9304 Y70.5184
G01 X51.9351 Y70.5100
G01 X51.9413 Y70.5005
G01 X51.9499 Y70.4893
G01 X51.9612 Y70.4771
G01 X51.9683 Y70.4705
G01 X51.9772 Y70.4632
G01 X51.9925 Y70.4529
G01 X52.0062 Y70.4456
G01 X52.0220 Y70.4390
G01 X52.0377 Y70.4343
G01 X52.0537 Y70.4311
G01 X52.0667 Y70.4298
G01 X52.0765 Y70.4294
G01 X52.2920 Y70.4293
G01 X52.2920 Y67.9646
G01 X52.0781 Y67.9646
G01 X52.0700 Y67.9644
G01 X52.0570 Y67.9632
G01 X52.0377 Y67.9596
G01 X52.0276 Y67.9568
G01 X52.0192 Y67.9538
G01 X52.0078 Y67.9491
G01 X52.0011 Y67.9458
G01 X51.9925 Y67.9410
G01 X51.9819 Y67.9341
G01 X51.9746 Y67.9287
G01 X51.9650 Y67.9204
G01 X51.9547 Y67.9101
G01 X51.9476 Y67.9018
G01 X51.9409 Y67.8928
G01 X51.9351 Y67.8840
G01 X51.9267 Y67.8681
G01 X51.8707 Y67.7352
G01 X51.8655 Y67.7212
G01 X51.8628 Y67.7117
G01 X51.8607 Y67.7022
G01 X51.8587 Y67.6897
G01 X51.8576 Y67.6722
G01 X51.8580 Y67.6594
G01 X51.8594 Y67.6463
G01 X51.8609 Y67.6376
G01 X51.8630 Y67.6284
G01 X51.8668 Y67.6158
G01 X51.8697 Y67.6081
G01 X51.8744 Y67.5975
G01 X51.8785 Y67.5896
G01 X51.8848 Y67.5791
G01 X51.8905 Y67.5709
G01 X51.8960 Y67.5639
G01 X51.9054 Y67.5534
G01 X52.0459 Y67.4129
G01 X52.2069 Y67.1334
G01 X52.2920 Y66.8177
G01 X52.2920 Y66.4938
G01 X52.2069 Y66.1803
G01 X52.0459 Y65.8986
G01 X51.8159 Y65.6709
G01 X51.6848 Y65.5953
G01 X51.6753 Y65.5894
G01 X51.6650 Y65.5819
G01 X51.6581 Y65.5762
G01 X51.6460 Y65.5645
G01 X51.6386 Y65.5559
G01 X51.6332 Y65.5490
G01 X51.6235 Y65.5341
G01 X51.6162 Y65.5200
G01 X51.6118 Y65.5094
G01 X51.6088 Y65.5008
G01 X51.6044 Y65.4836
G01 X51.6028 Y65.4743
G01 X51.6018 Y65.4655
G01 X51.6011 Y65.4505
G01 X51.6012 Y65.3171
G01 X51.6028 Y65.2997
G01 X51.6058 Y65.2840
G01 X51.6103 Y65.2688
G01 X51.6162 Y65.2540
G01 X51.6235 Y65.2398
G01 X51.6321 Y65.2264
G01 X51.6420 Y65.2139
G01 X51.6518 Y65.2036
G01 X51.6650 Y65.1920
G01 X51.6793 Y65.1819
G01 X51.8155 Y65.1033
G01 X52.0459 Y64.8729
G01 X52.2069 Y64.5934
G01 X52.2920 Y64.2777
G01 X52.2920 Y63.9538
G01 X52.2069 Y63.6403
G01 X52.0459 Y63.3586
G01 X51.8157 Y63.1307
G01 X51.5337 Y62.9673
G01 X51.2207 Y62.8846
G01 X50.8959 Y62.8846
G01 X50.5830 Y62.9673
G01 X50.3013 Y63.1305
G01 X50.0731 Y63.3586
G01 X49.9444 Y63.5810
G01 X49.9392 Y63.5893
G01 X49.9342 Y63.5966
G01 X49.9279 Y63.6045
G01 X49.9206 Y63.6127
G01 X49.9137 Y63.6195
G01 X49.9002 Y63.6308
G01 X49.8918 Y63.6367
G01 X49.8832 Y63.6420
G01 X49.8691 Y63.6493
G01 X49.8544 Y63.6552
G01 X49.8391 Y63.6597
G01 X49.8235 Y63.6627
G01 X49.8112 Y63.6640
G01 X49.8014 Y63.6644
G01 X49.7324 Y63.6644
G01 X49.5618 Y63.6878
G01 X49.4115 Y63.7500
G01 X49.2751 Y63.8544
G01 X45.2109 Y67.9186
G01 X45.1043 Y68.0551
G01 X45.0428 Y68.2037
G01 X45.0215 Y68.3743
G01 X45.0215 Y75.8466
G01 X45.0428 Y76.0192
G01 X45.1043 Y76.1659
G01 X45.2114 Y76.3051
G01 X49.6409 Y80.7346
G01 X49.7772 Y80.8390
G01 X49.9266 Y80.9008
G01 X50.0972 Y80.9221
G01 X87.7346 Y80.9221
G01 X87.7460 Y80.9225
G01 X87.7599 Y80.9240
G01 X87.7753 Y80.9271
G01 X87.7910 Y80.9319
G01 X87.8050 Y80.9376
G01 X87.8184 Y80.9446
G01 X87.8288 Y80.9511
G01 X87.8418 Y80.9610
G01 X87.8517 Y80.9699
G01 X89.2347 Y82.3555
G01 X89.2414 Y82.3626
G01 X89.2495 Y82.3724
G01 X89.2561 Y82.3817
G01 X89.2605 Y82.3888
G01 X89.2670 Y82.4011
G01 X89.2712 Y82.4106
G01 X89.2756 Y82.4227
G01 X89.2781 Y82.4312
G01 X89.2811 Y82.4452
G01 X89.2828 Y82.4579
G01 X89.2834 Y82.4661
G01 X89.2835 Y82.4789
G01 X89.2720 Y82.6224
G01 X89.2695 Y82.6363
G01 X89.2664 Y82.6483
G01 X89.2638 Y82.6565
G01 X89.2577 Y82.6713
G01 X89.2497 Y82.6863
G01 X89.2402 Y82.7005
G01 X89.2293 Y82.7136
G01 X89.2209 Y82.7221
G01 X89.2143 Y82.7281
G01 X89.0280 Y82.9723
G01 X89.0171 Y82.9845
G01 X89.0068 Y82.9941
G01 X88.9947 Y83.0035
G01 X88.9860 Y83.0093
G01 X88.9782 Y83.0139
G01 X88.9655 Y83.0202
G01 X88.9541 Y83.0247
G01 X88.9453 Y83.0276
G01 X88.9008 Y83.0401
G01 X88.8856 Y83.0430
G01 X88.8702 Y83.0444
G01 X88.7796 Y83.0446
G01 X88.7702 Y83.0442
G01 X88.7579 Y83.0430
G01 X88.7449 Y83.0406
G01 X88.7352 Y83.0381
G01 X88.6941 Y83.0263
G01 X88.6781 Y83.0202
G01 X88.6644 Y83.0134
G01 X88.6549 Y83.0077
G01 X88.6488 Y83.0035
G01 X88.6391 Y82.9961
G01 X88.6300 Y82.9880
G01 X88.6226 Y82.9805
G01 X88.6174 Y82.9746
G01 X88.4303 Y82.7295
G01 X88.1735 Y82.5307
G01 X87.8741 Y82.4078
G01 X87.5518 Y82.3653
G01 X87.2294 Y82.4078
G01 X86.9301 Y82.5307
G01 X86.6732 Y82.7295
G01 X86.4890 Y82.9711
G01 X86.4830 Y82.9782
G01 X86.4758 Y82.9859
G01 X86.4644 Y82.9961
G01 X86.4522 Y83.0053
G01 X86.4392 Y83.0134
G01 X86.4255 Y83.0202
G01 X86.4112 Y83.0257
G01 X86.3683 Y83.0381
G01 X86.3586 Y83.0406
G01 X86.3425 Y83.0433
G01 X86.3302 Y83.0444
G01 X86.3224 Y83.0446
G01 X86.2349 Y83.0444
G01 X86.2211 Y83.0433
G01 X86.2114 Y83.0419
G01 X86.1952 Y83.0381
G01 X86.1523 Y83.0257
G01 X86.1355 Y83.0190
G01 X86.1253 Y83.0139
G01 X86.1149 Y83.0077
G01 X86.1088 Y83.0035
G01 X86.0968 Y82.9941
G01 X86.0864 Y82.9845
G01 X86.0755 Y82.9723
G01 X85.8903 Y82.7295
G01 X85.6335 Y82.5307
G01 X85.3341 Y82.4078
G01 X85.0118 Y82.3653
G01 X84.6894 Y82.4078
G01 X84.3901 Y82.5307
G01 X84.1332 Y82.7295
G01 X83.9490 Y82.9711
G01 X83.9430 Y82.9782
G01 X83.9358 Y82.9859
G01 X83.9244 Y82.9961
G01 X83.9122 Y83.0053
G01 X83.8992 Y83.0134
G01 X83.8855 Y83.0202
G01 X83.8712 Y83.0257
G01 X83.8283 Y83.0381
G01 X83.8186 Y83.0406
G01 X83.8025 Y83.0433
G01 X83.7902 Y83.0444
G01 X83.7824 Y83.0446
G01 X83.6949 Y83.0444
G01 X83.6811 Y83.0433
G01 X83.6714 Y83.0419
G01 X83.6552 Y83.0381
G01 X83.6123 Y83.0257
G01 X83.5955 Y83.0190
G01 X83.5853 Y83.0139
G01 X83.5749 Y83.0077
G01 X83.5688 Y83.0035
G01 X83.5568 Y82.9941
G01 X83.5464 Y82.9845
G01 X83.5355 Y82.9723
G01 X83.3503 Y82.7295
G01 X83.0935 Y82.5307
G01 X82.7941 Y82.4078
G01 X82.4718 Y82.3653
G01 X82.1494 Y82.4078
G01 X81.8501 Y82.5307
G01 X81.5931 Y82.7296
G01 X81.3959 Y82.9872
G01 X81.2706 Y83.2871
G01 X81.2267 Y83.6199
G01 X81.2267 Y84.0983
G01 X81.2706 Y84.4311
G01 X81.3959 Y84.7310
G01 X81.5928 Y84.9883
G01 X81.8501 Y85.1852
G01 X82.1499 Y85.3105
G01 X82.4718 Y85.3529
G01 X82.7936 Y85.3105
G01 X83.0935 Y85.1852
G01 X83.3506 Y84.9884
G01 X83.5345 Y84.7472
G01 X83.5405 Y84.7401
G01 X83.5478 Y84.7324
G01 X83.5591 Y84.7221
G01 X83.5713 Y84.7129
G01 X83.5844 Y84.7049
G01 X83.5981 Y84.6981
G01 X83.6123 Y84.6925
G01 X83.6552 Y84.6801
G01 X83.6649 Y84.6777
G01 X83.6811 Y84.6749
G01 X83.6934 Y84.6738
G01 X83.7011 Y84.6737
G01 X83.7886 Y84.6738
G01 X83.8025 Y84.6749
G01 X83.8121 Y84.6764
G01 X83.8283 Y84.6801
G01 X83.8639 Y84.6903
G01 X83.8741 Y84.6936
G01 X83.8855 Y84.6981
G01 X83.8955 Y84.7029
G01 X83.9060 Y84.7089
G01 X83.9147 Y84.7147
G01 X83.9244 Y84.7221
G01 X83.9335 Y84.7303
G01 X83.9409 Y84.7378
G01 X83.9490 Y84.7472
G01 X84.1329 Y84.9884
G01 X84.3901 Y85.1852
G01 X84.6899 Y85.3105
G01 X85.0118 Y85.3529
G01 X85.3336 Y85.3105
G01 X85.6335 Y85.1852
G01 X85.8906 Y84.9884
G01 X86.0745 Y84.7472
G01 X86.0805 Y84.7401
G01 X86.0878 Y84.7324
G01 X86.0991 Y84.7221
G01 X86.1113 Y84.7129
G01 X86.1244 Y84.7049
G01 X86.1381 Y84.6981
G01 X86.1523 Y84.6925
G01 X86.1952 Y84.6801
G01 X86.2049 Y84.6777
G01 X86.2211 Y84.6749
G01 X86.2334 Y84.6738
G01 X86.2411 Y84.6737
G01 X86.3286 Y84.6738
G01 X86.3425 Y84.6749
G01 X86.3521 Y84.6764
G01 X86.3683 Y84.6801
G01 X86.4039 Y84.6903
G01 X86.4141 Y84.6936
G01 X86.4255 Y84.6981
G01 X86.4355 Y84.7029
G01 X86.4460 Y84.7089
G01 X86.4547 Y84.7147
G01 X86.4644 Y84.7221
G01 X86.4735 Y84.7303
G01 X86.4809 Y84.7378
G01 X86.4890 Y84.7472
G01 X86.6729 Y84.9884
G01 X86.9301 Y85.1852
G01 X87.2299 Y85.3105
G01 X87.5518 Y85.3529
G01 X87.8736 Y85.3105
G01 X88.1735 Y85.1852
G01 X88.4306 Y84.9884
G01 X88.6145 Y84.7472
G01 X88.6205 Y84.7401
G01 X88.6278 Y84.7324
G01 X88.6391 Y84.7221
G01 X88.6513 Y84.7129
G01 X88.6644 Y84.7049
G01 X88.6781 Y84.6981
G01 X88.6923 Y84.6925
G01 X88.7352 Y84.6801
G01 X88.7449 Y84.6777
G01 X88.7611 Y84.6749
G01 X88.7734 Y84.6738
G01 X88.7796 Y84.6737
G01 X88.8686 Y84.6738
G01 X88.8825 Y84.6749
G01 X88.8921 Y84.6764
G01 X88.9083 Y84.6801
G01 X88.9439 Y84.6903
G01 X88.9541 Y84.6936
G01 X88.9655 Y84.6981
G01 X88.9755 Y84.7029
G01 X88.9860 Y84.7089
G01 X88.9947 Y84.7147
G01 X89.0044 Y84.7221
G01 X89.0135 Y84.7303
G01 X89.0209 Y84.7378
G01 X89.0290 Y84.7472
G01 X89.2129 Y84.9884
G01 X89.4701 Y85.1852
G01 X89.7699 Y85.3105
G01 X90.0918 Y85.3529
G01 X90.4136 Y85.3105
G01 X90.7135 Y85.1852
G01 X90.9706 Y84.9884
G01 X91.1545 Y84.7472
G01 X91.1605 Y84.7401
G01 X91.1678 Y84.7324
G01 X91.1791 Y84.7221
G01 X91.1913 Y84.7129
G01 X91.2044 Y84.7049
G01 X91.2181 Y84.6981
G01 X91.2323 Y84.6925
G01 X91.2752 Y84.6801
G01 X91.2849 Y84.6777
G01 X91.3011 Y84.6749
G01 X91.3134 Y84.6738
G01 X91.3196 Y84.6737
G01 X91.4086 Y84.6738
G01 X91.4225 Y84.6749
G01 X91.4321 Y84.6764
G01 X91.4483 Y84.6801
G01 X91.4839 Y84.6903
G01 X91.4941 Y84.6936
G01 X91.5055 Y84.6981
G01 X91.5155 Y84.7029
G01 X91.5260 Y84.7089
G01 X91.5347 Y84.7147
G01 X91.5444 Y84.7221
G01 X91.5535 Y84.7303
G01 X91.5609 Y84.7378
G01 X91.5690 Y84.7472
G01 X91.7529 Y84.9884
G01 X92.0101 Y85.1852
G01 X92.3099 Y85.3105
G01 X92.6318 Y85.3529
G01 X92.9536 Y85.3105
G01 X93.2535 Y85.1852
G01 X93.5106 Y84.9884
G01 X93.6945 Y84.7472
G01 X93.7005 Y84.7401
G01 X93.7078 Y84.7324
G01 X93.7191 Y84.7221
G01 X93.7313 Y84.7129
G01 X93.7444 Y84.7049
G01 X93.7581 Y84.6981
G01 X93.7723 Y84.6925
G01 X93.8227 Y84.6781
G01 X93.8379 Y84.6753
G01 X93.8549 Y84.6738
G01 X93.9440 Y84.6737
G01 X93.9533 Y84.6741
G01 X93.9690 Y84.6758
G01 X93.9868 Y84.6797
G01 X94.0312 Y84.6925
G01 X94.0480 Y84.6993
G01 X94.0582 Y84.7044
G01 X94.0686 Y84.7106
G01 X94.0747 Y84.7147
G01 X94.0868 Y84.7241
G01 X94.0971 Y84.7337
G01 X94.1080 Y84.7460
G01 X94.2929 Y84.9884
G01 X94.5501 Y85.1852
G01 X94.8499 Y85.3105
G01 X95.1718 Y85.3529
G01 X95.4935 Y85.3105
G01 X95.7412 Y85.2067
G01 X95.7535 Y85.2023
G01 X95.7616 Y85.1999
G01 X95.7713 Y85.1977
G01 X95.7804 Y85.1961
G01 X95.7929 Y85.1948
G01 X95.8026 Y85.1944
G01 X95.8126 Y85.1946
G01 X95.8248 Y85.1957
G01 X95.8405 Y85.1984
G01 X95.8518 Y85.2013
G01 X95.8597 Y85.2038
G01 X95.8765 Y85.2108
G01 X95.8890 Y85.2175
G01 X95.8958 Y85.2217
G01 X95.9072 Y85.2299
G01 X95.9164 Y85.2376
G01 X95.9238 Y85.2448
G01 X95.9314 Y85.2531
G01 X95.9426 Y85.2677
G01 X96.0189 Y85.3850
G01 X96.0253 Y85.3970
G01 X96.0306 Y85.4087
G01 X96.0348 Y85.4205
G01 X96.0373 Y85.4295
G01 X96.0409 Y85.4476
G01 X96.0424 Y85.4652
G01 X96.0420 Y85.4833
G01 X96.0406 Y85.4962
G01 X96.0392 Y85.5038
G01 X96.0373 Y85.5121
G01 X96.0346 Y85.5215
G01 X96.0316 Y85.5301
G01 X96.0273 Y85.5403
G01 X96.0185 Y85.5570
G01 X96.0095 Y85.5705
G01 X96.0003 Y85.5818
G01 X95.9935 Y85.5890
G01 X94.9637 Y86.6188
G01 X94.9538 Y86.6277
G01 X94.9448 Y86.6347
G01 X94.9326 Y86.6428
G01 X94.9207 Y86.6493
G01 X94.9058 Y86.6558
G01 X94.8973 Y86.6588
G01 X94.8873 Y86.6616
G01 X94.8705 Y86.6649
G01 X94.8548 Y86.6664
G01 X94.8466 Y86.6666
G01 X85.2340 Y86.6666
G01 X85.0638 Y86.6900
G01 X85.0045 Y86.7149
G01 X84.9128 Y86.7524
G01 X84.7767 Y86.8566
G01 X83.4663 Y88.1671
G01 X83.4592 Y88.1737
G01 X83.4494 Y88.1818
G01 X83.4399 Y88.1885
G01 X83.4323 Y88.1932
G01 X83.4211 Y88.1992
G01 X83.4078 Y88.2050
G01 X83.3960 Y88.2090
G01 X83.3868 Y88.2115
G01 X83.3758 Y88.2137
G01 X83.3607 Y88.2155
G01 X83.3441 Y88.2160
G01 X83.3345 Y88.2155
G01 X83.3206 Y88.2137
G01 X83.3048 Y88.2103
G01 X83.0416 Y88.1398
G01 X82.7170 Y88.1398
G01 X82.4041 Y88.2225
G01 X82.1224 Y88.3857
G01 X81.8942 Y88.6139
G01 X81.7307 Y88.8961
G01 X81.6458 Y89.2091
G01 X81.6458 Y89.5331
G01 X81.7167 Y89.7979
G01 X81.7202 Y89.8153
G01 X81.7214 Y89.8260
G01 X81.7219 Y89.8339
G01 X81.7216 Y89.8514
G01 X81.7197 Y89.8672
G01 X81.7163 Y89.8827
G01 X81.7115 Y89.8978
G01 X81.7053 Y89.9124
G01 X81.6977 Y89.9264
G01 X81.6888 Y89.9395
G01 X81.6790 Y89.9515
G01 X80.9900 Y90.6433
G01 X80.9787 Y90.6536
G01 X80.9693 Y90.6610
G01 X80.9563 Y90.6695
G01 X80.9441 Y90.6759
G01 X80.9384 Y90.6785
G01 X80.9252 Y90.6837
G01 X80.9157 Y90.6866
G01 X80.9036 Y90.6894
G01 X80.8919 Y90.6913
G01 X80.8817 Y90.6922
G01 X80.8719 Y90.6925
G01 X80.8599 Y90.6921
G01 X80.8493 Y90.6910
G01 X80.6072 Y90.6584
G01 X80.2856 Y90.7009
G01 X80.0031 Y90.8191
G01 X79.9921 Y90.8227
G01 X79.9829 Y90.8252
G01 X79.9704 Y90.8277
G01 X79.9571 Y90.8292
G01 X79.9465 Y90.8296
G01 X79.9350 Y90.8294
G01 X79.9215 Y90.8281
G01 X79.9063 Y90.8253
G01 X79.8553 Y90.8107
G01 X79.8413 Y90.8052
G01 X79.8325 Y90.8010
G01 X79.7533 Y90.7559
G01 X79.7455 Y90.7511
G01 X79.7353 Y90.7437
G01 X79.7242 Y90.7343
G01 X79.7147 Y90.7248
G01 X79.6896 Y90.6969
G01 X79.6788 Y90.6834
G01 X79.6731 Y90.6748
G01 X79.6680 Y90.6660
G01 X79.6599 Y90.6489
G01 X79.6544 Y90.6331
G01 X79.6506 Y90.6169
G01 X79.6090 Y90.3099
G01 X79.4860 Y90.0103
G01 X79.2871 Y89.7533
G01 X79.0295 Y89.5562
G01 X78.7296 Y89.4309
G01 X78.4078 Y89.3884
G01 X78.0860 Y89.4309
G01 X77.8034 Y89.5491
G01 X77.7925 Y89.5527
G01 X77.7832 Y89.5552
G01 X77.7707 Y89.5577
G01 X77.7575 Y89.5592
G01 X77.7468 Y89.5596
G01 X77.7386 Y89.5596
G01 X77.7258 Y89.5585
G01 X77.7168 Y89.5573
G01 X77.7067 Y89.5553
G01 X77.6989 Y89.5532
G01 X77.6633 Y89.5431
G01 X77.6506 Y89.5388
G01 X77.6379 Y89.5335
G01 X77.6263 Y89.5275
G01 X77.5537 Y89.4859
G01 X77.5459 Y89.4811
G01 X77.5332 Y89.4718
G01 X77.5245 Y89.4643
G01 X77.5151 Y89.4548
G01 X77.4899 Y89.4269
G01 X77.4812 Y89.4161
G01 X77.4735 Y89.4048
G01 X77.4661 Y89.3917
G01 X77.4603 Y89.3789
G01 X77.4558 Y89.3663
G01 X77.4521 Y89.3525
G01 X77.4498 Y89.3397
G01 X77.4093 Y89.0399
G01 X77.2864 Y88.7403
G01 X77.0875 Y88.4833
G01 X76.8298 Y88.2862
G01 X76.5300 Y88.1609
G01 X76.2081 Y88.1184
G01 X75.8864 Y88.1609
G01 X75.6082 Y88.2773
G01 X75.5960 Y88.2818
G01 X75.5869 Y88.2844
G01 X75.5735 Y88.2872
G01 X75.5660 Y88.2883
G01 X75.5551 Y88.2894
G01 X75.5439 Y88.2897
G01 X75.5357 Y88.2894
G01 X75.5204 Y88.2878
G01 X75.5096 Y88.2858
G01 X75.5008 Y88.2837
G01 X75.4541 Y88.2700
G01 X75.4383 Y88.2635
G01 X75.4283 Y88.2584
G01 X75.3556 Y88.2169
G01 X75.3433 Y88.2090
G01 X75.3320 Y88.2006
G01 X75.3204 Y88.1900
G01 X75.2860 Y88.1518
G01 X75.2796 Y88.1434
G01 X75.2721 Y88.1319
G01 X75.2664 Y88.1217
G01 X75.2594 Y88.1057
G01 X75.2552 Y88.0931
G01 X75.2532 Y88.0858
G01 X75.2501 Y88.0697
G01 X75.2097 Y87.7699
G01 X75.0867 Y87.4703
G01 X74.8878 Y87.2133
G01 X74.6302 Y87.0162
G01 X74.3303 Y86.8909
G01 X74.0085 Y86.8484
G01 X73.6867 Y86.8909
G01 X73.3868 Y87.0162
G01 X73.1295 Y87.2131
G01 X72.9260 Y87.4790
G01 X72.6856 Y87.8942
G01 X72.5584 Y88.2041
G01 X72.5159 Y88.5239
G01 X72.5585 Y88.8462
G01 X72.6815 Y89.1459
G01 X72.8805 Y89.4053
G01 X73.1374 Y89.6019
G01 X73.4372 Y89.7249
G01 X73.7596 Y89.7675
G01 X74.0819 Y89.7249
G01 X74.3591 Y89.6112
G01 X74.3669 Y89.6083
G01 X74.3779 Y89.6048
G01 X74.3942 Y89.6012
G01 X74.4036 Y89.5999
G01 X74.4194 Y89.5988
G01 X74.4341 Y89.5991
G01 X74.4515 Y89.6013
G01 X74.4931 Y89.6101
G01 X74.5044 Y89.6129
G01 X74.5152 Y89.6164
G01 X74.5229 Y89.6194
G01 X74.5331 Y89.6242
G01 X74.5415 Y89.6286
G01 X74.6168 Y89.6734
G01 X74.6292 Y89.6821
G01 X74.6377 Y89.6893
G01 X74.6448 Y89.6960
G01 X74.6713 Y89.7225
G01 X74.6832 Y89.7359
G01 X74.6887 Y89.7433
G01 X74.6943 Y89.7518
G01 X74.7016 Y89.7649
G01 X74.7055 Y89.7732
G01 X74.7092 Y89.7826
G01 X74.7130 Y89.7944
G01 X74.7171 Y89.8131
G01 X74.7580 Y90.1160
G01 X74.8811 Y90.4159
G01 X75.0801 Y90.6753
G01 X75.3371 Y90.8719
G01 X75.6368 Y90.9949
G01 X75.9592 Y91.0375
G01 X76.2816 Y90.9949
G01 X76.5603 Y90.8806
G01 X76.5685 Y90.8776
G01 X76.5813 Y90.8738
G01 X76.5998 Y90.8702
G01 X76.6156 Y90.8689
G01 X76.6290 Y90.8689
G01 X76.6371 Y90.8694
G01 X76.6490 Y90.8709
G01 X76.6971 Y90.8811
G01 X76.7141 Y90.8862
G01 X76.7300 Y90.8929
G01 X76.7391 Y90.8975
G01 X76.8118 Y90.9390
G01 X76.8211 Y90.9448
G01 X76.8313 Y90.9522
G01 X76.8424 Y90.9615
G01 X76.8519 Y90.9710
G01 X76.8770 Y90.9990
G01 X76.8878 Y91.0125
G01 X76.8952 Y91.0239
G01 X76.9009 Y91.0342
G01 X76.9079 Y91.0502
G01 X76.9122 Y91.0627
G01 X76.9141 Y91.0701
G01 X76.9172 Y91.0862
G01 X76.9577 Y91.3860
G01 X77.0807 Y91.6859
G01 X77.2798 Y91.9453
G01 X77.5367 Y92.1419
G01 X77.8365 Y92.2649
G01 X78.1588 Y92.3075
G01 X78.4812 Y92.2649
G01 X78.7599 Y92.1506
G01 X78.7681 Y92.1476
G01 X78.7809 Y92.1438
G01 X78.7995 Y92.1402
G01 X78.8153 Y92.1389
G01 X78.8286 Y92.1389
G01 X78.8367 Y92.1394
G01 X78.8486 Y92.1409
G01 X78.8968 Y92.1511
G01 X78.9138 Y92.1562
G01 X78.9296 Y92.1629
G01 X78.9388 Y92.1675
G01 X79.0114 Y92.2090
G01 X79.0207 Y92.2148
G01 X79.0310 Y92.2222
G01 X79.0421 Y92.2315
G01 X79.0515 Y92.2410
G01 X79.0767 Y92.2690
G01 X79.0874 Y92.2825
G01 X79.0949 Y92.2939
G01 X79.1005 Y92.3042
G01 X79.1075 Y92.3202
G01 X79.1118 Y92.3327
G01 X79.1137 Y92.3401
G01 X79.1168 Y92.3562
G01 X79.1573 Y92.6560
G01 X79.2804 Y92.9559
G01 X79.4794 Y93.2153
G01 X79.7363 Y93.4119
G01 X80.0361 Y93.5349
G01 X80.3585 Y93.5775
G01 X80.6809 Y93.5349
G01 X80.9580 Y93.4212
G01 X80.9658 Y93.4183
G01 X80.9768 Y93.4148
G01 X80.9931 Y93.4112
G01 X81.0025 Y93.4099
G01 X81.0183 Y93.4088
G01 X81.0330 Y93.4091
G01 X81.0504 Y93.4113
G01 X81.0920 Y93.4201
G01 X81.1037 Y93.4231
G01 X81.1201 Y93.4288
G01 X81.1324 Y93.4343
G01 X81.1399 Y93.4384
G01 X81.2171 Y93.4827
G01 X81.2306 Y93.4922
G01 X81.2390 Y93.4991
G01 X81.2462 Y93.5059
G01 X81.2524 Y93.5123
G01 X81.2818 Y93.5455
G01 X81.2896 Y93.5562
G01 X81.2945 Y93.5639
G01 X81.3002 Y93.5742
G01 X81.3049 Y93.5845
G01 X81.3114 Y93.6027
G01 X81.3142 Y93.6134
G01 X81.3162 Y93.6245
G01 X81.3569 Y93.9260
G01 X81.4800 Y94.2259
G01 X81.6791 Y94.4853
G01 X81.9360 Y94.6819
G01 X82.2358 Y94.8049
G01 X82.5581 Y94.8475
G01 X82.8805 Y94.8049
G01 X83.1576 Y94.6912
G01 X83.1654 Y94.6883
G01 X83.1764 Y94.6848
G01 X83.1928 Y94.6812
G01 X83.2021 Y94.6799
G01 X83.2179 Y94.6788
G01 X83.2326 Y94.6791
G01 X83.2501 Y94.6813
G01 X83.2916 Y94.6901
G01 X83.3033 Y94.6931
G01 X83.3198 Y94.6988
G01 X83.3320 Y94.7043
G01 X83.3396 Y94.7084
G01 X83.4122 Y94.7499
G01 X83.4230 Y94.7568
G01 X83.4342 Y94.7653
G01 X83.4414 Y94.7715
G01 X83.4508 Y94.7810
G01 X83.4792 Y94.8128
G01 X83.4901 Y94.8275
G01 X83.4989 Y94.8425
G01 X83.5056 Y94.8570
G01 X83.5101 Y94.8695
G01 X83.5138 Y94.8834
G01 X83.5159 Y94.8945
G01 X83.5566 Y95.1960
G01 X83.6797 Y95.4959
G01 X83.8787 Y95.7553
G01 X84.1356 Y95.9519
G01 X84.4354 Y96.0749
G01 X84.7578 Y96.1175
G01 X85.0801 Y96.0749
G01 X85.3635 Y95.9588
G01 X85.3761 Y95.9548
G01 X85.3924 Y95.9512
G01 X85.4018 Y95.9499
G01 X85.4142 Y95.9489
G01 X85.4323 Y95.9491
G01 X85.4497 Y95.9513
G01 X85.4957 Y95.9611
G01 X85.5030 Y95.9631
G01 X85.5160 Y95.9674
G01 X85.5286 Y95.9729
G01 X85.5377 Y95.9775
G01 X85.6103 Y96.0190
G01 X85.6197 Y96.0248
G01 X85.6299 Y96.0322
G01 X85.6410 Y96.0415
G01 X85.6504 Y96.0510
G01 X85.6756 Y96.0790
G01 X85.6863 Y96.0925
G01 X85.6938 Y96.1039
G01 X85.6995 Y96.1142
G01 X85.7064 Y96.1302
G01 X85.7107 Y96.1427
G01 X85.7127 Y96.1501
G01 X85.7158 Y96.1662
G01 X85.7562 Y96.4660
G01 X85.8793 Y96.7659
G01 X86.0783 Y97.0253
G01 X86.3353 Y97.2219
G01 X86.6350 Y97.3449
G01 X86.9574 Y97.3875
G01 X87.2798 Y97.3449
G01 X87.5795 Y97.2219
G01 X87.8361 Y97.0256
G01 X88.0398 Y96.7570
G01 X88.2803 Y96.3440
G01 X88.4074 Y96.0344
G01 X88.4500 Y95.7115
G01 X88.4197 Y95.4686
G01 X88.4187 Y95.4565
G01 X88.4184 Y95.4433
G01 X88.4187 Y95.4375
G01 X88.4198 Y95.4265
G01 X88.4222 Y95.4122
G01 X88.4253 Y95.4003
G01 X88.4291 Y95.3890
G01 X88.4337 Y95.3780
G01 X88.4396 Y95.3665
G01 X88.4454 Y95.3567
G01 X88.4519 Y95.3475
G01 X88.4604 Y95.3371
G01 X88.4673 Y95.3297
G01 X91.2664 Y92.5281
