(G-CODE GENERATED BY FLATCAM v8.991 - www.flatcam.org - Version Date: 2019/12/30)

(Name: Cncjob_Top_Copper_straightend)
(Type: G-code from Geometry)
(Units: MM)

(Created on Monday, 13 November 2023 at 17:34)

(TOOL DIAMETER: 1.5 mm)
(Feedrate: 1250.0 mm/min)
(Feedrate_Z: 250.0 mm/min)
(Feedrate rapids 1500.0 mm/min)

(Z_Cut: -0.04 mm)
(Z_Move: 0.5 mm)
(Z Toolchange: 15.0 mm)
(X,Y Toolchange: 0.0000, 0.0000 mm)
(Z Start: 0.5 mm)
(Z End: 2.0 mm)
(Steps per circle: 64)
(Preprocessor Geometry: default)

(X range:    2.0995 ...  112.0324  mm)
(Y range:    2.0995 ...  129.0250  mm)

(Spindle Speed: None RPM)
G21
G90
G94




G01 F1250.00
G00 Z0.5000
G00 Z0.5000
M03
G4 P1.0
G00 X2.9490 Y2.9490
G01 F250.00
G01 Z-0.0400
G01 F1250.00
G01 X2.9490 Y11.7745
G01 X5.5417 Y10.2955
G01 X5.5805 Y10.2746
G01 X5.6118 Y10.2595
G01 X5.6287 Y10.2519
G01 X5.6607 Y10.2383
G01 X5.6933 Y10.2261
G01 X5.7108 Y10.2201
G01 X5.7439 Y10.2095
G01 X5.7775 Y10.2005
G01 X5.7955 Y10.1961
G01 X5.8295 Y10.1886
G01 X5.8638 Y10.1827
G01 X5.8820 Y10.1800
G01 X5.9166 Y10.1757
G01 X5.9513 Y10.1730
G01 X5.9697 Y10.1720
G01 X6.0045 Y10.1709
G01 X6.0393 Y10.1714
G01 X6.0578 Y10.1721
G01 X6.0925 Y10.1743
G01 X6.1271 Y10.1781
G01 X6.1454 Y10.1805
G01 X6.1798 Y10.1858
G01 X6.2139 Y10.1928
G01 X6.2319 Y10.1969
G01 X6.2657 Y10.2054
G01 X6.3078 Y10.2182
G01 X6.4704 Y10.2715
G01 X6.5124 Y10.2864
G01 X6.5450 Y10.2997
G01 X6.5621 Y10.3072
G01 X6.5940 Y10.3220
G01 X6.6252 Y10.3383
G01 X6.6416 Y10.3473
G01 X6.6720 Y10.3651
G01 X6.7015 Y10.3842
G01 X6.7169 Y10.3947
G01 X6.7456 Y10.4153
G01 X6.7732 Y10.4371
G01 X6.7875 Y10.4490
G01 X6.8141 Y10.4721
G01 X6.8395 Y10.4965
G01 X6.8527 Y10.5097
G01 X6.8770 Y10.5352
G01 X6.9001 Y10.5618
G01 X6.9120 Y10.5762
G01 X6.9337 Y10.6039
G01 X6.9542 Y10.6325
G01 X6.9647 Y10.6480
G01 X6.9838 Y10.6776
G01 X7.0061 Y10.7161
G01 X18.4452 Y31.5269
G01 X29.1353 Y25.8483
G01 X17.2422 Y4.7068
G01 X17.2205 Y4.6659
G01 X17.2049 Y4.6327
G01 X17.1970 Y4.6149
G01 X17.1831 Y4.5810
G01 X17.1708 Y4.5464
G01 X17.1647 Y4.5279
G01 X17.1542 Y4.4928
G01 X17.1453 Y4.4572
G01 X17.1411 Y4.4382
G01 X17.1340 Y4.4023
G01 X17.1287 Y4.3660
G01 X17.1263 Y4.3467
G01 X17.1228 Y4.3102
G01 X17.1210 Y4.2736
G01 X17.1206 Y4.2541
G01 X17.1206 Y4.2175
G01 X17.1224 Y4.1808
G01 X17.1239 Y4.1614
G01 X17.1275 Y4.1249
G01 X17.1329 Y4.0887
G01 X17.1362 Y4.0695
G01 X17.1434 Y4.0336
G01 X17.1523 Y3.9980
G01 X17.1575 Y3.9792
G01 X17.1681 Y3.9441
G01 X17.1805 Y3.9096
G01 X17.1874 Y3.8915
G01 X17.2015 Y3.8576
G01 X17.2171 Y3.8244
G01 X17.2258 Y3.8070
G01 X17.2431 Y3.7747
G01 X17.2619 Y3.7432
G01 X17.2723 Y3.7268
G01 X17.2926 Y3.6963
G01 X17.3144 Y3.6668
G01 X17.3264 Y3.6514
G01 X17.3496 Y3.6230
G01 X17.3741 Y3.5958
G01 X17.3875 Y3.5817
G01 X17.4134 Y3.5557
G01 X17.4405 Y3.5310
G01 X17.4552 Y3.5183
G01 X17.4835 Y3.4950
G01 X17.5129 Y3.4730
G01 X17.5287 Y3.4618
G01 X17.5592 Y3.4413
G01 X17.5989 Y3.4174
G01 X18.4195 Y2.9490
G01 X2.9490 Y2.9490
G01 X3.4590 Y3.4590
G01 X3.4590 Y10.8964
G01 X5.2890 Y9.8526
G01 X5.3146 Y9.8384
G01 X5.3434 Y9.8231
G01 X5.3592 Y9.8151
G01 X5.4013 Y9.7950
G01 X5.4290 Y9.7826
G01 X5.4610 Y9.7690
G01 X5.4830 Y9.7602
G01 X5.5156 Y9.7481
G01 X5.5554 Y9.7343
G01 X5.5886 Y9.7237
G01 X5.6113 Y9.7171
G01 X5.6449 Y9.7080
G01 X5.6743 Y9.7007
G01 X5.7198 Y9.6905
G01 X5.7430 Y9.6860
G01 X5.7890 Y9.6782
G01 X5.8190 Y9.6739
G01 X5.8536 Y9.6696
G01 X5.8771 Y9.6672
G01 X5.9118 Y9.6645
G01 X5.9539 Y9.6622
G01 X5.9887 Y9.6611
G01 X6.0123 Y9.6610
G01 X6.0590 Y9.6618
G01 X6.0892 Y9.6631
G01 X6.1240 Y9.6653
G01 X6.1476 Y9.6673
G01 X6.1822 Y9.6710
G01 X6.2239 Y9.6766
G01 X6.2583 Y9.6819
G01 X6.2816 Y9.6861
G01 X6.3157 Y9.6931
G01 X6.3568 Y9.7024
G01 X6.4077 Y9.7156
G01 X6.4389 Y9.7248
G01 X6.4668 Y9.7336
G01 X6.6294 Y9.7869
G01 X6.6662 Y9.7996
G01 X6.7051 Y9.8142
G01 X6.7487 Y9.8322
G01 X6.7767 Y9.8445
G01 X6.8087 Y9.8593
G01 X6.8301 Y9.8699
G01 X6.8719 Y9.8919
G01 X6.8986 Y9.9068
G01 X6.9291 Y9.9246
G01 X6.9494 Y9.9371
G01 X6.9890 Y9.9629
G01 X7.0142 Y9.9803
G01 X7.0428 Y10.0008
G01 X7.0619 Y10.0152
G01 X7.0895 Y10.0371
G01 X7.1223 Y10.0643
G01 X7.1489 Y10.0874
G01 X7.1666 Y10.1035
G01 X7.2006 Y10.1362
G01 X7.2221 Y10.1580
G01 X7.2464 Y10.1835
G01 X7.2625 Y10.2013
G01 X7.2933 Y10.2370
G01 X7.3127 Y10.2607
G01 X7.3345 Y10.2884
G01 X7.3488 Y10.3076
G01 X7.3693 Y10.3362
G01 X7.3932 Y10.3715
G01 X7.4218 Y10.4163
G01 X7.4385 Y10.4447
G01 X7.4531 Y10.4704
G01 X18.6500 Y30.8406
G01 X28.4347 Y25.6430
G01 X16.7977 Y4.9569
G01 X16.7755 Y4.9157
G01 X16.7588 Y4.8827
G01 X16.7381 Y4.8381
G01 X16.7254 Y4.8089
G01 X16.7114 Y4.7749
G01 X16.7025 Y4.7517
G01 X16.6862 Y4.7053
G01 X16.6764 Y4.6749
G01 X16.6658 Y4.6398
G01 X16.6592 Y4.6158
G01 X16.6475 Y4.5681
G01 X16.6407 Y4.5369
G01 X16.6336 Y4.5009
G01 X16.6294 Y4.4763
G01 X16.6224 Y4.4277
G01 X16.6187 Y4.3960
G01 X16.6152 Y4.3595
G01 X16.6134 Y4.3346
G01 X16.6112 Y4.2855
G01 X16.6106 Y4.2536
G01 X16.6106 Y4.2170
G01 X16.6113 Y4.1920
G01 X16.6139 Y4.1430
G01 X16.6164 Y4.1112
G01 X16.6200 Y4.0747
G01 X16.6231 Y4.0499
G01 X16.6304 Y4.0014
G01 X16.6360 Y3.9699
G01 X16.6432 Y3.9340
G01 X16.6487 Y3.9096
G01 X16.6608 Y3.8620
G01 X16.6694 Y3.8313
G01 X16.6800 Y3.7962
G01 X16.6879 Y3.7725
G01 X16.7045 Y3.7263
G01 X16.7162 Y3.6966
G01 X16.7302 Y3.6627
G01 X16.7403 Y3.6399
G01 X16.7614 Y3.5955
G01 X16.7758 Y3.5671
G01 X16.7931 Y3.5347
G01 X16.8053 Y3.5130
G01 X16.8242 Y3.4815
G01 X16.8382 Y3.4590
G01 X3.4590 Y3.4590
G01 X3.9690 Y3.9690
G01 X3.9690 Y10.0184
G01 X5.0467 Y9.4038
G01 X5.0908 Y9.3797
G01 X5.1379 Y9.3556
G01 X5.1908 Y9.3305
G01 X5.2238 Y9.3157
G01 X5.2613 Y9.2997
G01 X5.3052 Y9.2822
G01 X5.3546 Y9.2640
G01 X5.3944 Y9.2504
G01 X5.4445 Y9.2345
G01 X5.4786 Y9.2246
G01 X5.5294 Y9.2111
G01 X5.5704 Y9.2012
G01 X5.6217 Y9.1900
G01 X5.6566 Y9.1833
G01 X5.7084 Y9.1746
G01 X5.7501 Y9.1686
G01 X5.8023 Y9.1622
G01 X5.8376 Y9.1587
G01 X5.8960 Y9.1545
G01 X5.9380 Y9.1525
G01 X5.9728 Y9.1514
G01 X6.0083 Y9.1510
G01 X6.0727 Y9.1520
G01 X6.1207 Y9.1541
G01 X6.1555 Y9.1562
G01 X6.1909 Y9.1591
G01 X6.2431 Y9.1647
G01 X6.3025 Y9.1726
G01 X6.3369 Y9.1780
G01 X6.3718 Y9.1841
G01 X6.4234 Y9.1945
G01 X6.4760 Y9.2065
G01 X6.5412 Y9.2234
G01 X6.5951 Y9.2393
G01 X6.6258 Y9.2490
G01 X6.7884 Y9.3023
G01 X6.8249 Y9.3148
G01 X6.8727 Y9.3322
G01 X6.8978 Y9.3420
G01 X6.9359 Y9.3576
G01 X6.9859 Y9.3794
G01 X7.0341 Y9.4019
G01 X7.0663 Y9.4179
G01 X7.0975 Y9.4342
G01 X7.1349 Y9.4546
G01 X7.1861 Y9.4841
G01 X7.2269 Y9.5092
G01 X7.2764 Y9.5416
G01 X7.3065 Y9.5624
G01 X7.3400 Y9.5864
G01 X7.3783 Y9.6152
G01 X7.4245 Y9.6521
G01 X7.4526 Y9.6757
G01 X7.4837 Y9.7027
G01 X7.5191 Y9.7349
G01 X7.5616 Y9.7760
G01 X7.5874 Y9.8021
G01 X7.6158 Y9.8319
G01 X7.6480 Y9.8673
G01 X7.6865 Y9.9122
G01 X7.7134 Y9.9453
G01 X7.7352 Y9.9729
G01 X7.7568 Y10.0016
G01 X7.7981 Y10.0595
G01 X7.8185 Y10.0900
G01 X7.8409 Y10.1245
G01 X7.8551 Y10.1474
G01 X7.8703 Y10.1728
G01 X7.9000 Y10.2247
G01 X18.8547 Y30.1544
G01 X27.7340 Y25.4377
G01 X16.3532 Y5.2069
G01 X16.3369 Y5.1772
G01 X16.3137 Y5.1330
G01 X16.3013 Y5.1079
G01 X16.2790 Y5.0606
G01 X16.2635 Y5.0258
G01 X16.2537 Y5.0028
G01 X16.2352 Y4.9574
G01 X16.2219 Y4.9224
G01 X16.2096 Y4.8878
G01 X16.2016 Y4.8642
G01 X16.1899 Y4.8279
G01 X16.1775 Y4.7868
G01 X16.1674 Y4.7508
G01 X16.1554 Y4.7032
G01 X16.1497 Y4.6789
G01 X16.1416 Y4.6416
G01 X16.1310 Y4.5873
G01 X16.1248 Y4.5504
G01 X16.1186 Y4.5079
G01 X16.1138 Y4.4701
G01 X16.1111 Y4.4453
G01 X16.1076 Y4.4088
G01 X16.1047 Y4.3715
G01 X16.1020 Y4.3162
G01 X16.1009 Y4.2781
G01 X16.1006 Y4.2532
G01 X16.1008 Y4.2040
G01 X16.1019 Y4.1666
G01 X16.1041 Y4.1238
G01 X16.1072 Y4.0795
G01 X16.1125 Y4.0244
G01 X16.1169 Y3.9873
G01 X16.1195 Y3.9690
G01 X3.9690 Y3.9690
G01 X4.4790 Y4.4790
G01 X4.4790 Y9.1403
G01 X4.7836 Y8.9666
G01 X4.8247 Y8.9437
G01 X4.8691 Y8.9201
G01 X4.9008 Y8.9040
G01 X4.9507 Y8.8797
G01 X4.9802 Y8.8660
G01 X5.0268 Y8.8452
G01 X5.0835 Y8.8214
G01 X5.1275 Y8.8042
G01 X5.1908 Y8.7810
G01 X5.2419 Y8.7637
G01 X5.3005 Y8.7453
G01 X5.3460 Y8.7322
G01 X5.4111 Y8.7150
G01 X5.4636 Y8.7025
G01 X5.5237 Y8.6895
G01 X5.5644 Y8.6817
G01 X5.6045 Y8.6748
G01 X5.6578 Y8.6665
G01 X5.7275 Y8.6574
G01 X5.7746 Y8.6524
G01 X5.8417 Y8.6469
G01 X5.8956 Y8.6438
G01 X5.9629 Y8.6415
G01 X6.0103 Y8.6410
G01 X6.0746 Y8.6419
G01 X6.1404 Y8.6444
G01 X6.2047 Y8.6485
G01 X6.2518 Y8.6526
G01 X6.3188 Y8.6601
G01 X6.3810 Y8.6687
G01 X6.4212 Y8.6750
G01 X6.4620 Y8.6822
G01 X6.5223 Y8.6942
G01 X6.5836 Y8.7079
G01 X6.6576 Y8.7265
G01 X6.7128 Y8.7420
G01 X6.7693 Y8.7594
G01 X6.9474 Y8.8178
G01 X6.9867 Y8.8311
G01 X7.0402 Y8.8503
G01 X7.0863 Y8.8681
G01 X7.1479 Y8.8935
G01 X7.2033 Y8.9180
G01 X7.2542 Y8.9418
G01 X7.3024 Y8.9658
G01 X7.3574 Y8.9948
G01 X7.4128 Y9.0259
G01 X7.4484 Y9.0467
G01 X7.4841 Y9.0685
G01 X7.5339 Y9.1005
G01 X7.5866 Y9.1360
G01 X7.6373 Y9.1720
G01 X7.6899 Y9.2115
G01 X7.7409 Y9.2521
G01 X7.7851 Y9.2890
G01 X7.8319 Y9.3299
G01 X7.8715 Y9.3664
G01 X7.9226 Y9.4158
G01 X7.9609 Y9.4548
G01 X7.9893 Y9.4846
G01 X8.0176 Y9.5155
G01 X8.0624 Y9.5668
G01 X8.0992 Y9.6111
G01 X8.1396 Y9.6622
G01 X8.1790 Y9.7149
G01 X8.2064 Y9.7534
G01 X8.2305 Y9.7885
G01 X8.2718 Y9.8518
G01 X8.2908 Y9.8823
G01 X8.3099 Y9.9141
G01 X8.3273 Y9.9442
G01 X8.3469 Y9.9791
G01 X19.0595 Y29.4681
G01 X27.0334 Y25.2324
G01 X15.9019 Y5.4447
G01 X15.8716 Y5.3885
G01 X15.8437 Y5.3331
G01 X15.8161 Y5.2746
G01 X15.7917 Y5.2198
G01 X15.7658 Y5.1571
G01 X15.7478 Y5.1106
G01 X15.7250 Y5.0467
G01 X15.7109 Y5.0046
G01 X15.7024 Y4.9779
G01 X15.6839 Y4.9159
G01 X15.6709 Y4.8678
G01 X15.6540 Y4.7988
G01 X15.6406 Y4.7372
G01 X15.6295 Y4.6798
G01 X15.6202 Y4.6244
G01 X15.6103 Y4.5542
G01 X15.6061 Y4.5194
G01 X15.6020 Y4.4790
G01 X4.4790 Y4.4790
G01 X4.9890 Y4.9890
G01 X4.9890 Y8.3116
G01 X5.0444 Y8.2920
G01 X5.0894 Y8.2770
G01 X5.1480 Y8.2586
G01 X5.2105 Y8.2405
G01 X5.2756 Y8.2232
G01 X5.3280 Y8.2104
G01 X5.3995 Y8.1944
G01 X5.4605 Y8.1823
G01 X5.5297 Y8.1702
G01 X5.5845 Y8.1618
G01 X5.6300 Y8.1556
G01 X5.6998 Y8.1473
G01 X5.7558 Y8.1420
G01 X5.8274 Y8.1368
G01 X5.8886 Y8.1336
G01 X5.9530 Y8.1316
G01 X6.0122 Y8.1310
G01 X6.0869 Y8.1320
G01 X6.1497 Y8.1342
G01 X6.2184 Y8.1382
G01 X6.2539 Y8.1408
G01 X6.3128 Y8.1462
G01 X6.3812 Y8.1540
G01 X6.4435 Y8.1624
G01 X6.5056 Y8.1721
G01 X6.5610 Y8.1818
G01 X6.6328 Y8.1963
G01 X6.6870 Y8.2083
G01 X6.7653 Y8.2275
G01 X6.8103 Y8.2395
G01 X6.8669 Y8.2558
G01 X6.9220 Y8.2728
G01 X7.1227 Y8.3386
G01 X7.1772 Y8.3575
G01 X7.2225 Y8.3740
G01 X7.2769 Y8.3951
G01 X7.3434 Y8.4225
G01 X7.3934 Y8.4443
G01 X7.4526 Y8.4715
G01 X7.5145 Y8.5015
G01 X7.5697 Y8.5301
G01 X7.6119 Y8.5528
G01 X7.6660 Y8.5832
G01 X7.7209 Y8.6154
G01 X7.7718 Y8.6469
G01 X7.8264 Y8.6824
G01 X7.8815 Y8.7198
G01 X7.9418 Y8.7628
G01 X7.9897 Y8.7987
G01 X8.0480 Y8.8445
G01 X8.0914 Y8.8801
G01 X8.1176 Y8.9023
G01 X8.1555 Y8.9352
G01 X8.1978 Y8.9732
G01 X8.2495 Y9.0221
G01 X8.2826 Y9.0545
G01 X8.3261 Y9.0988
G01 X8.3770 Y9.1527
G01 X8.4170 Y9.1972
G01 X8.4643 Y9.2523
G01 X8.5065 Y9.3038
G01 X8.5513 Y9.3609
G01 X8.5871 Y9.4089
G01 X8.6249 Y9.4620
G01 X8.6690 Y9.5269
G01 X8.7123 Y9.5943
G01 X8.7323 Y9.6268
G01 X8.7536 Y9.6625
G01 X8.7935 Y9.7328
G01 X19.2643 Y28.7819
G01 X26.3327 Y25.0271
G01 X15.4608 Y5.7009
G01 X15.4389 Y5.6609
G01 X15.4183 Y5.6220
G01 X15.3975 Y5.5814
G01 X15.3770 Y5.5394
G01 X15.3512 Y5.4844
G01 X15.3299 Y5.4367
G01 X15.3128 Y5.3966
G01 X15.2929 Y5.3482
G01 X15.2737 Y5.2989
G01 X15.2618 Y5.2667
G01 X15.2428 Y5.2130
G01 X15.2263 Y5.1635
G01 X15.2132 Y5.1219
G01 X15.1981 Y5.0719
G01 X15.1838 Y5.0209
G01 X15.1755 Y4.9890
G01 X4.9890 Y4.9890
G01 X5.4990 Y5.4994
G01 X5.4990 Y7.6589
G01 X5.5589 Y7.6505
G01 X5.6324 Y7.6416
G01 X5.6898 Y7.6358
G01 X5.7606 Y7.6301
G01 X5.8130 Y7.6267
G01 X5.8817 Y7.6235
G01 X5.9549 Y7.6214
G01 X6.0126 Y7.6210
G01 X6.0844 Y7.6218
G01 X6.1376 Y7.6233
G01 X6.2004 Y7.6262
G01 X6.2809 Y7.6313
G01 X6.3502 Y7.6374
G01 X6.4172 Y7.6446
G01 X6.4824 Y7.6528
G01 X6.5374 Y7.6608
G01 X6.6017 Y7.6710
G01 X6.6556 Y7.6807
G01 X6.7252 Y7.6946
G01 X6.7751 Y7.7053
G01 X6.8363 Y7.7196
G01 X6.9031 Y7.7364
G01 X6.9631 Y7.7527
G01 X7.0195 Y7.7691
G01 X7.0944 Y7.7925
G01 X7.2682 Y7.8495
G01 X7.3203 Y7.8672
G01 X7.3672 Y7.8838
G01 X7.4037 Y7.8973
G01 X7.4425 Y7.9122
G01 X7.5085 Y7.9387
G01 X7.5609 Y7.9608
G01 X7.6217 Y7.9878
G01 X7.6822 Y8.0158
G01 X7.7360 Y8.0421
G01 X7.7746 Y8.0617
G01 X7.8448 Y8.0988
G01 X7.9062 Y8.1330
G01 X7.9625 Y8.1658
G01 X8.0188 Y8.1999
G01 X8.0593 Y8.2255
G01 X8.1195 Y8.2648
G01 X8.1720 Y8.3006
G01 X8.2366 Y8.3466
G01 X8.2895 Y8.3859
G01 X8.3274 Y8.4152
G01 X8.3900 Y8.4652
G01 X8.4433 Y8.5098
G01 X8.4914 Y8.5514
G01 X8.5238 Y8.5803
G01 X8.5732 Y8.6261
G01 X8.6277 Y8.6785
G01 X8.6726 Y8.7235
G01 X8.7250 Y8.7780
G01 X8.7555 Y8.8109
G01 X8.7956 Y8.8554
G01 X8.8430 Y8.9104
G01 X8.8818 Y8.9569
G01 X8.9151 Y8.9983
G01 X8.9584 Y9.0538
G01 X8.9987 Y9.1078
G01 X9.0400 Y9.1656
G01 X9.0756 Y9.2174
G01 X9.1041 Y9.2604
G01 X9.1433 Y9.3216
G01 X9.1674 Y9.3607
G01 X9.1925 Y9.4029
G01 X9.2154 Y9.4424
G01 X9.2406 Y9.4874
G01 X19.4690 Y28.0956
G01 X25.6321 Y24.8218
G01 X15.0182 Y5.9544
G01 X14.9901 Y5.9031
G01 X14.9636 Y5.8532
G01 X14.9389 Y5.8046
G01 X14.9128 Y5.7510
G01 X14.8811 Y5.6827
G01 X14.8569 Y5.6279
G01 X14.8248 Y5.5509
G01 X14.8071 Y5.5065
G01 X5.4990 Y5.4994
G01 X6.0090 Y6.0100
G01 X6.0090 Y7.1110
G01 X6.0893 Y7.1118
G01 X6.1466 Y7.1133
G01 X6.2171 Y7.1163
G01 X6.2822 Y7.1202
G01 X6.3345 Y7.1240
G01 X6.3994 Y7.1298
G01 X6.4660 Y7.1369
G01 X6.5174 Y7.1431
G01 X6.5885 Y7.1527
G01 X6.6569 Y7.1633
G01 X6.7065 Y7.1716
G01 X6.7683 Y7.1830
G01 X6.8350 Y7.1965
G01 X6.8911 Y7.2087
G01 X6.9555 Y7.2237
G01 X7.0199 Y7.2398
G01 X7.0800 Y7.2558
G01 X7.1346 Y7.2713
G01 X7.1873 Y7.2871
G01 X7.2414 Y7.3041
G01 X7.4577 Y7.3752
G01 X7.5276 Y7.3995
G01 X7.5976 Y7.4253
G01 X7.6540 Y7.4474
G01 X7.7205 Y7.4745
G01 X7.7670 Y7.4943
G01 X7.8306 Y7.5225
G01 X7.8901 Y7.5500
G01 X7.9359 Y7.5720
G01 X7.9948 Y7.6015
G01 X8.0605 Y7.6358
G01 X8.1216 Y7.6690
G01 X8.1682 Y7.6953
G01 X8.2299 Y7.7314
G01 X8.2868 Y7.7660
G01 X8.3311 Y7.7939
G01 X8.3901 Y7.8323
G01 X8.4450 Y7.8694
G01 X8.4907 Y7.9013
G01 X8.5466 Y7.9415
G01 X8.5982 Y7.9799
G01 X8.6385 Y8.0110
G01 X8.6936 Y8.0548
G01 X8.7447 Y8.0968
G01 X8.7881 Y8.1336
G01 X8.8391 Y8.1781
G01 X8.8874 Y8.2217
G01 X8.9268 Y8.2585
G01 X8.9845 Y8.3141
G01 X9.0263 Y8.3558
G01 X9.0660 Y8.3966
G01 X9.1097 Y8.4428
G01 X9.1557 Y8.4930
G01 X9.1884 Y8.5300
G01 X9.2401 Y8.5901
G01 X9.2779 Y8.6356
G01 X9.3135 Y8.6799
G01 X9.3528 Y8.7300
G01 X9.3939 Y8.7843
G01 X9.4230 Y8.8242
G01 X9.4695 Y8.8899
G01 X9.5028 Y8.9387
G01 X9.5351 Y8.9877
G01 X9.5728 Y9.0465
G01 X9.6095 Y9.1062
G01 X9.6489 Y9.1732
G01 X9.6873 Y9.2414
G01 X19.6738 Y27.4094
G01 X24.9314 Y24.6165
G01 X14.5752 Y6.2071
G01 X14.5465 Y6.1550
G01 X14.5235 Y6.1121
G01 X14.4973 Y6.0617
G01 X14.4765 Y6.0200
G01 X6.0090 Y6.0100
G01 X6.5190 Y6.5206
G01 X6.5190 Y6.6296
G01 X6.5853 Y6.6376
G01 X6.6600 Y6.6478
G01 X6.7398 Y6.6600
G01 X6.7992 Y6.6701
G01 X6.8709 Y6.6834
G01 X6.9520 Y6.6999
G01 X7.0293 Y6.7171
G01 X7.0955 Y6.7329
G01 X7.1612 Y6.7496
G01 X7.2244 Y6.7666
G01 X7.2908 Y6.7856
G01 X7.3520 Y6.8042
G01 X7.4154 Y6.8243
G01 X7.5975 Y6.8841
G01 X7.6640 Y6.9068
G01 X7.7247 Y6.9285
G01 X7.7809 Y6.9494
G01 X7.8426 Y6.9735
G01 X7.9132 Y7.0023
G01 X7.9704 Y7.0266
G01 X8.0367 Y7.0560
G01 X8.1071 Y7.0885
G01 X8.1584 Y7.1131
G01 X8.2240 Y7.1458
G01 X8.2906 Y7.1805
G01 X8.3479 Y7.2114
G01 X8.4132 Y7.2480
G01 X8.4790 Y7.2862
G01 X8.5293 Y7.3164
G01 X8.5900 Y7.3541
G01 X8.6544 Y7.3957
G01 X8.7042 Y7.4289
G01 X8.7474 Y7.4584
G01 X8.7866 Y7.4859
G01 X8.8357 Y7.5211
G01 X8.8779 Y7.5521
G01 X8.9184 Y7.5828
G01 X8.9539 Y7.6103
G01 X9.0070 Y7.6524
G01 X9.0511 Y7.6883
G01 X9.0872 Y7.7184
G01 X9.1237 Y7.7495
G01 X9.1720 Y7.7916
G01 X9.2110 Y7.8266
G01 X9.2605 Y7.8722
G01 X9.3069 Y7.9163
G01 X9.3449 Y7.9533
G01 X9.3810 Y7.9892
G01 X9.4208 Y8.0298
G01 X9.4679 Y8.0791
G01 X9.4985 Y8.1119
G01 X9.5335 Y8.1504
G01 X9.5675 Y8.1887
G01 X9.6077 Y8.2351
G01 X9.6386 Y8.2716
G01 X9.6725 Y8.3125
G01 X9.7078 Y8.3562
G01 X9.7460 Y8.4047
G01 X9.7761 Y8.4439
G01 X9.8077 Y8.4861
G01 X9.8348 Y8.5233
G01 X9.8741 Y8.5785
G01 X9.9014 Y8.6178
G01 X9.9307 Y8.6611
G01 X9.9571 Y8.7011
G01 X9.9882 Y8.7493
G01 X10.0334 Y8.8217
G01 X10.0611 Y8.8677
G01 X10.0856 Y8.9096
G01 X10.1340 Y8.9953
G01 X19.8785 Y26.7231
G01 X24.2308 Y24.4112
G01 X14.1715 Y6.5296
G01 X6.5190 Y6.5206
G01 X9.0297 Y7.0336
G01 X9.0803 Y7.0689
G01 X9.1338 Y7.1073
G01 X9.1736 Y7.1365
G01 X9.2185 Y7.1702
G01 X9.2594 Y7.2017
G01 X9.3136 Y7.2445
G01 X9.3556 Y7.2784
G01 X9.3942 Y7.3103
G01 X9.4649 Y7.3704
G01 X9.5121 Y7.4115
G01 X9.5544 Y7.4495
G01 X9.5919 Y7.4839
G01 X9.6296 Y7.5192
G01 X9.6797 Y7.5674
G01 X9.7237 Y7.6106
G01 X9.7609 Y7.6481
G01 X9.7984 Y7.6867
G01 X9.8418 Y7.7323
G01 X9.8800 Y7.7734
G01 X9.9193 Y7.8167
G01 X9.9510 Y7.8525
G01 X9.9936 Y7.9017
G01 X10.0296 Y7.9441
G01 X10.0654 Y7.9873
G01 X10.0993 Y8.0292
G01 X10.1428 Y8.0842
G01 X10.1743 Y8.1251
G01 X10.2103 Y8.1729
G01 X10.2387 Y8.2115
G01 X10.2785 Y8.2671
G01 X10.3069 Y8.3075
G01 X10.3460 Y8.3647
G01 X10.3782 Y8.4133
G01 X10.4211 Y8.4797
G01 X10.4552 Y8.5339
G01 X10.4841 Y8.5813
G01 X10.5176 Y8.6379
G01 X10.5462 Y8.6875
G01 X10.5797 Y8.7473
G01 X20.0833 Y26.0369
G01 X23.5301 Y24.2059
G01 X13.8730 Y7.0393
G01 X9.0297 Y7.0336
G01 X10.3595 Y7.5451
G01 X10.3946 Y7.5859
G01 X10.4288 Y7.6265
G01 X10.4630 Y7.6680
G01 X10.4993 Y7.7128
G01 X10.5441 Y7.7696
G01 X10.5733 Y7.8072
G01 X10.6372 Y7.8924
G01 X10.6662 Y7.9324
G01 X10.7085 Y7.9918
G01 X10.7397 Y8.0368
G01 X10.7699 Y8.0811
G01 X10.8047 Y8.1335
G01 X10.8424 Y8.1918
G01 X10.8951 Y8.2756
G01 X10.9246 Y8.3243
G01 X10.9610 Y8.3859
G01 X10.9913 Y8.4385
G01 X11.0278 Y8.5037
G01 X20.2880 Y25.3506
G01 X22.8295 Y24.0006
G01 X13.5746 Y7.5489
G01 X10.3595 Y7.5451
G01 X11.3586 Y8.0563
G01 X11.3817 Y8.0951
G01 X11.4274 Y8.1738
G01 X11.4746 Y8.2578
G01 X20.4928 Y24.6643
G01 X22.1288 Y23.7953
G01 X13.2761 Y8.0586
G01 X11.3586 Y8.0563
G01 X12.2267 Y8.5673
G01 X20.6975 Y23.9781
G01 X21.4282 Y23.5900
G01 X12.9777 Y8.5682
G01 X12.2267 Y8.5673
G00 Z0.5000
G00 X25.2944 Y2.9490
G01 F250.00
G01 Z-0.0400
G01 F1250.00
G01 X111.1829 Y52.5466
G01 X111.1829 Y2.9490
G01 X25.2944 Y2.9490
G01 X27.1974 Y3.4590
G01 X110.6729 Y51.6631
G01 X110.6729 Y3.4590
G01 X27.1974 Y3.4590
G01 X29.1004 Y3.9690
G01 X110.1629 Y50.7797
G01 X110.1629 Y3.9690
G01 X29.1004 Y3.9690
G01 X31.0034 Y4.4790
G01 X109.6529 Y49.8963
G01 X109.6529 Y4.4790
G01 X31.0034 Y4.4790
G01 X32.9065 Y4.9890
G01 X109.1429 Y49.0128
G01 X109.1429 Y4.9890
G01 X32.9065 Y4.9890
G01 X34.8095 Y5.4990
G01 X108.6329 Y48.1294
G01 X108.6329 Y5.4990
G01 X34.8095 Y5.4990
G01 X36.7125 Y6.0090
G01 X108.1229 Y47.2460
G01 X108.1229 Y6.0090
G01 X36.7125 Y6.0090
G01 X38.6155 Y6.5190
G01 X107.6129 Y46.3625
G01 X107.6129 Y6.5190
G01 X38.6155 Y6.5190
G01 X40.5185 Y7.0290
G01 X107.1029 Y45.4791
G01 X107.1029 Y7.0290
G01 X40.5185 Y7.0290
G01 X42.4216 Y7.5390
G01 X106.5929 Y44.5957
G01 X106.5929 Y7.5390
G01 X42.4216 Y7.5390
G01 X44.3246 Y8.0490
G01 X106.0829 Y43.7122
G01 X106.0829 Y8.0490
G01 X44.3246 Y8.0490
G01 X46.2276 Y8.5590
G01 X105.5729 Y42.8288
G01 X105.5729 Y8.5590
G01 X46.2276 Y8.5590
G01 X48.1306 Y9.0690
G01 X105.0629 Y41.9454
G01 X105.0629 Y9.0690
G01 X48.1306 Y9.0690
G01 X50.0336 Y9.5790
G01 X104.5529 Y41.0619
G01 X104.5529 Y9.5790
G01 X50.0336 Y9.5790
G01 X51.9367 Y10.0890
G01 X104.0429 Y40.1785
G01 X104.0429 Y10.0890
G01 X51.9367 Y10.0890
G01 X53.8397 Y10.5990
G01 X103.5329 Y39.2951
G01 X103.5329 Y10.5990
G01 X53.8397 Y10.5990
G01 X55.7427 Y11.1090
G01 X103.0229 Y38.4116
G01 X103.0229 Y11.1090
G01 X55.7427 Y11.1090
G01 X57.6457 Y11.6190
G01 X102.5129 Y37.5282
G01 X102.5129 Y11.6190
G01 X57.6457 Y11.6190
G01 X59.5487 Y12.1290
G01 X102.0029 Y36.6448
G01 X102.0029 Y12.1290
G01 X59.5487 Y12.1290
G01 X61.4517 Y12.6390
G01 X101.4929 Y35.7613
G01 X101.4929 Y12.6390
G01 X61.4517 Y12.6390
G01 X63.3548 Y13.1490
G01 X100.9829 Y34.8779
G01 X100.9829 Y13.1490
G01 X63.3548 Y13.1490
G01 X65.2578 Y13.6590
G01 X100.4729 Y33.9945
G01 X100.4729 Y13.6590
G01 X65.2578 Y13.6590
G01 X67.1608 Y14.1690
G01 X99.9629 Y33.1110
G01 X99.9629 Y14.1690
G01 X67.1608 Y14.1690
G01 X69.0638 Y14.6790
G01 X99.4529 Y32.2276
G01 X99.4529 Y14.6790
G01 X69.0638 Y14.6790
G01 X70.9668 Y15.1890
G01 X98.9429 Y31.3442
G01 X98.9429 Y15.1890
G01 X70.9668 Y15.1890
G01 X72.8699 Y15.6990
G01 X98.4329 Y30.4607
G01 X98.4329 Y15.6990
G01 X72.8699 Y15.6990
G01 X74.7729 Y16.2090
G01 X97.9229 Y29.5773
G01 X97.9229 Y16.2090
G01 X74.7729 Y16.2090
G01 X76.6759 Y16.7190
G01 X97.4129 Y28.6939
G01 X97.4129 Y16.7190
G01 X76.6759 Y16.7190
G01 X78.5789 Y17.2290
G01 X96.9029 Y27.8104
G01 X96.9029 Y17.2290
G01 X78.5789 Y17.2290
G01 X80.4819 Y17.7390
G01 X96.3929 Y26.9270
G01 X96.3929 Y17.7390
G01 X80.4819 Y17.7390
G01 X82.3850 Y18.2490
G01 X95.8829 Y26.0436
G01 X95.8829 Y18.2490
G01 X82.3850 Y18.2490
G01 X84.2880 Y18.7590
G01 X95.3729 Y25.1601
G01 X95.3729 Y18.7590
G01 X84.2880 Y18.7590
G01 X86.1910 Y19.2690
G01 X94.8629 Y24.2767
G01 X94.8629 Y19.2690
G01 X86.1910 Y19.2690
G01 X88.0940 Y19.7790
G01 X94.3529 Y23.3933
G01 X94.3529 Y19.7790
G01 X88.0940 Y19.7790
G01 X89.9970 Y20.2890
G01 X93.8429 Y22.5098
G01 X93.8429 Y20.2890
G01 X89.9970 Y20.2890
G01 X91.9001 Y20.7990
G01 X93.3329 Y21.6264
G01 X93.3329 Y20.7990
G01 X91.9001 Y20.7990
G00 Z0.5000
G00 X111.1829 Y59.7879
G01 F250.00
G01 Z-0.0400
G01 F1250.00
G01 X111.1829 Y71.0978
G01 X87.3392 Y71.0978
G01 X87.3392 Y59.7879
G01 X111.1829 Y59.7879
G01 X110.6729 Y60.2979
G01 X110.6729 Y70.5878
G01 X87.8492 Y70.5878
G01 X87.8492 Y60.2979
G01 X110.6729 Y60.2979
G01 X110.1629 Y60.8079
G01 X110.1629 Y70.0778
G01 X88.3592 Y70.0778
G01 X88.3592 Y60.8079
G01 X110.1629 Y60.8079
G01 X109.6529 Y61.3179
G01 X109.6529 Y69.5678
G01 X88.8692 Y69.5678
G01 X88.8692 Y61.3179
G01 X109.6529 Y61.3179
G01 X109.1429 Y61.8279
G01 X109.1429 Y69.0578
G01 X89.3792 Y69.0578
G01 X89.3792 Y61.8279
G01 X109.1429 Y61.8279
G01 X108.6329 Y62.3379
G01 X108.6329 Y68.5478
G01 X89.8892 Y68.5478
G01 X89.8892 Y62.3379
G01 X108.6329 Y62.3379
G01 X108.1229 Y62.8479
G01 X108.1229 Y68.0378
G01 X90.3992 Y68.0378
G01 X90.3992 Y62.8479
G01 X108.1229 Y62.8479
G01 X107.6129 Y63.3579
G01 X107.6129 Y67.5278
G01 X90.9092 Y67.5278
G01 X90.9092 Y63.3579
G01 X107.6129 Y63.3579
G01 X107.1029 Y63.8679
G01 X107.1029 Y67.0178
G01 X91.4192 Y67.0178
G01 X91.4192 Y63.8679
G01 X107.1029 Y63.8679
G01 X106.5929 Y64.3779
G01 X106.5929 Y66.5078
G01 X91.9292 Y66.5078
G01 X91.9292 Y64.3779
G01 X106.5929 Y64.3779
G01 X106.0829 Y64.8879
G01 X106.0829 Y65.9978
G01 X92.4392 Y65.9978
G01 X92.4392 Y64.8879
G01 X106.0829 Y64.8879
G01 X105.5729 Y65.3979
G01 X105.5729 Y65.4878
G01 X92.9492 Y65.4878
G01 X92.9492 Y65.3979
G01 X105.5729 Y65.3979
G00 Z0.5000
G00 X111.1829 Y78.5931
G01 F250.00
G01 Z-0.0400
G01 F1250.00
G01 X25.3208 Y128.1755
G01 X111.1829 Y128.1755
G01 X111.1829 Y78.5931
G01 X110.6729 Y79.4766
G01 X27.2238 Y127.6655
G01 X110.6729 Y127.6655
G01 X110.6729 Y79.4766
G01 X110.1629 Y80.3600
G01 X29.1268 Y127.1555
G01 X110.1629 Y127.1555
G01 X110.1629 Y80.3600
G01 X109.6529 Y81.2434
G01 X31.0298 Y126.6455
G01 X109.6529 Y126.6455
G01 X109.6529 Y81.2434
G01 X109.1429 Y82.1269
G01 X32.9329 Y126.1355
G01 X109.1429 Y126.1355
G01 X109.1429 Y82.1269
G01 X108.6329 Y83.0103
G01 X34.8359 Y125.6255
G01 X108.6329 Y125.6255
G01 X108.6329 Y83.0103
G01 X108.1229 Y83.8937
G01 X36.7389 Y125.1155
G01 X108.1229 Y125.1155
G01 X108.1229 Y83.8937
G01 X107.6129 Y84.7772
G01 X38.6419 Y124.6055
G01 X107.6129 Y124.6055
G01 X107.6129 Y84.7772
G01 X107.1029 Y85.6606
G01 X40.5449 Y124.0955
G01 X107.1029 Y124.0955
G01 X107.1029 Y85.6606
G01 X106.5929 Y86.5440
G01 X42.4479 Y123.5855
G01 X106.5929 Y123.5855
G01 X106.5929 Y86.5440
G01 X106.0829 Y87.4275
G01 X44.3510 Y123.0755
G01 X106.0829 Y123.0755
G01 X106.0829 Y87.4275
G01 X105.5729 Y88.3109
G01 X46.2540 Y122.5655
G01 X105.5729 Y122.5655
G01 X105.5729 Y88.3109
G01 X105.0629 Y89.1943
G01 X48.1570 Y122.0555
G01 X105.0629 Y122.0555
G01 X105.0629 Y89.1943
G01 X104.5529 Y90.0778
G01 X50.0600 Y121.5455
G01 X104.5529 Y121.5455
G01 X104.5529 Y90.0778
G01 X104.0429 Y90.9612
G01 X51.9630 Y121.0355
G01 X104.0429 Y121.0355
G01 X104.0429 Y90.9612
G01 X103.5329 Y91.8446
G01 X53.8661 Y120.5255
G01 X103.5329 Y120.5255
G01 X103.5329 Y91.8446
G01 X103.0229 Y92.7281
G01 X55.7691 Y120.0155
G01 X103.0229 Y120.0155
G01 X103.0229 Y92.7281
G01 X102.5129 Y93.6115
G01 X57.6721 Y119.5055
G01 X102.5129 Y119.5055
G01 X102.5129 Y93.6115
G01 X102.0029 Y94.4949
G01 X59.5751 Y118.9955
G01 X102.0029 Y118.9955
G01 X102.0029 Y94.4949
G01 X101.4929 Y95.3784
G01 X61.4781 Y118.4855
G01 X101.4929 Y118.4855
G01 X101.4929 Y95.3784
G01 X100.9829 Y96.2618
G01 X63.3812 Y117.9755
G01 X100.9829 Y117.9755
G01 X100.9829 Y96.2618
G01 X100.4729 Y97.1452
G01 X65.2842 Y117.4655
G01 X100.4729 Y117.4655
G01 X100.4729 Y97.1452
G01 X99.9629 Y98.0287
G01 X67.1872 Y116.9555
G01 X99.9629 Y116.9555
G01 X99.9629 Y98.0287
G01 X99.4529 Y98.9121
G01 X69.0902 Y116.4455
G01 X99.4529 Y116.4455
G01 X99.4529 Y98.9121
G01 X98.9429 Y99.7955
G01 X70.9932 Y115.9355
G01 X98.9429 Y115.9355
G01 X98.9429 Y99.7955
G01 X98.4329 Y100.6790
G01 X72.8963 Y115.4255
G01 X98.4329 Y115.4255
G01 X98.4329 Y100.6790
G01 X97.9229 Y101.5624
G01 X74.7993 Y114.9155
G01 X97.9229 Y114.9155
G01 X97.9229 Y101.5624
G01 X97.4129 Y102.4458
G01 X76.7023 Y114.4055
G01 X97.4129 Y114.4055
G01 X97.4129 Y102.4458
G01 X96.9029 Y103.3293
G01 X78.6053 Y113.8955
G01 X96.9029 Y113.8955
G01 X96.9029 Y103.3293
G01 X96.3929 Y104.2127
G01 X80.5083 Y113.3855
G01 X96.3929 Y113.3855
G01 X96.3929 Y104.2127
G01 X95.8829 Y105.0961
G01 X82.4113 Y112.8755
G01 X95.8829 Y112.8755
G01 X95.8829 Y105.0961
G01 X95.3729 Y105.9796
G01 X84.3144 Y112.3655
G01 X95.3729 Y112.3655
G01 X95.3729 Y105.9796
G01 X94.8629 Y106.8630
G01 X86.2174 Y111.8555
G01 X94.8629 Y111.8555
G01 X94.8629 Y106.8630
G01 X94.3529 Y107.7464
G01 X88.1204 Y111.3455
G01 X94.3529 Y111.3455
G01 X94.3529 Y107.7464
G01 X93.8429 Y108.6299
G01 X90.0234 Y110.8355
G01 X93.8429 Y110.8355
G01 X93.8429 Y108.6299
G01 X93.3329 Y109.5133
G01 X91.9264 Y110.3255
G01 X93.3329 Y110.3255
G01 X93.3329 Y109.5133
G00 Z0.5000
G00 X70.3667 Y90.3224
G01 F250.00
G01 Z-0.0400
G01 F1250.00
G01 X70.3356 Y90.3537
G01 X70.3108 Y90.3774
G01 X70.2898 Y90.3965
G01 X70.2578 Y90.4237
G01 X70.2157 Y90.4567
G01 X70.1818 Y90.4813
G01 X70.1505 Y90.5022
G01 X70.1054 Y90.5304
G01 X70.0604 Y90.5562
G01 X70.3260 Y90.6262
G01 X70.3487 Y90.6327
G01 X70.3885 Y90.6452
G01 X70.4244 Y90.6574
G01 X70.4638 Y90.6727
G01 X70.5132 Y90.6940
G01 X70.5346 Y90.7039
G01 X70.5557 Y90.7143
G01 X70.5766 Y90.7253
G01 X70.6150 Y90.7466
G01 X70.6354 Y90.7585
G01 X70.6554 Y90.7709
G01 X70.6793 Y90.7866
G01 X70.7154 Y90.8116
G01 X70.7345 Y90.8255
G01 X70.7532 Y90.8398
G01 X70.7754 Y90.8578
G01 X70.8088 Y90.8863
G01 X70.8265 Y90.9019
G01 X70.8437 Y90.9181
G01 X70.8640 Y90.9382
G01 X70.8944 Y90.9698
G01 X70.9104 Y90.9872
G01 X70.9259 Y91.0049
G01 X70.9441 Y91.0269
G01 X70.9655 Y91.0541
G01 X70.9883 Y91.0843
G01 X71.0123 Y91.1191
G01 X71.0424 Y91.1663
G01 X71.0580 Y91.1928
G01 X71.2257 Y91.4874
G01 X71.2390 Y91.5117
G01 X71.2628 Y91.5585
G01 X71.2749 Y91.5837
G01 X71.2913 Y91.6218
G01 X71.3054 Y91.6579
G01 X71.3166 Y91.6881
G01 X71.3255 Y91.7147
G01 X71.3347 Y91.7456
G01 X71.3485 Y91.7965
G01 X71.3709 Y91.8185
G01 X71.4011 Y91.8498
G01 X71.4203 Y91.8706
G01 X71.4356 Y91.8883
G01 X71.4505 Y91.9063
G01 X71.4804 Y91.9443
G01 X71.4944 Y91.9630
G01 X71.5183 Y91.9974
G01 X71.5433 Y92.0362
G01 X71.5603 Y92.0641
G01 X71.7349 Y92.3685
G01 X71.7504 Y92.3970
G01 X71.7712 Y92.4380
G01 X71.7812 Y92.4590
G01 X71.7978 Y92.4971
G01 X71.8155 Y92.5419
G01 X71.8251 Y92.5683
G01 X71.8379 Y92.6079
G01 X71.8458 Y92.6354
G01 X72.1401 Y92.4656
G01 X71.1426 Y90.7399
G01 X71.1302 Y90.7174
G01 X71.1112 Y90.6809
G01 X71.0969 Y90.6518
G01 X71.0872 Y90.6306
G01 X71.0762 Y90.6047
G01 X71.0636 Y90.5730
G01 X71.0505 Y90.5380
G01 X71.0376 Y90.4984
G01 X71.0243 Y90.4520
G01 X71.0172 Y90.4248
G01 X71.0120 Y90.4021
G01 X71.0073 Y90.3793
G01 X70.9987 Y90.3319
G01 X70.9951 Y90.3089
G01 X70.9921 Y90.2858
G01 X70.9897 Y90.2626
G01 X70.9868 Y90.2287
G01 X70.9845 Y90.1914
G01 X70.9836 Y90.1497
G01 X70.9844 Y90.0966
G01 X70.9866 Y90.0550
G01 X70.9901 Y90.0178
G01 X70.9940 Y89.9839
G01 X70.9971 Y89.9609
G01 X71.0030 Y89.9261
G01 X70.9718 Y89.9623
G01 X70.9559 Y89.9794
G01 X70.9397 Y89.9962
G01 X70.9017 Y90.0332
G01 X70.8708 Y90.0612
G01 X70.8421 Y90.0852
G01 X70.8154 Y90.1065
G01 X70.7930 Y90.1235
G01 X70.7589 Y90.1475
G01 X70.7143 Y90.1765
G01 X70.6786 Y90.1979
G01 X70.6457 Y90.2158
G01 X70.6154 Y90.2314
G01 X70.5945 Y90.2417
G01 X70.5734 Y90.2515
G01 X70.5520 Y90.2607
G01 X70.5026 Y90.2804
G01 X70.4634 Y90.2944
G01 X70.4365 Y90.3029
G01 X70.4037 Y90.3125
G01 X70.3667 Y90.3224
G00 Z0.5000
G00 X73.4409 Y85.2337
G01 F250.00
G01 Z-0.0400
G01 F1250.00
G01 X73.4648 Y85.2561
G01 X73.4877 Y85.2791
G01 X73.5146 Y85.3073
G01 X73.5423 Y85.3384
G01 X73.5660 Y85.3672
G01 X73.5870 Y85.3940
G01 X73.6010 Y85.4126
G01 X73.6173 Y85.4356
G01 X73.6352 Y85.4626
G01 X73.6561 Y85.4955
G01 X73.6681 Y85.5154
G01 X73.6796 Y85.5356
G01 X73.6906 Y85.5561
G01 X73.7061 Y85.5864
G01 X73.7203 Y85.6156
G01 X73.7318 Y85.6413
G01 X73.7442 Y85.6713
G01 X73.7583 Y85.7076
G01 X73.7661 Y85.7295
G01 X73.7735 Y85.7515
G01 X73.7828 Y85.7826
G01 X73.7920 Y85.8154
G01 X73.7978 Y85.8379
G01 X73.8041 Y85.8654
G01 X73.8104 Y85.8972
G01 X73.8171 Y85.9356
G01 X73.8206 Y85.9586
G01 X73.8235 Y85.9816
G01 X73.8259 Y86.0048
G01 X73.8286 Y86.0387
G01 X73.8306 Y86.0711
G01 X73.8313 Y86.0944
G01 X73.8315 Y86.1176
G01 X73.8306 Y86.1658
G01 X73.8294 Y86.1939
G01 X73.8261 Y86.2354
G01 X73.8205 Y86.2832
G01 X73.8165 Y86.3110
G01 X73.8091 Y86.3520
G01 X73.8006 Y86.3917
G01 X74.0673 Y86.8844
G01 X74.0915 Y86.9312
G01 X74.1017 Y86.9521
G01 X74.1114 Y86.9732
G01 X74.1258 Y87.0076
G01 X74.1383 Y87.0393
G01 X74.1464 Y87.0611
G01 X74.1539 Y87.0831
G01 X74.1609 Y87.1053
G01 X74.1742 Y87.1515
G01 X74.1801 Y87.1740
G01 X74.1866 Y87.2013
G01 X74.1930 Y87.2331
G01 X74.1999 Y87.2715
G01 X74.2058 Y87.3126
G01 X74.2089 Y87.3406
G01 X74.2128 Y87.3885
G01 X74.2147 Y87.4301
G01 X74.2150 Y87.4533
G01 X74.2144 Y87.5014
G01 X74.2133 Y87.5295
G01 X74.2101 Y87.5710
G01 X74.2048 Y87.6188
G01 X74.2009 Y87.6467
G01 X74.1955 Y87.6784
G01 X74.2177 Y87.6523
G01 X74.2332 Y87.6349
G01 X74.2491 Y87.6179
G01 X74.2654 Y87.6012
G01 X74.3000 Y87.5677
G01 X74.3171 Y87.5519
G01 X74.3346 Y87.5365
G01 X74.3525 Y87.5215
G01 X74.3902 Y87.4915
G01 X74.4088 Y87.4774
G01 X74.4277 Y87.4638
G01 X74.4469 Y87.4507
G01 X74.4875 Y87.4246
G01 X74.5073 Y87.4124
G01 X74.5275 Y87.4007
G01 X74.5522 Y87.3872
G01 X74.5908 Y87.3675
G01 X74.6117 Y87.3573
G01 X74.6329 Y87.3476
G01 X74.6544 Y87.3385
G01 X74.6992 Y87.3208
G01 X74.7211 Y87.3127
G01 X74.7431 Y87.3052
G01 X74.7653 Y87.2982
G01 X74.8117 Y87.2849
G01 X74.8342 Y87.2790
G01 X74.8569 Y87.2737
G01 X74.8797 Y87.2689
G01 X74.9271 Y87.2603
G01 X74.9501 Y87.2566
G01 X74.9781 Y87.2530
G01 X75.0140 Y87.2495
G01 X75.0399 Y87.2134
G01 X75.0657 Y87.1807
G01 X75.1001 Y87.1402
G01 X75.1283 Y87.1095
G01 X75.1547 Y87.0830
G01 X75.1793 Y87.0593
G01 X75.1964 Y87.0435
G01 X75.2139 Y87.0281
G01 X75.2317 Y87.0132
G01 X75.2616 Y86.9893
G01 X75.2419 Y86.9568
G01 X74.5882 Y85.8258
G01 X74.5709 Y85.7980
G01 X74.5592 Y85.7778
G01 X74.5413 Y85.7447
G01 X74.2237 Y85.1951
G01 X74.2036 Y85.1582
G01 X74.1881 Y85.1278
G01 X74.1758 Y85.1025
G01 X74.1662 Y85.0812
G01 X74.1537 Y85.0512
G01 X74.1412 Y85.0195
G01 X74.1315 Y84.9930
G01 X74.1186 Y84.9534
G01 X74.1077 Y84.9159
G01 X74.0993 Y84.8845
G01 X74.0929 Y84.8571
G01 X74.0882 Y84.8342
G01 X74.0805 Y84.7916
G01 X74.0761 Y84.7638
G01 X74.0731 Y84.7407
G01 X74.0707 Y84.7175
G01 X74.0675 Y84.6796
G01 X74.0450 Y84.7199
G01 X74.0331 Y84.7400
G01 X74.0207 Y84.7597
G01 X74.0079 Y84.7791
G01 X73.9832 Y84.8148
G01 X73.9695 Y84.8336
G01 X73.9553 Y84.8522
G01 X73.9376 Y84.8741
G01 X73.9096 Y84.9071
G01 X73.8941 Y84.9246
G01 X73.8782 Y84.9416
G01 X73.8518 Y84.9681
G01 X73.8272 Y84.9918
G01 X73.8065 Y85.0109
G01 X73.7889 Y85.0262
G01 X73.7710 Y85.0411
G01 X73.7370 Y85.0680
G01 X73.7184 Y85.0821
G01 X73.6995 Y85.0957
G01 X73.6802 Y85.1088
G01 X73.6356 Y85.1376
G01 X73.6156 Y85.1496
G01 X73.5954 Y85.1612
G01 X73.5749 Y85.1723
G01 X73.5319 Y85.1943
G01 X73.5109 Y85.2043
G01 X73.4897 Y85.2139
G01 X73.4682 Y85.2229
G01 X73.4409 Y85.2337
G00 Z0.5000
G00 X74.2070 Y84.0293
G01 F250.00
G01 Z-0.0400
G01 F1250.00
G01 X74.2265 Y83.9943
G01 X74.2407 Y83.9700
G01 X74.2632 Y83.9349
G01 X74.2853 Y83.9027
G01 X74.3042 Y83.8763
G01 X74.3214 Y83.8540
G01 X74.3360 Y83.8359
G01 X74.3672 Y83.7991
G01 X74.3954 Y83.7683
G01 X74.4116 Y83.7517
G01 X74.4462 Y83.7181
G01 X74.4633 Y83.7022
G01 X74.4808 Y83.6868
G01 X74.5024 Y83.6687
G01 X74.5363 Y83.6418
G01 X74.5588 Y83.6248
G01 X74.5930 Y83.6009
G01 X74.6257 Y83.5797
G01 X74.6533 Y83.5625
G01 X74.6735 Y83.5508
G01 X74.6982 Y83.5373
G01 X74.7368 Y83.5175
G01 X74.7621 Y83.5052
G01 X74.7833 Y83.4956
G01 X74.8048 Y83.4866
G01 X74.8497 Y83.4689
G01 X74.8716 Y83.4609
G01 X74.9112 Y83.4480
G01 X74.9576 Y83.4347
G01 X74.9801 Y83.4288
G01 X75.0075 Y83.4223
G01 X75.0422 Y83.4154
G01 X75.0160 Y83.4048
G01 X74.9773 Y83.3880
G01 X74.9561 Y83.3783
G01 X74.9342 Y83.3675
G01 X74.9093 Y83.3544
G01 X74.8724 Y83.3339
G01 X74.8523 Y83.3221
G01 X74.8315 Y83.3092
G01 X74.8080 Y83.2937
G01 X74.7733 Y83.2697
G01 X74.7544 Y83.2560
G01 X74.7350 Y83.2412
G01 X74.7131 Y83.2235
G01 X74.6810 Y83.1961
G01 X74.6635 Y83.1807
G01 X74.6457 Y83.1640
G01 X74.6291 Y83.1477
G01 X74.6026 Y83.1205
G01 X74.5705 Y83.0855
G01 X74.5494 Y83.0606
G01 X74.5258 Y83.0309
G01 X74.4973 Y82.9932
G01 X74.4759 Y82.9620
G01 X74.4542 Y82.9283
G01 X74.4433 Y82.9106
G01 X74.3540 Y82.7562
G01 X74.3239 Y82.7785
G01 X74.3047 Y82.7917
G01 X74.2682 Y82.8155
G01 X74.2484 Y82.8279
G01 X73.9403 Y83.0077
G01 X73.9056 Y83.0269
G01 X73.8646 Y83.0481
G01 X73.8268 Y83.0659
G01 X73.7992 Y83.0777
G01 X74.0525 Y83.5165
G01 X74.0680 Y83.5451
G01 X74.0868 Y83.5817
G01 X74.0991 Y83.6071
G01 X74.1086 Y83.6284
G01 X74.1177 Y83.6499
G01 X74.1336 Y83.6902
G01 X74.1417 Y83.7120
G01 X74.1492 Y83.7341
G01 X74.1602 Y83.7698
G01 X74.1695 Y83.8027
G01 X74.1766 Y83.8300
G01 X74.1818 Y83.8527
G01 X74.1865 Y83.8755
G01 X74.1942 Y83.9182
G01 X74.1979 Y83.9412
G01 X74.2010 Y83.9643
G01 X74.2035 Y83.9875
G01 X74.2070 Y84.0293
G00 Z0.5000
G00 X18.4218 Y128.1755
G01 F250.00
G01 Z-0.0400
G01 F1250.00
G01 X2.9490 Y128.1755
G01 X2.9490 Y119.2541
G01 X5.5710 Y120.7658
G01 X5.6115 Y120.7878
G01 X5.6443 Y120.8037
G01 X5.6619 Y120.8117
G01 X5.6955 Y120.8259
G01 X5.7297 Y120.8385
G01 X5.7480 Y120.8448
G01 X5.7827 Y120.8557
G01 X5.8180 Y120.8649
G01 X5.8368 Y120.8693
G01 X5.8725 Y120.8768
G01 X5.9085 Y120.8826
G01 X5.9277 Y120.8852
G01 X5.9639 Y120.8892
G01 X6.0003 Y120.8914
G01 X6.0196 Y120.8921
G01 X6.0561 Y120.8926
G01 X6.0925 Y120.8913
G01 X6.1118 Y120.8901
G01 X6.1481 Y120.8870
G01 X6.1842 Y120.8822
G01 X6.2033 Y120.8791
G01 X6.2392 Y120.8725
G01 X6.2747 Y120.8642
G01 X6.2934 Y120.8593
G01 X6.3284 Y120.8493
G01 X6.3630 Y120.8376
G01 X6.3811 Y120.8309
G01 X6.4150 Y120.8175
G01 X6.4482 Y120.8025
G01 X6.4656 Y120.7941
G01 X6.4981 Y120.7775
G01 X6.5297 Y120.7593
G01 X6.5462 Y120.7492
G01 X6.5769 Y120.7295
G01 X6.6066 Y120.7084
G01 X6.6220 Y120.6968
G01 X6.6507 Y120.6742
G01 X6.6781 Y120.6503
G01 X6.6924 Y120.6372
G01 X6.7187 Y120.6120
G01 X6.7437 Y120.5855
G01 X6.7567 Y120.5711
G01 X6.7804 Y120.5434
G01 X6.8027 Y120.5146
G01 X6.8142 Y120.4991
G01 X6.8351 Y120.4692
G01 X6.8597 Y120.4302
G01 X19.9267 Y98.5483
G01 X29.4674 Y104.3783
G01 X16.8915 Y126.1982
G01 X16.8692 Y126.2391
G01 X16.8533 Y126.2723
G01 X16.8452 Y126.2901
G01 X16.8309 Y126.3240
G01 X16.8182 Y126.3585
G01 X16.8119 Y126.3770
G01 X16.8010 Y126.4122
G01 X16.7918 Y126.4478
G01 X16.7874 Y126.4669
G01 X16.7799 Y126.5029
G01 X16.7742 Y126.5393
G01 X16.7717 Y126.5586
G01 X16.7678 Y126.5953
G01 X16.7657 Y126.6320
G01 X16.7651 Y126.6515
G01 X16.7649 Y126.6883
G01 X16.7664 Y126.7251
G01 X16.7677 Y126.7446
G01 X16.7710 Y126.7813
G01 X16.7761 Y126.8177
G01 X16.7793 Y126.8370
G01 X16.7863 Y126.8731
G01 X16.7949 Y126.9089
G01 X16.8000 Y126.9278
G01 X16.8104 Y126.9631
G01 X16.8226 Y126.9978
G01 X16.8295 Y127.0161
G01 X16.8433 Y127.0502
G01 X16.8588 Y127.0836
G01 X16.8674 Y127.1011
G01 X16.8846 Y127.1337
G01 X16.9032 Y127.1654
G01 X16.9136 Y127.1820
G01 X16.9338 Y127.2128
G01 X16.9555 Y127.2425
G01 X16.9674 Y127.2580
G01 X16.9905 Y127.2866
G01 X17.0151 Y127.3141
G01 X17.0284 Y127.3283
G01 X17.0543 Y127.3545
G01 X17.0814 Y127.3795
G01 X17.0961 Y127.3923
G01 X17.1243 Y127.4159
G01 X17.1537 Y127.4380
G01 X17.1696 Y127.4494
G01 X17.2001 Y127.4701
G01 X17.2157 Y127.4799
G01 X17.2399 Y127.4943
G01 X18.4218 Y128.1755
G01 X16.6454 Y127.6655
G01 X3.4590 Y127.6655
G01 X3.4590 Y120.1369
G01 X5.3162 Y121.2076
G01 X5.3569 Y121.2301
G01 X5.3896 Y121.2471
G01 X5.4224 Y121.2629
G01 X5.4513 Y121.2762
G01 X5.4962 Y121.2954
G01 X5.5192 Y121.3045
G01 X5.5534 Y121.3171
G01 X5.5952 Y121.3313
G01 X5.6300 Y121.3423
G01 X5.6538 Y121.3491
G01 X5.6891 Y121.3583
G01 X5.7199 Y121.3658
G01 X5.7677 Y121.3759
G01 X5.7921 Y121.3804
G01 X5.8280 Y121.3862
G01 X5.8718 Y121.3921
G01 X5.9080 Y121.3961
G01 X5.9327 Y121.3982
G01 X5.9691 Y121.4004
G01 X6.0008 Y121.4018
G01 X6.0496 Y121.4025
G01 X6.0744 Y121.4022
G01 X6.1109 Y121.4009
G01 X6.1549 Y121.3983
G01 X6.1912 Y121.3952
G01 X6.2159 Y121.3925
G01 X6.2520 Y121.3877
G01 X6.2956 Y121.3807
G01 X6.3314 Y121.3741
G01 X6.3557 Y121.3691
G01 X6.3912 Y121.3607
G01 X6.4219 Y121.3529
G01 X6.4689 Y121.3396
G01 X6.4926 Y121.3322
G01 X6.5271 Y121.3204
G01 X6.5569 Y121.3096
G01 X6.6024 Y121.2918
G01 X6.6252 Y121.2822
G01 X6.6584 Y121.2671
G01 X6.6871 Y121.2535
G01 X6.7306 Y121.2314
G01 X6.7524 Y121.2195
G01 X6.7840 Y121.2013
G01 X6.8217 Y121.1784
G01 X6.8524 Y121.1587
G01 X6.8729 Y121.1448
G01 X6.9026 Y121.1237
G01 X6.9281 Y121.1048
G01 X6.9665 Y121.0746
G01 X6.9856 Y121.0588
G01 X7.0131 Y121.0349
G01 X7.0456 Y121.0051
G01 X7.0719 Y120.9798
G01 X7.0894 Y120.9622
G01 X7.1144 Y120.9357
G01 X7.1440 Y120.9029
G01 X7.1677 Y120.8753
G01 X7.1833 Y120.8560
G01 X7.2057 Y120.8272
G01 X7.2246 Y120.8018
G01 X7.2528 Y120.7619
G01 X7.2764 Y120.7259
G01 X7.2976 Y120.6917
G01 X20.1004 Y99.2521
G01 X28.7774 Y104.5543
G01 X16.4496 Y125.9435
G01 X16.4345 Y125.9705
G01 X16.4183 Y126.0009
G01 X16.4098 Y126.0176
G01 X16.3886 Y126.0622
G01 X16.3755 Y126.0914
G01 X16.3611 Y126.1253
G01 X16.3520 Y126.1486
G01 X16.3393 Y126.1832
G01 X16.3289 Y126.2135
G01 X16.3141 Y126.2605
G01 X16.3072 Y126.2846
G01 X16.2980 Y126.3202
G01 X16.2879 Y126.3637
G01 X16.2805 Y126.3997
G01 X16.2760 Y126.4243
G01 X16.2703 Y126.4607
G01 X16.2660 Y126.4925
G01 X16.2607 Y126.5415
G01 X16.2586 Y126.5664
G01 X16.2566 Y126.6032
G01 X16.2554 Y126.6352
G01 X16.2549 Y126.6846
G01 X16.2553 Y126.7096
G01 X16.2568 Y126.7464
G01 X16.2598 Y126.7908
G01 X16.2631 Y126.8275
G01 X16.2660 Y126.8524
G01 X16.2711 Y126.8888
G01 X16.2762 Y126.9204
G01 X16.2853 Y126.9689
G01 X16.2906 Y126.9934
G01 X16.2993 Y127.0292
G01 X16.3109 Y127.0722
G01 X16.3213 Y127.1075
G01 X16.3290 Y127.1313
G01 X16.3411 Y127.1661
G01 X16.3523 Y127.1961
G01 X16.3707 Y127.2419
G01 X16.3807 Y127.2649
G01 X16.3962 Y127.2982
G01 X16.4159 Y127.3382
G01 X16.4330 Y127.3708
G01 X16.4452 Y127.3927
G01 X16.4639 Y127.4244
G01 X16.4807 Y127.4517
G01 X16.5077 Y127.4930
G01 X16.5219 Y127.5135
G01 X16.5436 Y127.5433
G01 X16.5708 Y127.5786
G01 X16.5939 Y127.6072
G01 X16.6101 Y127.6263
G01 X16.6454 Y127.6655
G01 X15.8052 Y127.1555
G01 X3.9690 Y127.1555
G01 X3.9690 Y121.0196
G01 X5.0696 Y121.6540
G01 X5.1157 Y121.6795
G01 X5.1594 Y121.7021
G01 X5.2062 Y121.7248
G01 X5.2463 Y121.7432
G01 X5.2969 Y121.7648
G01 X5.3314 Y121.7787
G01 X5.3830 Y121.7978
G01 X5.4247 Y121.8122
G01 X5.4772 Y121.8288
G01 X5.5129 Y121.8393
G01 X5.5661 Y121.8533
G01 X5.6090 Y121.8636
G01 X5.6628 Y121.8751
G01 X5.6994 Y121.8820
G01 X5.7537 Y121.8908
G01 X5.7974 Y121.8968
G01 X5.8521 Y121.9030
G01 X5.8891 Y121.9063
G01 X5.9441 Y121.9098
G01 X5.9820 Y121.9114
G01 X6.0432 Y121.9125
G01 X6.0804 Y121.9122
G01 X6.1478 Y121.9097
G01 X6.1980 Y121.9064
G01 X6.2467 Y121.9022
G01 X6.2836 Y121.8980
G01 X6.3197 Y121.8931
G01 X6.3695 Y121.8855
G01 X6.4358 Y121.8733
G01 X6.4722 Y121.8656
G01 X6.5077 Y121.8573
G01 X6.5504 Y121.8464
G01 X6.6094 Y121.8298
G01 X6.6567 Y121.8150
G01 X6.6971 Y121.8013
G01 X6.7327 Y121.7884
G01 X6.7898 Y121.7662
G01 X6.8355 Y121.7468
G01 X6.8855 Y121.7240
G01 X6.9307 Y121.7019
G01 X6.9632 Y121.6853
G01 X6.9959 Y121.6676
G01 X7.0437 Y121.6403
G01 X7.0920 Y121.6109
G01 X7.1382 Y121.5811
G01 X7.1690 Y121.5601
G01 X7.1986 Y121.5390
G01 X7.2391 Y121.5090
G01 X7.2824 Y121.4750
G01 X7.3205 Y121.4434
G01 X7.3665 Y121.4029
G01 X7.3989 Y121.3729
G01 X7.4252 Y121.3477
G01 X7.4515 Y121.3214
G01 X7.4978 Y121.2724
G01 X7.5312 Y121.2348
G01 X7.5629 Y121.1976
G01 X7.5863 Y121.1687
G01 X7.6086 Y121.1399
G01 X7.6387 Y121.0995
G01 X7.6757 Y121.0469
G01 X7.7062 Y121.0006
G01 X7.7355 Y120.9531
G01 X20.2741 Y99.9559
G01 X28.0873 Y104.7303
G01 X16.0078 Y125.6889
G01 X15.9865 Y125.7268
G01 X15.9674 Y125.7627
G01 X15.9504 Y125.7962
G01 X15.9265 Y125.8463
G01 X15.9058 Y125.8927
G01 X15.8867 Y125.9382
G01 X15.8731 Y125.9732
G01 X15.8541 Y126.0255
G01 X15.8400 Y126.0678
G01 X15.8271 Y126.1089
G01 X15.8167 Y126.1449
G01 X15.8027 Y126.1987
G01 X15.7925 Y126.2421
G01 X15.7810 Y126.2965
G01 X15.7742 Y126.3334
G01 X15.7655 Y126.3883
G01 X15.7603 Y126.4263
G01 X15.7535 Y126.4877
G01 X15.7503 Y126.5252
G01 X15.7471 Y126.5806
G01 X15.7456 Y126.6189
G01 X15.7452 Y126.6440
G01 X15.7449 Y126.6933
G01 X15.7457 Y126.7308
G01 X15.7486 Y126.7926
G01 X15.7513 Y126.8308
G01 X15.7565 Y126.8862
G01 X15.7610 Y126.9234
G01 X15.7689 Y126.9785
G01 X15.7764 Y127.0224
G01 X15.7869 Y127.0770
G01 X15.7950 Y127.1136
G01 X15.8052 Y127.1555
G01 X15.2351 Y126.6455
G01 X4.4790 Y126.6455
G01 X4.4790 Y121.9023
G01 X4.8068 Y122.0913
G01 X4.8402 Y122.1101
G01 X4.8745 Y122.1289
G01 X4.9085 Y122.1467
G01 X4.9417 Y122.1634
G01 X4.9871 Y122.1853
G01 X5.0300 Y122.2051
G01 X5.0640 Y122.2200
G01 X5.1148 Y122.2414
G01 X5.1667 Y122.2617
G01 X5.2243 Y122.2826
G01 X5.2778 Y122.3007
G01 X5.3422 Y122.3208
G01 X5.3959 Y122.3360
G01 X5.4552 Y122.3512
G01 X5.5102 Y122.3640
G01 X5.5762 Y122.3778
G01 X5.6250 Y122.3867
G01 X5.6916 Y122.3971
G01 X5.7477 Y122.4045
G01 X5.8147 Y122.4118
G01 X5.8641 Y122.4159
G01 X5.9315 Y122.4198
G01 X5.9879 Y122.4218
G01 X6.0554 Y122.4225
G01 X6.1049 Y122.4218
G01 X6.1723 Y122.4191
G01 X6.2287 Y122.4156
G01 X6.2959 Y122.4098
G01 X6.3513 Y122.4035
G01 X6.4120 Y122.3951
G01 X6.4678 Y122.3861
G01 X6.5341 Y122.3738
G01 X6.5826 Y122.3635
G01 X6.6482 Y122.3479
G01 X6.7029 Y122.3335
G01 X6.7677 Y122.3148
G01 X6.8208 Y122.2979
G01 X6.8787 Y122.2780
G01 X6.9317 Y122.2584
G01 X6.9944 Y122.2335
G01 X7.0457 Y122.2115
G01 X7.1042 Y122.1847
G01 X7.1633 Y122.1558
G01 X7.2012 Y122.1363
G01 X7.2394 Y122.1157
G01 X7.2954 Y122.0839
G01 X7.3491 Y122.0516
G01 X7.4086 Y122.0137
G01 X7.4497 Y121.9860
G01 X7.5022 Y121.9488
G01 X7.5500 Y121.9132
G01 X7.6031 Y121.8716
G01 X7.6414 Y121.8400
G01 X7.6923 Y121.7958
G01 X7.7431 Y121.7493
G01 X7.7917 Y121.7025
G01 X7.8265 Y121.6672
G01 X7.8727 Y121.6181
G01 X7.9124 Y121.5736
G01 X7.9542 Y121.5247
G01 X7.9854 Y121.4862
G01 X8.0284 Y121.4303
G01 X8.0654 Y121.3796
G01 X8.0908 Y121.3434
G01 X8.1090 Y121.3165
G01 X8.1392 Y121.2700
G01 X8.1733 Y121.2146
G01 X20.4479 Y100.6598
G01 X27.3972 Y104.9063
G01 X15.5659 Y125.4342
G01 X15.5476 Y125.4666
G01 X15.5280 Y125.5026
G01 X15.5099 Y125.5369
G01 X15.4931 Y125.5705
G01 X15.4737 Y125.6107
G01 X15.4460 Y125.6711
G01 X15.4146 Y125.7454
G01 X15.3942 Y125.7979
G01 X15.3773 Y125.8442
G01 X15.3628 Y125.8863
G01 X15.3521 Y125.9191
G01 X15.3384 Y125.9632
G01 X15.3213 Y126.0234
G01 X15.3097 Y126.0681
G01 X15.3015 Y126.1015
G01 X15.2916 Y126.1450
G01 X15.2816 Y126.1933
G01 X15.2768 Y126.2179
G01 X15.2692 Y126.2610
G01 X15.2584 Y126.3314
G01 X15.2502 Y126.3974
G01 X15.2457 Y126.4402
G01 X15.2415 Y126.4901
G01 X15.2369 Y126.5737
G01 X15.2357 Y126.6120
G01 X15.2351 Y126.6455
G01 X12.1188 Y122.5655
G01 X21.8376 Y106.2904
G01 X21.8766 Y106.3143
G01 X12.5102 Y122.5655
G01 X12.1188 Y122.5655
G01 X11.2201 Y123.0755
G01 X21.6638 Y105.5866
G01 X22.5667 Y106.1383
G01 X12.8049 Y123.0755
G01 X11.2201 Y123.0755
G01 X10.2181 Y123.5855
G01 X10.2939 Y123.4968
G01 X10.3266 Y123.4574
G01 X10.3695 Y123.4044
G01 X10.4029 Y123.3621
G01 X10.4487 Y123.3029
G01 X10.4847 Y123.2552
G01 X10.5209 Y123.2062
G01 X10.5571 Y123.1559
G01 X10.5993 Y123.0958
G01 X10.6297 Y123.0516
G01 X10.6620 Y123.0036
G01 X10.6984 Y122.9479
G01 X10.7263 Y122.9042
G01 X10.7577 Y122.8539
G01 X10.7922 Y122.7974
G01 X21.4901 Y104.8828
G01 X23.2567 Y105.9623
G01 X13.0996 Y123.5855
G01 X10.2181 Y123.5855
G01 X8.8825 Y124.0955
G01 X8.9332 Y124.0603
G01 X8.9961 Y124.0154
G01 X9.0426 Y123.9813
G01 X9.0912 Y123.9448
G01 X9.1390 Y123.9079
G01 X9.1964 Y123.8625
G01 X9.2379 Y123.8288
G01 X9.2885 Y123.7867
G01 X9.3273 Y123.7534
G01 X9.3855 Y123.7026
G01 X9.4284 Y123.6640
G01 X9.4778 Y123.6184
G01 X9.5183 Y123.5801
G01 X9.5807 Y123.5197
G01 X9.6283 Y123.4720
G01 X9.6667 Y123.4325
G01 X9.7177 Y123.3787
G01 X9.7556 Y123.3378
G01 X9.7976 Y123.2912
G01 X9.8357 Y123.2480
G01 X9.8852 Y123.1904
G01 X9.9195 Y123.1494
G01 X9.9641 Y123.0948
G01 X10.0007 Y123.0487
G01 X10.0434 Y122.9934
G01 X10.0786 Y122.9467
G01 X10.1168 Y122.8947
G01 X10.1545 Y122.8419
G01 X10.1979 Y122.7796
G01 X10.2347 Y122.7251
G01 X10.2734 Y122.6659
G01 X10.3101 Y122.6081
G01 X10.3627 Y122.5220
G01 X21.3164 Y104.1789
G01 X23.9468 Y105.7863
G01 X13.3943 Y124.0955
G01 X8.8825 Y124.0955
G01 X6.5190 Y124.4376
G01 X6.5716 Y124.4317
G01 X6.6223 Y124.4254
G01 X6.6915 Y124.4159
G01 X6.7642 Y124.4048
G01 X6.8238 Y124.3948
G01 X6.8474 Y124.3905
G01 X6.8489 Y124.3903
G01 X6.8851 Y124.3836
G01 X6.8928 Y124.3822
G01 X6.9395 Y124.3731
G01 X6.9941 Y124.3617
G01 X7.0459 Y124.3502
G01 X7.1158 Y124.3337
G01 X7.1653 Y124.3213
G01 X7.2253 Y124.3056
G01 X7.2730 Y124.2923
G01 X7.3415 Y124.2725
G01 X7.4081 Y124.2520
G01 X7.4586 Y124.2357
G01 X7.5229 Y124.2139
G01 X7.5733 Y124.1961
G01 X7.6329 Y124.1742
G01 X7.6879 Y124.1531
G01 X7.7527 Y124.1274
G01 X7.8188 Y124.0998
G01 X7.8668 Y124.0790
G01 X7.9254 Y124.0525
G01 X7.9788 Y124.0277
G01 X8.0374 Y123.9994
G01 X8.0852 Y123.9756
G01 X8.1497 Y123.9424
G01 X8.1917 Y123.9200
G01 X8.2518 Y123.8870
G01 X8.3141 Y123.8513
G01 X8.3548 Y123.8274
G01 X8.4065 Y123.7962
G01 X8.4532 Y123.7672
G01 X8.5133 Y123.7288
G01 X8.5576 Y123.6996
G01 X8.6037 Y123.6683
G01 X8.6428 Y123.6410
G01 X8.7003 Y123.6000
G01 X8.7489 Y123.5642
G01 X8.8056 Y123.5211
G01 X8.8620 Y123.4768
G01 X8.9028 Y123.4441
G01 X8.9449 Y123.4093
G01 X8.9871 Y123.3734
G01 X9.0409 Y123.3265
G01 X9.0807 Y123.2909
G01 X9.1263 Y123.2489
G01 X9.1612 Y123.2159
G01 X9.2128 Y123.1662
G01 X9.2621 Y123.1170
G01 X9.2946 Y123.0837
G01 X9.3429 Y123.0328
G01 X9.3792 Y122.9936
G01 X9.4197 Y122.9487
G01 X9.4590 Y122.9039
G01 X9.4994 Y122.8568
G01 X9.5314 Y122.8185
G01 X9.5686 Y122.7728
G01 X9.6010 Y122.7318
G01 X9.6436 Y122.6766
G01 X9.6877 Y122.6176
G01 X9.7222 Y122.5699
G01 X9.7607 Y122.5151
G01 X9.8046 Y122.4508
G01 X9.8446 Y122.3897
G01 X9.8838 Y122.3279
G01 X9.9248 Y122.2605
G01 X21.1427 Y103.4751
G01 X24.6369 Y105.6103
G01 X13.7978 Y124.4167
G01 X13.7672 Y124.4708
G01 X13.7466 Y124.5080
G01 X13.7221 Y124.5536
G01 X13.6950 Y124.6055
G01 X6.5190 Y124.6055
G01 X6.5190 Y124.4376
G01 X6.0090 Y123.9522
G01 X6.0617 Y123.9525
G01 X6.1205 Y123.9518
G01 X6.1639 Y123.9507
G01 X6.2336 Y123.9480
G01 X6.2978 Y123.9444
G01 X6.3476 Y123.9410
G01 X6.4152 Y123.9353
G01 X6.4676 Y123.9302
G01 X6.5308 Y123.9229
G01 X6.5953 Y123.9144
G01 X6.6459 Y123.9071
G01 X6.7052 Y123.8977
G01 X6.7555 Y123.8889
G01 X6.8298 Y123.8749
G01 X6.8867 Y123.8631
G01 X6.9381 Y123.8517
G01 X7.0026 Y123.8363
G01 X7.0679 Y123.8197
G01 X7.1183 Y123.8060
G01 X7.1862 Y123.7866
G01 X7.2299 Y123.7734
G01 X7.2926 Y123.7534
G01 X7.3565 Y123.7318
G01 X7.4077 Y123.7137
G01 X7.4770 Y123.6879
G01 X7.5401 Y123.6632
G01 X7.5825 Y123.6460
G01 X7.6360 Y123.6233
G01 X7.6763 Y123.6055
G01 X7.7532 Y123.5703
G01 X7.8114 Y123.5422
G01 X7.8599 Y123.5180
G01 X7.9147 Y123.4898
G01 X7.9720 Y123.4590
G01 X8.0167 Y123.4340
G01 X8.0731 Y123.4015
G01 X8.1187 Y123.3744
G01 X8.1744 Y123.3401
G01 X8.2351 Y123.3013
G01 X8.2740 Y123.2757
G01 X8.3328 Y123.2355
G01 X8.3831 Y123.1999
G01 X8.4254 Y123.1691
G01 X8.4682 Y123.1371
G01 X8.5102 Y123.1047
G01 X8.5646 Y123.0617
G01 X8.6149 Y123.0204
G01 X8.6539 Y122.9873
G01 X8.7030 Y122.9445
G01 X8.7433 Y122.9083
G01 X8.7928 Y122.8625
G01 X8.8443 Y122.8132
G01 X8.8801 Y122.7779
G01 X8.9257 Y122.7315
G01 X8.9735 Y122.6811
G01 X9.0058 Y122.6461
G01 X9.0447 Y122.6030
G01 X9.0796 Y122.5630
G01 X9.1201 Y122.5155
G01 X9.1653 Y122.4605
G01 X9.1966 Y122.4210
G01 X9.2470 Y122.3556
G01 X9.2822 Y122.3080
G01 X9.3150 Y122.2624
G01 X9.3596 Y122.1985
G01 X9.3999 Y122.1381
G01 X9.4439 Y122.0694
G01 X9.4870 Y121.9991
G01 X20.9690 Y102.7713
G01 X25.3270 Y105.4343
G01 X14.2391 Y124.6723
G01 X14.2070 Y124.7292
G01 X14.1792 Y124.7804
G01 X14.1506 Y124.8347
G01 X14.1260 Y124.8834
G01 X14.0933 Y124.9509
G01 X14.0701 Y125.0005
G01 X14.0456 Y125.0550
G01 X14.0379 Y125.0726
G01 X14.0374 Y125.0736
G01 X14.0360 Y125.0769
G01 X14.0348 Y125.0798
G01 X14.0317 Y125.0869
G01 X14.0196 Y125.1155
G01 X6.0090 Y125.1155
G01 X6.0090 Y123.9522
G01 X5.4990 Y123.3995
G01 X5.5514 Y123.4074
G01 X5.6090 Y123.4152
G01 X5.6844 Y123.4238
G01 X5.7291 Y123.4282
G01 X5.7909 Y123.4333
G01 X5.8536 Y123.4372
G01 X5.9054 Y123.4396
G01 X5.9712 Y123.4416
G01 X6.0379 Y123.4425
G01 X6.0983 Y123.4421
G01 X6.1432 Y123.4411
G01 X6.2091 Y123.4386
G01 X6.2717 Y123.4351
G01 X6.3242 Y123.4312
G01 X6.3945 Y123.4250
G01 X6.4545 Y123.4185
G01 X6.5291 Y123.4087
G01 X6.5812 Y123.4011
G01 X6.6431 Y123.3909
G01 X6.7125 Y123.3782
G01 X6.7732 Y123.3659
G01 X6.8156 Y123.3565
G01 X6.8790 Y123.3416
G01 X6.9382 Y123.3265
G01 X6.9868 Y123.3132
G01 X7.0472 Y123.2959
G01 X7.1034 Y123.2786
G01 X7.1491 Y123.2636
G01 X7.2187 Y123.2397
G01 X7.2747 Y123.2192
G01 X7.3520 Y123.1891
G01 X7.3936 Y123.1722
G01 X7.4506 Y123.1477
G01 X7.5078 Y123.1219
G01 X7.5548 Y123.0999
G01 X7.6139 Y123.0709
G01 X7.6760 Y123.0391
G01 X7.7305 Y123.0097
G01 X7.7697 Y122.9878
G01 X7.8354 Y122.9496
G01 X7.8791 Y122.9231
G01 X7.9238 Y122.8951
G01 X7.9817 Y122.8576
G01 X8.0317 Y122.8237
G01 X8.0893 Y122.7830
G01 X8.1318 Y122.7519
G01 X8.1824 Y122.7136
G01 X8.2336 Y122.6734
G01 X8.2685 Y122.6451
G01 X8.3160 Y122.6053
G01 X8.3668 Y122.5609
G01 X8.4134 Y122.5189
G01 X8.4519 Y122.4829
G01 X8.4971 Y122.4394
G01 X8.5388 Y122.3978
G01 X8.5722 Y122.3633
G01 X8.6141 Y122.3187
G01 X8.6579 Y122.2705
G01 X8.6915 Y122.2320
G01 X8.7397 Y122.1753
G01 X8.7759 Y122.1309
G01 X8.8212 Y122.0729
G01 X8.8530 Y122.0308
G01 X8.8886 Y121.9820
G01 X8.9314 Y121.9211
G01 X8.9697 Y121.8643
G01 X9.0096 Y121.8020
G01 X9.0491 Y121.7376
G01 X20.7953 Y102.0674
G01 X26.0171 Y105.2583
G01 X14.6781 Y124.9320
G01 X14.6532 Y124.9763
G01 X14.6320 Y125.0151
G01 X14.6086 Y125.0594
G01 X14.5873 Y125.1012
G01 X14.5458 Y125.1868
G01 X14.5298 Y125.2216
G01 X14.5065 Y125.2738
G01 X14.4703 Y125.3596
G01 X14.4525 Y125.4047
G01 X14.4407 Y125.4354
G01 X14.4208 Y125.4898
G01 X14.4060 Y125.5318
G01 X14.4032 Y125.5400
G01 X14.4029 Y125.5407
G01 X14.3967 Y125.5592
G01 X14.3959 Y125.5614
G01 X14.3897 Y125.5800
G01 X14.3752 Y125.6255
G01 X5.4990 Y125.6255
G01 X5.4990 Y123.3995
G01 X4.9890 Y122.7397
G01 X5.0538 Y122.7633
G01 X5.1059 Y122.7811
G01 X5.1746 Y122.8029
G01 X5.2310 Y122.8196
G01 X5.3022 Y122.8386
G01 X5.3458 Y122.8495
G01 X5.4008 Y122.8622
G01 X5.4653 Y122.8757
G01 X5.5262 Y122.8872
G01 X5.5913 Y122.8978
G01 X5.6549 Y122.9069
G01 X5.6995 Y122.9124
G01 X5.7650 Y122.9194
G01 X5.8144 Y122.9236
G01 X5.8879 Y122.9283
G01 X5.9459 Y122.9308
G01 X5.9924 Y122.9319
G01 X6.0644 Y122.9325
G01 X6.1202 Y122.9315
G01 X6.1830 Y122.9292
G01 X6.2487 Y122.9255
G01 X6.3205 Y122.9197
G01 X6.3575 Y122.9161
G01 X6.4160 Y122.9093
G01 X6.4859 Y122.8997
G01 X6.5402 Y122.8911
G01 X6.6111 Y122.8783
G01 X6.6688 Y122.8667
G01 X6.7406 Y122.8503
G01 X6.7843 Y122.8395
G01 X6.8389 Y122.8250
G01 X6.9022 Y122.8069
G01 X6.9614 Y122.7885
G01 X7.0239 Y122.7675
G01 X7.0844 Y122.7459
G01 X7.1264 Y122.7299
G01 X7.1876 Y122.7055
G01 X7.2332 Y122.6862
G01 X7.3004 Y122.6560
G01 X7.3528 Y122.6311
G01 X7.3945 Y122.6104
G01 X7.4584 Y122.5772
G01 X7.5073 Y122.5503
G01 X7.5617 Y122.5189
G01 X7.6181 Y122.4849
G01 X7.6789 Y122.4463
G01 X7.7100 Y122.4258
G01 X7.7585 Y122.3925
G01 X7.8158 Y122.3513
G01 X7.8598 Y122.3184
G01 X7.9165 Y122.2739
G01 X7.9621 Y122.2366
G01 X8.0179 Y122.1886
G01 X8.0515 Y122.1587
G01 X8.0930 Y122.1204
G01 X8.1406 Y122.0748
G01 X8.1843 Y122.0309
G01 X8.2297 Y121.9831
G01 X8.2731 Y121.9357
G01 X8.3028 Y121.9020
G01 X8.3455 Y121.8518
G01 X8.3768 Y121.8134
G01 X8.4221 Y121.7553
G01 X8.4587 Y121.7063
G01 X8.5058 Y121.6399
G01 X8.5371 Y121.5938
G01 X8.5757 Y121.5339
G01 X8.6112 Y121.4761
G01 X20.6216 Y101.3636
G01 X26.7071 Y105.0823
G01 X15.1159 Y125.1938
G01 X15.0848 Y125.2499
G01 X15.0558 Y125.3049
G01 X15.0327 Y125.3511
G01 X14.9997 Y125.4204
G01 X14.9731 Y125.4796
G01 X14.9472 Y125.5409
G01 X14.9241 Y125.5990
G01 X14.9021 Y125.6585
G01 X14.8860 Y125.7043
G01 X14.8656 Y125.7659
G01 X14.8461 Y125.8295
G01 X14.8291 Y125.8897
G01 X14.8124 Y125.9542
G01 X14.7989 Y126.0112
G01 X14.7909 Y126.0479
G01 X14.7896 Y126.0540
G01 X14.7821 Y126.0901
G01 X14.7734 Y126.1355
G01 X4.9890 Y126.1355
G01 X4.9890 Y122.7397
G00 Z0.5000
M05
G00 Z0.5000
G00 Z2.00
G00 X0.0 Y0.0

