(G-CODE GENERATED BY FLATCAM v8.991 - www.flatcam.org - Version Date: 2019/12/30)

(Name: Cncjob_Top_Copper_pyramidal)
(Type: G-code from Geometry)
(Units: MM)

(Created on Monday, 13 November 2023 at 17:34)

(TOOL DIAMETER: 0.199 mm)
(Feedrate: 2500.0 mm/min)
(Feedrate_Z: 250.0 mm/min)
(Feedrate rapids 1500.0 mm/min)

(Z_Cut: -0.04 mm)
(Z_Move: 0.5 mm)
(Z Toolchange: 15.0 mm)
(X,Y Toolchange: 0.0000, 0.0000 mm)
(Z Start: 0.5 mm)
(Z End: 2.0 mm)
(Steps per circle: 64)
(Preprocessor Geometry: default)

(X range:    2.0995 ...  112.0324  mm)
(Y range:    2.0995 ...  129.0250  mm)

(Spindle Speed: None RPM)
G21
G90
G94




G01 F2500.00
G00 Z0.5000
G00 Z0.5000
M03
G4 P1.0
G00 X2.0995 Y2.0995
G01 F250.00
G01 Z-0.0400
G01 F2500.00
G01 X2.0995 Y13.2370
G01 X5.9667 Y11.0312
G01 X5.9751 Y11.0274
G01 X5.9838 Y11.0244
G01 X5.9928 Y11.0222
G01 X6.0019 Y11.0209
G01 X6.0112 Y11.0204
G01 X6.0204 Y11.0207
G01 X6.0295 Y11.0219
G01 X6.0385 Y11.0240
G01 X6.2099 Y11.0802
G01 X6.2225 Y11.0861
G01 X6.2310 Y11.0913
G01 X6.2416 Y11.0997
G01 X6.2509 Y11.1095
G01 X6.2571 Y11.1178
G01 X6.2617 Y11.1253
G01 X18.1042 Y32.6700
G01 X30.3024 Y26.1903
G01 X17.9826 Y4.2903
G01 X17.9764 Y4.2771
G01 X17.9734 Y4.2679
G01 X17.9713 Y4.2584
G01 X17.9701 Y4.2487
G01 X17.9698 Y4.2434
G01 X17.9706 Y4.2293
G01 X17.9722 Y4.2197
G01 X17.9748 Y4.2104
G01 X17.9766 Y4.2054
G01 X17.9806 Y4.1965
G01 X17.9849 Y4.1889
G01 X17.9909 Y4.1803
G01 X17.9974 Y4.1728
G01 X18.0034 Y4.1670
G01 X18.0120 Y4.1602
G01 X18.0185 Y4.1560
G01 X21.6216 Y2.0995
G01 X2.0995 Y2.0995
G01 X2.1672 Y2.1672
G01 X2.1672 Y2.9964
G01 X2.1686 Y2.9823
G01 X2.1800 Y2.9062
G01 X2.1826 Y2.8934
G01 X2.2005 Y2.8220
G01 X2.2052 Y2.8063
G01 X2.2300 Y2.7370
G01 X2.2363 Y2.7219
G01 X2.2678 Y2.6553
G01 X2.2739 Y2.6437
G01 X2.3134 Y2.5777
G01 X2.3206 Y2.5668
G01 X2.3663 Y2.5050
G01 X2.3746 Y2.4948
G01 X2.4262 Y2.4378
G01 X2.4353 Y2.4284
G01 X2.4948 Y2.3746
G01 X2.5050 Y2.3663
G01 X2.5668 Y2.3206
G01 X2.5777 Y2.3134
G01 X2.6437 Y2.2739
G01 X2.6553 Y2.2678
G01 X2.7219 Y2.2363
G01 X2.7370 Y2.2300
G01 X2.8063 Y2.2052
G01 X2.8220 Y2.2005
G01 X2.8934 Y2.1826
G01 X2.9062 Y2.1800
G01 X2.9823 Y2.1686
G01 X2.9964 Y2.1672
G01 X2.1672 Y2.1672
G01 X2.2348 Y2.2348
G01 X2.2348 Y2.5772
G01 X2.2562 Y2.5415
G01 X2.2652 Y2.5278
G01 X2.3130 Y2.4633
G01 X2.3266 Y2.4468
G01 X2.3760 Y2.3923
G01 X2.3875 Y2.3806
G01 X2.4468 Y2.3266
G01 X2.4633 Y2.3130
G01 X2.5278 Y2.2652
G01 X2.5415 Y2.2562
G01 X2.5772 Y2.2348
G01 X2.2348 Y2.2348
G01 X2.3025 Y2.3025
G01 X2.3025 Y2.3727
G01 X2.3276 Y2.3450
G01 X2.3397 Y2.3328
G01 X2.3727 Y2.3025
G01 X2.3025 Y2.3025
G00 Z0.5000
G00 X3.0755 Y2.2310
G01 F250.00
G01 Z-0.0400
G01 F2500.00
G01 X17.9244 Y2.2308
G01 X18.0020 Y2.2345
G01 X18.0116 Y2.2354
G01 X18.0836 Y2.2460
G01 X18.0931 Y2.2479
G01 X18.1638 Y2.2654
G01 X18.1731 Y2.2682
G01 X18.2417 Y2.2925
G01 X18.2507 Y2.2961
G01 X18.3167 Y2.3269
G01 X18.3252 Y2.3315
G01 X18.3879 Y2.3685
G01 X18.3960 Y2.3739
G01 X18.4547 Y2.4169
G01 X18.4623 Y2.4229
G01 X18.5166 Y2.4714
G01 X18.5235 Y2.4782
G01 X18.5729 Y2.5317
G01 X18.5791 Y2.5391
G01 X18.6230 Y2.5972
G01 X18.6285 Y2.6052
G01 X18.6666 Y2.6673
G01 X18.6712 Y2.6757
G01 X18.7031 Y2.7412
G01 X18.7070 Y2.7501
G01 X18.7324 Y2.8183
G01 X18.7353 Y2.8275
G01 X18.7540 Y2.8979
G01 X18.7560 Y2.9074
G01 X18.7678 Y2.9793
G01 X18.7688 Y2.9889
G01 X18.7736 Y3.0615
G01 X18.7737 Y3.0712
G01 X18.7714 Y3.1440
G01 X18.7706 Y3.1536
G01 X18.7612 Y3.2258
G01 X18.7595 Y3.2354
G01 X18.7432 Y3.3063
G01 X18.7406 Y3.3156
G01 X18.7174 Y3.3847
G01 X18.7139 Y3.3937
G01 X18.6841 Y3.4602
G01 X18.6798 Y3.4688
G01 X18.6437 Y3.5321
G01 X18.6385 Y3.5402
G01 X18.5965 Y3.5997
G01 X18.5906 Y3.6073
G01 X18.5430 Y3.6624
G01 X18.5363 Y3.6694
G01 X18.4836 Y3.7197
G01 X18.4763 Y3.7260
G01 X18.4189 Y3.7709
G01 X18.4111 Y3.7765
G01 X18.3496 Y3.8156
G01 X17.9555 Y4.0408
G01 X17.9386 Y4.0519
G01 X17.9185 Y4.0676
G01 X17.9023 Y4.0831
G01 X17.8876 Y4.1002
G01 X17.8747 Y4.1186
G01 X17.8636 Y4.1382
G01 X17.8545 Y4.1588
G01 X17.8474 Y4.1802
G01 X17.8425 Y4.2021
G01 X17.8397 Y4.2245
G01 X17.8392 Y4.2470
G01 X17.8408 Y4.2694
G01 X17.8446 Y4.2916
G01 X17.8506 Y4.3133
G01 X17.8596 Y4.3369
G01 X17.8707 Y4.3593
G01 X29.6953 Y25.3789
G01 X29.7310 Y25.4502
G01 X29.7349 Y25.4593
G01 X29.7615 Y25.5291
G01 X29.7645 Y25.5386
G01 X29.7840 Y25.6107
G01 X29.7861 Y25.6204
G01 X29.7982 Y25.6941
G01 X29.7994 Y25.7040
G01 X29.8041 Y25.7786
G01 X29.8043 Y25.7885
G01 X29.8016 Y25.8632
G01 X29.8007 Y25.8731
G01 X29.7907 Y25.9471
G01 X29.7888 Y25.9568
G01 X29.7714 Y26.0295
G01 X29.7686 Y26.0390
G01 X29.7441 Y26.1096
G01 X29.7403 Y26.1188
G01 X29.7089 Y26.1866
G01 X29.7043 Y26.1954
G01 X29.6662 Y26.2597
G01 X29.6607 Y26.2679
G01 X29.6165 Y26.3282
G01 X29.6102 Y26.3358
G01 X29.5602 Y26.3914
G01 X29.5532 Y26.3984
G01 X29.4979 Y26.4486
G01 X29.4902 Y26.4549
G01 X29.4302 Y26.4994
G01 X29.4219 Y26.5049
G01 X29.3534 Y26.5457
G01 X18.8922 Y32.1025
G01 X18.8262 Y32.1336
G01 X18.8172 Y32.1373
G01 X18.7485 Y32.1618
G01 X18.7393 Y32.1646
G01 X18.6685 Y32.1822
G01 X18.6590 Y32.1841
G01 X18.5869 Y32.1949
G01 X18.5773 Y32.1958
G01 X18.5044 Y32.1995
G01 X18.4947 Y32.1995
G01 X18.4219 Y32.1961
G01 X18.4123 Y32.1952
G01 X18.3401 Y32.1847
G01 X18.3306 Y32.1829
G01 X18.2598 Y32.1655
G01 X18.2505 Y32.1627
G01 X18.1817 Y32.1385
G01 X18.1727 Y32.1348
G01 X18.1066 Y32.1040
G01 X18.0981 Y32.0995
G01 X18.0353 Y32.0624
G01 X18.0272 Y32.0571
G01 X17.9683 Y32.0141
G01 X17.9607 Y32.0081
G01 X17.9063 Y31.9595
G01 X17.8994 Y31.9528
G01 X17.8499 Y31.8992
G01 X17.8437 Y31.8918
G01 X17.7996 Y31.8336
G01 X17.7942 Y31.8257
G01 X17.7535 Y31.7594
G01 X6.3792 Y11.0664
G01 X6.3667 Y11.0462
G01 X6.3520 Y11.0266
G01 X6.3375 Y11.0106
G01 X6.3215 Y10.9960
G01 X6.3043 Y10.9830
G01 X6.2859 Y10.9717
G01 X6.2641 Y10.9609
G01 X6.2417 Y10.9523
G01 X6.0886 Y10.9021
G01 X6.0659 Y10.8959
G01 X6.0421 Y10.8916
G01 X6.0208 Y10.8898
G01 X5.9994 Y10.8899
G01 X5.9782 Y10.8921
G01 X5.9572 Y10.8962
G01 X5.9367 Y10.9022
G01 X5.9144 Y10.9111
G01 X5.8933 Y10.9218
G01 X3.5012 Y12.2863
G01 X3.4303 Y12.3223
G01 X3.4213 Y12.3263
G01 X3.3518 Y12.3532
G01 X3.3424 Y12.3563
G01 X3.2705 Y12.3762
G01 X3.2608 Y12.3784
G01 X3.1873 Y12.3910
G01 X3.1775 Y12.3922
G01 X3.1031 Y12.3974
G01 X3.0932 Y12.3977
G01 X3.0186 Y12.3955
G01 X3.0088 Y12.3947
G01 X2.9348 Y12.3852
G01 X2.9251 Y12.3834
G01 X2.8524 Y12.3666
G01 X2.8429 Y12.3639
G01 X2.7723 Y12.3399
G01 X2.7631 Y12.3363
G01 X2.6952 Y12.3054
G01 X2.6864 Y12.3009
G01 X2.6219 Y12.2634
G01 X2.6136 Y12.2580
G01 X2.5531 Y12.2143
G01 X2.5454 Y12.2082
G01 X2.4896 Y12.1587
G01 X2.4825 Y12.1518
G01 X2.4319 Y12.0970
G01 X2.4256 Y12.0894
G01 X2.3806 Y12.0299
G01 X2.3751 Y12.0217
G01 X2.3363 Y11.9580
G01 X2.3315 Y11.9493
G01 X2.2992 Y11.8821
G01 X2.2954 Y11.8730
G01 X2.2700 Y11.8028
G01 X2.2671 Y11.7934
G01 X2.2487 Y11.7211
G01 X2.2467 Y11.7114
G01 X2.2357 Y11.6376
G01 X2.2347 Y11.6278
G01 X2.2308 Y11.5484
G01 X2.2308 Y3.0803
G01 X2.2346 Y3.0019
G01 X2.2355 Y2.9922
G01 X2.2463 Y2.9194
G01 X2.2482 Y2.9098
G01 X2.2661 Y2.8385
G01 X2.2690 Y2.8291
G01 X2.2937 Y2.7598
G01 X2.2975 Y2.7508
G01 X2.3290 Y2.6843
G01 X2.3336 Y2.6756
G01 X2.3714 Y2.6125
G01 X2.3768 Y2.6044
G01 X2.4207 Y2.5453
G01 X2.4269 Y2.5377
G01 X2.4763 Y2.4832
G01 X2.4832 Y2.4763
G01 X2.5377 Y2.4269
G01 X2.5453 Y2.4207
G01 X2.6044 Y2.3768
G01 X2.6125 Y2.3714
G01 X2.6756 Y2.3336
G01 X2.6843 Y2.3290
G01 X2.7508 Y2.2975
G01 X2.7598 Y2.2937
G01 X2.8291 Y2.2690
G01 X2.8385 Y2.2661
G01 X2.9098 Y2.2482
G01 X2.9194 Y2.2463
G01 X2.9922 Y2.2355
G01 X3.0019 Y2.2346
G01 X3.0755 Y2.2310
G00 Z0.5000
G00 X2.2348 Y12.0516
G01 F250.00
G01 Z-0.0400
G01 F2500.00
G01 X2.2348 Y13.0041
G01 X3.0622 Y12.5321
G01 X3.0147 Y12.5308
G01 X2.9982 Y12.5296
G01 X2.9158 Y12.5192
G01 X2.8945 Y12.5153
G01 X2.8219 Y12.4984
G01 X2.8042 Y12.4936
G01 X2.7994 Y12.4920
G01 X2.7288 Y12.4681
G01 X2.7071 Y12.4595
G01 X2.6392 Y12.4286
G01 X2.6243 Y12.4211
G01 X2.5539 Y12.3804
G01 X2.5343 Y12.3677
G01 X2.4685 Y12.3199
G01 X2.4557 Y12.3094
G01 X2.3998 Y12.2600
G01 X2.3843 Y12.2448
G01 X2.3325 Y12.1889
G01 X2.3176 Y12.1709
G01 X2.2687 Y12.1059
G01 X2.2595 Y12.0921
G01 X2.2348 Y12.0516
G01 X2.3025 Y12.2560
G01 X2.3025 Y12.8876
G01 X2.8511 Y12.5747
G01 X2.8041 Y12.5637
G01 X2.7841 Y12.5581
G01 X2.7062 Y12.5319
G01 X2.6876 Y12.5247
G01 X2.6791 Y12.5211
G01 X2.6112 Y12.4902
G01 X2.6021 Y12.4858
G01 X2.5852 Y12.4768
G01 X2.5199 Y12.4389
G01 X2.5113 Y12.4336
G01 X2.4947 Y12.4225
G01 X2.4336 Y12.3784
G01 X2.4159 Y12.3644
G01 X2.3482 Y12.3043
G01 X2.3341 Y12.2902
G01 X2.3025 Y12.2560
G01 X2.3701 Y12.4143
G01 X2.3701 Y12.7711
G01 X2.6800 Y12.5943
G01 X2.6526 Y12.5833
G01 X2.5741 Y12.5474
G01 X2.5519 Y12.5357
G01 X2.5505 Y12.5349
G01 X2.4860 Y12.4974
G01 X2.4745 Y12.4904
G01 X2.4554 Y12.4776
G01 X2.3919 Y12.4317
G01 X2.3701 Y12.4143
G01 X2.4378 Y12.5472
G01 X2.4378 Y12.6546
G01 X2.5311 Y12.6014
G01 X2.5170 Y12.5937
G01 X2.4520 Y12.5559
G01 X2.4378 Y12.5472
G01 X3.4601 Y12.3830
G01 X3.4457 Y12.3894
G01 X3.3762 Y12.4163
G01 X3.3636 Y12.4206
G01 X3.2885 Y12.4414
G01 X3.2723 Y12.4450
G01 X3.1988 Y12.4577
G01 X3.1856 Y12.4594
G01 X3.1079 Y12.4649
G01 X3.0912 Y12.4653
G01 X3.0133 Y12.4630
G01 X3.0001 Y12.4618
G01 X2.9262 Y12.4523
G01 X2.9131 Y12.4500
G01 X2.8371 Y12.4325
G01 X2.8212 Y12.4280
G01 X2.7505 Y12.4040
G01 X2.7351 Y12.3979
G01 X2.6672 Y12.3670
G01 X2.6554 Y12.3610
G01 X2.5879 Y12.3219
G01 X2.5740 Y12.3129
G01 X2.5108 Y12.2671
G01 X2.5005 Y12.2588
G01 X2.4447 Y12.2093
G01 X2.4352 Y12.2001
G01 X2.3822 Y12.1429
G01 X2.3737 Y12.1328
G01 X2.3266 Y12.0706
G01 X2.3173 Y12.0569
G01 X2.2785 Y11.9932
G01 X2.2721 Y11.9816
G01 X2.2383 Y11.9114
G01 X2.2318 Y11.8960
G01 X2.2064 Y11.8259
G01 X2.2015 Y11.8100
G01 X2.1824 Y11.7345
G01 X2.1798 Y11.7215
G01 X2.1687 Y11.6477
G01 X2.1672 Y11.6320
G01 X2.1672 Y13.1206
G01 X3.4601 Y12.3830
G00 Z0.5000
G00 X5.3053 Y16.8575
G01 F250.00
G01 Z-0.0400
G01 F2500.00
G01 X5.2984 Y16.8506
G01 X5.2128 Y16.7561
G01 X5.1340 Y16.6497
G01 X5.0659 Y16.5362
G01 X5.0093 Y16.4165
G01 X4.9647 Y16.2918
G01 X4.9325 Y16.1634
G01 X4.9131 Y16.0324
G01 X4.9066 Y15.9002
G01 X4.9131 Y15.7679
G01 X4.9325 Y15.6369
G01 X4.9647 Y15.5085
G01 X5.0093 Y15.3838
G01 X5.0659 Y15.2642
G01 X5.1340 Y15.1506
G01 X5.2128 Y15.0442
G01 X5.3018 Y14.9461
G01 X5.3999 Y14.8572
G01 X5.5062 Y14.7783
G01 X5.6198 Y14.7103
G01 X5.7395 Y14.6537
G01 X5.8641 Y14.6091
G01 X5.9926 Y14.5769
G01 X6.1235 Y14.5575
G01 X6.2558 Y14.5510
G01 X6.3880 Y14.5575
G01 X6.5190 Y14.5769
G01 X6.6474 Y14.6091
G01 X6.7721 Y14.6537
G01 X6.8918 Y14.7103
G01 X7.0053 Y14.7783
G01 X7.1117 Y14.8572
G01 X7.2098 Y14.9461
G01 X7.2987 Y15.0442
G01 X7.3776 Y15.1506
G01 X7.4456 Y15.2642
G01 X7.5023 Y15.3838
G01 X7.5469 Y15.5085
G01 X7.5790 Y15.6369
G01 X7.5985 Y15.7679
G01 X7.6050 Y15.9002
G01 X7.5985 Y16.0324
G01 X7.5790 Y16.1634
G01 X7.5469 Y16.2918
G01 X7.5023 Y16.4165
G01 X7.4456 Y16.5362
G01 X7.3776 Y16.6497
G01 X7.2987 Y16.7561
G01 X7.2098 Y16.8542
G01 X7.1117 Y16.9431
G01 X7.0053 Y17.0220
G01 X6.8918 Y17.0900
G01 X6.7721 Y17.1466
G01 X6.6474 Y17.1912
G01 X6.5190 Y17.2234
G01 X6.3880 Y17.2428
G01 X6.2558 Y17.2493
G01 X6.1235 Y17.2428
G01 X5.9926 Y17.2234
G01 X5.8641 Y17.1912
G01 X5.7395 Y17.1466
G01 X5.6198 Y17.0900
G01 X5.5062 Y17.0220
G01 X5.4000 Y16.9432
G01 X5.3053 Y16.8575
G00 Z0.5000
G00 X5.2596 Y16.9074
G01 F250.00
G01 Z-0.0400
G01 F2500.00
G01 X5.2483 Y16.8961
G01 X5.1611 Y16.7996
G01 X5.0782 Y16.6880
G01 X5.0066 Y16.5687
G01 X4.9469 Y16.4426
G01 X4.8999 Y16.3114
G01 X4.8660 Y16.1759
G01 X4.8458 Y16.0393
G01 X4.8389 Y15.9008
G01 X4.8457 Y15.7615
G01 X4.8661 Y15.6242
G01 X4.9002 Y15.4882
G01 X4.9471 Y15.3573
G01 X5.0061 Y15.2326
G01 X5.0774 Y15.1134
G01 X5.1604 Y15.0015
G01 X5.2536 Y14.8986
G01 X5.3570 Y14.8049
G01 X5.4689 Y14.7219
G01 X5.5880 Y14.6506
G01 X5.7131 Y14.5914
G01 X5.8445 Y14.5443
G01 X5.9798 Y14.5104
G01 X6.1165 Y14.4902
G01 X6.2549 Y14.4833
G01 X6.3950 Y14.4902
G01 X6.5317 Y14.5104
G01 X6.6670 Y14.5443
G01 X6.7984 Y14.5914
G01 X6.9236 Y14.6506
G01 X7.0426 Y14.7219
G01 X7.1546 Y14.8049
G01 X7.2573 Y14.8980
G01 X7.3512 Y15.0015
G01 X7.4341 Y15.1134
G01 X7.5055 Y15.2326
G01 X7.5645 Y15.3573
G01 X7.6114 Y15.4882
G01 X7.6455 Y15.6242
G01 X7.6658 Y15.7615
G01 X7.6726 Y15.9002
G01 X7.6658 Y16.0387
G01 X7.6455 Y16.1759
G01 X7.6116 Y16.3114
G01 X7.5647 Y16.4426
G01 X7.5050 Y16.5687
G01 X7.4341 Y16.6869
G01 X7.3515 Y16.7983
G01 X7.2579 Y16.9017
G01 X7.1546 Y16.9954
G01 X7.0435 Y17.0779
G01 X6.9244 Y17.1493
G01 X6.7987 Y17.2088
G01 X6.6670 Y17.2560
G01 X6.5329 Y17.2896
G01 X6.3955 Y17.3101
G01 X6.2566 Y17.3170
G01 X6.1177 Y17.3102
G01 X5.9802 Y17.2899
G01 X5.8445 Y17.2560
G01 X5.7143 Y17.2095
G01 X5.5886 Y17.1501
G01 X5.4693 Y17.0787
G01 X5.3571 Y16.9955
G01 X5.2596 Y16.9074
G00 Z0.5000
G00 X6.4018 Y17.3814
G01 F250.00
G01 Z-0.0400
G01 F2500.00
G01 X6.6869 Y17.3244
G01 X6.9566 Y17.2125
G01 X7.2010 Y17.0503
G01 X7.4062 Y16.8451
G01 X7.5681 Y16.6034
G01 X7.6800 Y16.3315
G01 X7.7371 Y16.0462
G01 X7.7371 Y15.7540
G01 X7.6800 Y15.4663
G01 X7.5682 Y15.1972
G01 X7.4059 Y14.9548
G01 X7.2006 Y14.7472
G01 X6.9566 Y14.5853
G01 X6.6869 Y14.4733
G01 X6.4018 Y14.4163
G01 X6.1096 Y14.4163
G01 X5.8220 Y14.4734
G01 X5.5528 Y14.5852
G01 X5.3108 Y14.7472
G01 X5.1029 Y14.9552
G01 X4.9408 Y15.1972
G01 X4.8290 Y15.4663
G01 X4.7719 Y15.7540
G01 X4.7719 Y16.0462
G01 X4.8290 Y16.3315
G01 X4.9409 Y16.6034
G01 X5.1026 Y16.8447
G01 X5.3105 Y17.0503
G01 X5.5528 Y17.2126
G01 X5.8220 Y17.3244
G01 X6.1096 Y17.3814
G01 X6.4018 Y17.3814
G01 X6.4085 Y17.4491
G01 X6.7067 Y17.3895
G01 X6.9885 Y17.2724
G01 X7.2440 Y17.1029
G01 X7.4587 Y16.8882
G01 X7.6281 Y16.6354
G01 X7.7451 Y16.3512
G01 X7.8047 Y16.0529
G01 X7.8047 Y15.7474
G01 X7.7451 Y15.4466
G01 X7.6281 Y15.1651
G01 X7.4585 Y14.9118
G01 X7.2438 Y14.6947
G01 X6.9885 Y14.5253
G01 X6.7067 Y14.4083
G01 X6.4085 Y14.3487
G01 X6.1030 Y14.3487
G01 X5.8022 Y14.4083
G01 X5.5207 Y14.5252
G01 X5.2677 Y14.6947
G01 X5.0503 Y14.9121
G01 X4.8809 Y15.1651
G01 X4.7640 Y15.4466
G01 X4.7043 Y15.7474
G01 X4.7043 Y16.0529
G01 X4.7640 Y16.3512
G01 X4.8810 Y16.6354
G01 X5.0502 Y16.8880
G01 X5.2675 Y17.1029
G01 X5.5207 Y17.2725
G01 X5.8022 Y17.3894
G01 X6.1030 Y17.4491
G01 X6.4085 Y17.4491
G00 Z0.5000
G00 X7.0075 Y28.2503
G01 F250.00
G01 Z-0.0400
G01 F2500.00
G01 X7.0006 Y28.2434
G01 X6.9315 Y28.1670
G01 X6.8673 Y28.0804
G01 X6.8118 Y27.9879
G01 X6.7677 Y27.8949
G01 X6.7640 Y27.8859
G01 X6.7309 Y27.7935
G01 X6.7281 Y27.7842
G01 X6.7032 Y27.6843
G01 X6.6879 Y27.5824
G01 X6.6870 Y27.5727
G01 X6.6821 Y27.4699
G01 X6.6873 Y27.3621
G01 X6.7032 Y27.2554
G01 X6.7281 Y27.1555
G01 X6.7309 Y27.1462
G01 X6.7657 Y27.0493
G01 X6.8096 Y26.9562
G01 X6.8142 Y26.9475
G01 X6.8647 Y26.8634
G01 X6.8701 Y26.8553
G01 X6.9315 Y26.7727
G01 X7.0039 Y26.6927
G01 X7.0840 Y26.6202
G01 X7.1665 Y26.5589
G01 X7.1725 Y26.5547
G01 X7.2630 Y26.5006
G01 X7.3560 Y26.4565
G01 X7.3650 Y26.4528
G01 X7.4620 Y26.4182
G01 X7.5619 Y26.3930
G01 X7.5715 Y26.3911
G01 X7.6709 Y26.3764
G01 X7.6782 Y26.3758
G01 X7.7798 Y26.3709
G01 X8.2826 Y26.3709
G01 X8.3891 Y26.3762
G01 X8.4910 Y26.3911
G01 X8.5006 Y26.3930
G01 X8.6004 Y26.4182
G01 X8.7020 Y26.4545
G01 X8.7995 Y26.5006
G01 X8.8919 Y26.5560
G01 X8.9786 Y26.6203
G01 X9.0585 Y26.6927
G01 X9.1311 Y26.7728
G01 X9.1924 Y26.8553
G01 X9.1965 Y26.8613
G01 X9.2507 Y26.9518
G01 X9.2968 Y27.0493
G01 X9.3331 Y27.1508
G01 X9.3593 Y27.2554
G01 X9.3751 Y27.3621
G01 X9.3804 Y27.4699
G01 X9.3751 Y27.5776
G01 X9.3593 Y27.6843
G01 X9.3331 Y27.7889
G01 X9.2968 Y27.8904
G01 X9.2507 Y27.9879
G01 X9.1952 Y28.0804
G01 X9.1310 Y28.1670
G01 X9.0585 Y28.2470
G01 X8.9786 Y28.3194
G01 X8.8960 Y28.3808
G01 X8.8899 Y28.3850
G01 X8.7995 Y28.4391
G01 X8.7065 Y28.4832
G01 X8.6974 Y28.4869
G01 X8.6004 Y28.5215
G01 X8.5006 Y28.5467
G01 X8.4910 Y28.5486
G01 X8.3940 Y28.5630
G01 X8.3843 Y28.5639
G01 X8.2814 Y28.5688
G01 X7.7798 Y28.5688
G01 X7.6760 Y28.5638
G01 X7.6685 Y28.5630
G01 X7.5666 Y28.5477
G01 X7.4667 Y28.5228
G01 X7.4574 Y28.5200
G01 X7.3650 Y28.4869
G01 X7.3560 Y28.4832
G01 X7.2630 Y28.4391
G01 X7.1705 Y28.3836
G01 X7.0840 Y28.3195
G01 X7.0075 Y28.2503
G00 Z0.5000
G00 X6.9617 Y28.3002
G01 F250.00
G01 Z-0.0400
G01 F2500.00
G01 X6.9504 Y28.2889
G01 X6.8797 Y28.2106
G01 X6.8115 Y28.1187
G01 X6.7525 Y28.0204
G01 X6.7065 Y27.9238
G01 X6.7005 Y27.9095
G01 X6.6649 Y27.8093
G01 X6.6386 Y27.7055
G01 X6.6354 Y27.6894
G01 X6.6209 Y27.5916
G01 X6.6194 Y27.5760
G01 X6.6144 Y27.4692
G01 X6.6200 Y27.3552
G01 X6.6367 Y27.2429
G01 X6.6646 Y27.1312
G01 X6.7033 Y27.0232
G01 X6.7525 Y26.9193
G01 X6.8115 Y26.8210
G01 X6.8742 Y26.7362
G01 X6.8819 Y26.7266
G01 X6.9558 Y26.6452
G01 X7.0410 Y26.5680
G01 X7.1324 Y26.5002
G01 X7.2240 Y26.4450
G01 X7.2384 Y26.4373
G01 X7.3278 Y26.3950
G01 X7.3422 Y26.3891
G01 X7.4426 Y26.3534
G01 X7.5505 Y26.3262
G01 X7.5615 Y26.3242
G01 X7.6659 Y26.3089
G01 X7.7753 Y26.3033
G01 X8.2859 Y26.3033
G01 X8.3950 Y26.3087
G01 X8.5009 Y26.3242
G01 X8.5170 Y26.3274
G01 X8.6122 Y26.3512
G01 X8.6233 Y26.3545
G01 X8.7210 Y26.3893
G01 X8.7354 Y26.3953
G01 X8.8321 Y26.4414
G01 X8.9228 Y26.4955
G01 X8.9363 Y26.5045
G01 X9.0209 Y26.5675
G01 X9.1070 Y26.6455
G01 X9.1779 Y26.7235
G01 X9.1883 Y26.7362
G01 X9.2513 Y26.8214
G01 X9.3063 Y26.9128
G01 X9.3140 Y26.9272
G01 X9.3589 Y27.0225
G01 X9.3622 Y27.0310
G01 X9.3981 Y27.1320
G01 X9.4239 Y27.2343
G01 X9.4271 Y27.2503
G01 X9.4424 Y27.3552
G01 X9.4479 Y27.4617
G01 X9.4479 Y27.4776
G01 X9.4424 Y27.5845
G01 X9.4255 Y27.6983
G01 X9.3999 Y27.8012
G01 X9.3954 Y27.8160
G01 X9.3592 Y27.9165
G01 X9.3140 Y28.0125
G01 X9.3065 Y28.0266
G01 X9.2513 Y28.1183
G01 X9.1883 Y28.2035
G01 X9.1806 Y28.2131
G01 X9.1058 Y28.2954
G01 X9.0209 Y28.3722
G01 X8.9295 Y28.4400
G01 X8.8382 Y28.4949
G01 X8.8241 Y28.5024
G01 X8.7286 Y28.5474
G01 X8.6279 Y28.5837
G01 X8.6130 Y28.5883
G01 X8.5170 Y28.6123
G01 X8.5009 Y28.6155
G01 X8.3966 Y28.6308
G01 X8.2880 Y28.6364
G01 X7.7794 Y28.6365
G01 X7.6741 Y28.6314
G01 X7.6586 Y28.6299
G01 X7.5543 Y28.6142
G01 X7.4503 Y28.5885
G01 X7.4346 Y28.5837
G01 X7.3354 Y28.5480
G01 X7.2377 Y28.5021
G01 X7.2253 Y28.4955
G01 X7.1391 Y28.4438
G01 X7.1262 Y28.4352
G01 X7.0410 Y28.3717
G01 X6.9617 Y28.3002
G01 X7.3507 Y28.6974
G01 X7.3507 Y28.7823
G01 X7.3914 Y28.7678
G01 X7.4080 Y28.7625
G01 X7.4978 Y28.7399
G01 X7.4080 Y28.7172
G01 X7.3914 Y28.7119
G01 X7.3507 Y28.6974
G01 X8.5647 Y28.7399
G01 X8.6559 Y28.7629
G01 X8.6713 Y28.7678
G01 X8.7117 Y28.7823
G01 X8.7117 Y28.6974
G01 X8.6713 Y28.7119
G01 X8.6559 Y28.7168
G01 X8.5647 Y28.7399
G01 X8.8022 Y28.8921
G01 X8.7986 Y28.8806
G01 X8.7864 Y28.8373
G01 X8.7837 Y28.8251
G01 X8.7813 Y28.8102
G01 X8.7802 Y28.7996
G01 X8.7794 Y28.7845
G01 X8.7794 Y28.6989
G01 X8.7797 Y28.6866
G01 X8.7809 Y28.6730
G01 X8.7821 Y28.6635
G01 X8.7843 Y28.6514
G01 X8.7892 Y28.6319
G01 X8.8033 Y28.5871
G01 X8.7628 Y28.6062
G01 X8.7496 Y28.6119
G01 X8.6456 Y28.6491
G01 X8.6290 Y28.6540
G01 X8.5279 Y28.6793
G01 X8.5113 Y28.6824
G01 X8.4032 Y28.6981
G01 X8.3909 Y28.6991
G01 X8.2927 Y28.7039
G01 X8.2814 Y28.7042
G01 X7.7786 Y28.7042
G01 X7.6712 Y28.6990
G01 X7.6556 Y28.6977
G01 X7.5516 Y28.6824
G01 X7.5395 Y28.6803
G01 X7.4283 Y28.6526
G01 X7.4122 Y28.6475
G01 X7.3140 Y28.6123
G01 X7.2997 Y28.6062
G01 X7.2592 Y28.5871
G01 X7.2624 Y28.5968
G01 X7.2625 Y28.5971
G01 X7.2727 Y28.6302
G01 X7.2736 Y28.6332
G01 X7.2778 Y28.6498
G01 X7.2803 Y28.6635
G01 X7.2818 Y28.6745
G01 X7.2828 Y28.6875
G01 X7.2831 Y28.6988
G01 X7.2831 Y28.7837
G01 X7.2827 Y28.7939
G01 X7.2817 Y28.8059
G01 X7.2794 Y28.8220
G01 X7.2759 Y28.8381
G01 X7.2638 Y28.8810
G01 X7.2603 Y28.8921
G01 X7.2997 Y28.8735
G01 X7.3129 Y28.8678
G01 X7.4169 Y28.8306
G01 X7.4334 Y28.8257
G01 X7.5347 Y28.8004
G01 X7.5516 Y28.7973
G01 X7.6592 Y28.7816
G01 X7.6716 Y28.7806
G01 X7.7697 Y28.7758
G01 X7.7810 Y28.7755
G01 X8.2839 Y28.7756
G01 X8.3913 Y28.7807
G01 X8.4069 Y28.7820
G01 X8.5109 Y28.7973
G01 X8.5229 Y28.7994
G01 X8.6342 Y28.8271
G01 X8.6503 Y28.8322
G01 X8.7484 Y28.8673
G01 X8.7628 Y28.8735
G01 X8.8022 Y28.8921
G00 Z0.5000
G00 X8.5647 Y31.2799
G01 F250.00
G01 Z-0.0400
G01 F2500.00
G01 X8.6559 Y31.3029
G01 X8.6713 Y31.3078
G01 X8.7117 Y31.3223
G01 X8.7117 Y31.2374
G01 X8.6713 Y31.2519
G01 X8.6559 Y31.2568
G01 X8.5647 Y31.2799
G01 X7.3507 Y31.3223
G01 X7.3914 Y31.3078
G01 X7.4080 Y31.3025
G01 X7.4978 Y31.2799
G01 X7.4080 Y31.2572
G01 X7.3914 Y31.2519
G01 X7.3507 Y31.2374
G01 X7.3507 Y31.3223
G01 X7.2603 Y31.4321
G01 X7.2997 Y31.4135
G01 X7.3129 Y31.4078
G01 X7.4169 Y31.3706
G01 X7.4334 Y31.3657
G01 X7.5347 Y31.3404
G01 X7.5516 Y31.3373
G01 X7.6592 Y31.3216
G01 X7.6716 Y31.3206
G01 X7.7697 Y31.3158
G01 X7.7810 Y31.3155
G01 X8.2839 Y31.3156
G01 X8.3913 Y31.3207
G01 X8.4069 Y31.3220
G01 X8.5109 Y31.3373
G01 X8.5229 Y31.3394
G01 X8.6342 Y31.3671
G01 X8.6503 Y31.3722
G01 X8.7484 Y31.4073
G01 X8.7628 Y31.4135
G01 X8.8022 Y31.4321
G01 X8.7986 Y31.4206
G01 X8.7864 Y31.3773
G01 X8.7837 Y31.3651
G01 X8.7813 Y31.3502
G01 X8.7802 Y31.3396
G01 X8.7794 Y31.3245
G01 X8.7794 Y31.2389
G01 X8.7797 Y31.2266
G01 X8.7809 Y31.2130
G01 X8.7821 Y31.2035
G01 X8.7843 Y31.1914
G01 X8.7892 Y31.1719
G01 X8.8033 Y31.1271
G01 X8.7628 Y31.1462
G01 X8.7496 Y31.1519
G01 X8.6456 Y31.1891
G01 X8.6290 Y31.1940
G01 X8.5279 Y31.2193
G01 X8.5113 Y31.2224
G01 X8.4032 Y31.2381
G01 X8.3909 Y31.2391
G01 X8.2927 Y31.2439
G01 X8.2814 Y31.2442
G01 X7.7786 Y31.2442
G01 X7.6712 Y31.2390
G01 X7.6556 Y31.2377
G01 X7.5516 Y31.2224
G01 X7.5395 Y31.2203
G01 X7.4283 Y31.1926
G01 X7.4122 Y31.1875
G01 X7.3140 Y31.1523
G01 X7.2997 Y31.1462
G01 X7.2592 Y31.1271
G01 X7.2736 Y31.1732
G01 X7.2778 Y31.1898
G01 X7.2803 Y31.2035
G01 X7.2818 Y31.2145
G01 X7.2828 Y31.2275
G01 X7.2831 Y31.2388
G01 X7.2831 Y31.3237
G01 X7.2827 Y31.3339
G01 X7.2817 Y31.3459
G01 X7.2794 Y31.3620
G01 X7.2759 Y31.3781
G01 X7.2638 Y31.4210
G01 X7.2603 Y31.4321
G00 Z0.5000
G00 X6.9617 Y30.8402
G01 F250.00
G01 Z-0.0400
G01 F2500.00
G01 X6.9504 Y30.8289
G01 X6.8797 Y30.7506
G01 X6.8107 Y30.6576
G01 X6.7518 Y30.5591
G01 X6.7065 Y30.4638
G01 X6.7005 Y30.4495
G01 X6.6667 Y30.3550
G01 X6.6624 Y30.3406
G01 X6.6367 Y30.2368
G01 X6.6210 Y30.1323
G01 X6.6195 Y30.1172
G01 X6.6144 Y30.0105
G01 X6.6200 Y29.8958
G01 X6.6370 Y29.7814
G01 X6.6626 Y29.6785
G01 X6.6671 Y29.6637
G01 X6.7005 Y29.5702
G01 X6.7065 Y29.5559
G01 X6.7525 Y29.4593
G01 X6.8067 Y29.3685
G01 X6.8150 Y29.3560
G01 X6.8787 Y29.2704
G01 X6.9558 Y29.1852
G01 X7.0411 Y29.1079
G01 X7.1262 Y29.0445
G01 X7.1356 Y29.0380
G01 X7.2318 Y28.9806
G01 X7.3271 Y28.9353
G01 X7.3422 Y28.9291
G01 X7.4424 Y28.8934
G01 X7.5454 Y28.8674
G01 X7.5607 Y28.8643
G01 X7.6626 Y28.8493
G01 X7.6749 Y28.8482
G01 X7.7790 Y28.8432
G01 X8.2839 Y28.8432
G01 X8.3950 Y28.8487
G01 X8.5009 Y28.8642
G01 X8.5170 Y28.8674
G01 X8.6193 Y28.8932
G01 X8.7271 Y28.9317
G01 X8.8306 Y28.9806
G01 X8.9295 Y29.0397
G01 X9.0221 Y29.1085
G01 X9.1070 Y29.1855
G01 X9.1834 Y29.2699
G01 X9.2467 Y29.3550
G01 X9.2533 Y29.3644
G01 X9.3102 Y29.4597
G01 X9.3592 Y29.5632
G01 X9.3981 Y29.6720
G01 X9.4258 Y29.7829
G01 X9.4424 Y29.8952
G01 X9.4481 Y30.0099
G01 X9.4424 Y30.1245
G01 X9.4255 Y30.2383
G01 X9.3976 Y30.3493
G01 X9.3592 Y30.4565
G01 X9.3102 Y30.5600
G01 X9.2513 Y30.6583
G01 X9.1833 Y30.7499
G01 X9.1058 Y30.8354
G01 X9.0209 Y30.9122
G01 X8.9363 Y30.9752
G01 X8.9268 Y30.9817
G01 X8.8306 Y31.0391
G01 X8.7271 Y31.0880
G01 X8.6193 Y31.1265
G01 X8.5170 Y31.1523
G01 X8.5009 Y31.1555
G01 X8.3950 Y31.1710
G01 X8.2851 Y31.1765
G01 X7.7794 Y31.1765
G01 X7.6711 Y31.1713
G01 X7.6586 Y31.1699
G01 X7.5543 Y31.1542
G01 X7.4503 Y31.1285
G01 X7.4354 Y31.1240
G01 X7.3422 Y31.0907
G01 X7.3271 Y31.0844
G01 X7.2304 Y31.0384
G01 X7.1324 Y30.9795
G01 X7.0411 Y30.9118
G01 X6.9617 Y30.8402
G00 Z0.5000
G00 X7.0075 Y30.7903
G01 F250.00
G01 Z-0.0400
G01 F2500.00
G01 X7.0006 Y30.7834
G01 X6.9315 Y30.7070
G01 X6.8673 Y30.6204
G01 X6.8118 Y30.5279
G01 X6.7677 Y30.4349
G01 X6.7640 Y30.4259
G01 X6.7309 Y30.3335
G01 X6.7281 Y30.3242
G01 X6.7032 Y30.2243
G01 X6.6879 Y30.1224
G01 X6.6870 Y30.1127
G01 X6.6821 Y30.0099
G01 X6.6873 Y29.9021
G01 X6.7032 Y29.7954
G01 X6.7281 Y29.6955
G01 X6.7309 Y29.6862
G01 X6.7657 Y29.5893
G01 X6.8096 Y29.4962
G01 X6.8142 Y29.4875
G01 X6.8647 Y29.4034
G01 X6.8701 Y29.3953
G01 X6.9315 Y29.3127
G01 X7.0039 Y29.2327
G01 X7.0840 Y29.1602
G01 X7.1665 Y29.0989
G01 X7.1725 Y29.0947
G01 X7.2630 Y29.0406
G01 X7.3560 Y28.9965
G01 X7.3650 Y28.9928
G01 X7.4620 Y28.9582
G01 X7.5619 Y28.9330
G01 X7.5715 Y28.9311
G01 X7.6709 Y28.9164
G01 X7.6782 Y28.9158
G01 X7.7798 Y28.9109
G01 X8.2826 Y28.9109
G01 X8.3891 Y28.9162
G01 X8.4910 Y28.9311
G01 X8.5006 Y28.9330
G01 X8.6004 Y28.9582
G01 X8.7020 Y28.9945
G01 X8.7995 Y29.0406
G01 X8.8919 Y29.0960
G01 X8.9786 Y29.1603
G01 X9.0585 Y29.2327
G01 X9.1311 Y29.3128
G01 X9.1924 Y29.3953
G01 X9.1965 Y29.4013
G01 X9.2507 Y29.4918
G01 X9.2968 Y29.5893
G01 X9.3331 Y29.6908
G01 X9.3593 Y29.7954
G01 X9.3751 Y29.9021
G01 X9.3804 Y30.0099
G01 X9.3751 Y30.1176
G01 X9.3593 Y30.2243
G01 X9.3331 Y30.3289
G01 X9.2968 Y30.4304
G01 X9.2507 Y30.5279
G01 X9.1952 Y30.6204
G01 X9.1310 Y30.7070
G01 X9.0585 Y30.7870
G01 X8.9786 Y30.8594
G01 X8.8960 Y30.9208
G01 X8.8899 Y30.9250
G01 X8.7995 Y30.9791
G01 X8.7065 Y31.0232
G01 X8.6974 Y31.0269
G01 X8.6004 Y31.0615
G01 X8.5006 Y31.0867
G01 X8.4910 Y31.0886
G01 X8.3940 Y31.1030
G01 X8.3843 Y31.1039
G01 X8.2814 Y31.1088
G01 X7.7798 Y31.1088
G01 X7.6760 Y31.1038
G01 X7.6685 Y31.1030
G01 X7.5666 Y31.0877
G01 X7.4667 Y31.0628
G01 X7.4574 Y31.0600
G01 X7.3650 Y31.0269
G01 X7.3560 Y31.0232
G01 X7.2630 Y30.9791
G01 X7.1705 Y30.9236
G01 X7.0840 Y30.8595
G01 X7.0075 Y30.7903
G00 Z0.5000
G00 X6.7043 Y32.7690
G01 F250.00
G01 Z-0.0400
G01 F2500.00
G01 X6.7023 Y32.7594
G01 X6.6873 Y32.6576
G01 X6.6821 Y32.5499
G01 X6.6873 Y32.4421
G01 X6.7032 Y32.3354
G01 X6.7294 Y32.2308
G01 X6.7657 Y32.1293
G01 X6.8118 Y32.0318
G01 X6.8648 Y31.9431
G01 X6.8701 Y31.9353
G01 X6.9315 Y31.8527
G01 X7.0006 Y31.7763
G01 X7.0075 Y31.7694
G01 X7.0802 Y31.7035
G01 X7.0877 Y31.6973
G01 X7.1705 Y31.6361
G01 X7.2587 Y31.5830
G01 X7.2668 Y31.5787
G01 X7.3605 Y31.5345
G01 X7.4616 Y31.4983
G01 X7.5666 Y31.4720
G01 X7.6709 Y31.4564
G01 X7.6782 Y31.4558
G01 X7.7798 Y31.4509
G01 X8.2814 Y31.4509
G01 X8.3843 Y31.4558
G01 X8.3916 Y31.4564
G01 X8.4958 Y31.4720
G01 X8.6008 Y31.4983
G01 X8.7020 Y31.5345
G01 X8.7951 Y31.5784
G01 X8.8027 Y31.5824
G01 X8.8884 Y31.6338
G01 X8.8960 Y31.6389
G01 X8.9786 Y31.7003
G01 X9.0550 Y31.7694
G01 X9.0619 Y31.7763
G01 X9.1310 Y31.8527
G01 X9.1952 Y31.9393
G01 X9.2507 Y32.0318
G01 X9.2948 Y32.1248
G01 X9.2985 Y32.1338
G01 X9.3331 Y32.2308
G01 X9.3582 Y32.3307
G01 X9.3601 Y32.3403
G01 X9.3749 Y32.4397
G01 X9.3755 Y32.4470
G01 X9.3804 Y32.5499
G01 X9.3751 Y32.6576
G01 X9.3593 Y32.7643
G01 X9.3331 Y32.8689
G01 X9.2968 Y32.9704
G01 X9.2507 Y33.0679
G01 X9.1952 Y33.1604
G01 X9.1310 Y33.2470
G01 X9.0585 Y33.3270
G01 X8.9786 Y33.3994
G01 X8.8920 Y33.4636
G01 X8.7995 Y33.5191
G01 X8.7020 Y33.5652
G01 X8.6004 Y33.6015
G01 X8.4958 Y33.6277
G01 X8.3916 Y33.6433
G01 X8.3843 Y33.6439
G01 X8.2814 Y33.6488
G01 X7.7798 Y33.6488
G01 X7.6733 Y33.6436
G01 X7.5666 Y33.6277
G01 X7.4622 Y33.6016
G01 X7.3605 Y33.5652
G01 X7.2652 Y33.5202
G01 X7.2587 Y33.5167
G01 X7.1705 Y33.4636
G01 X7.0839 Y33.3994
G01 X7.0039 Y33.3270
G01 X6.9345 Y33.2505
G01 X6.9285 Y33.2432
G01 X6.8673 Y33.1604
G01 X6.8142 Y33.0722
G01 X6.8096 Y33.0636
G01 X6.7677 Y32.9749
G01 X6.7640 Y32.9659
G01 X6.7294 Y32.8689
G01 X6.7043 Y32.7690
G00 Z0.5000
G00 X6.6385 Y32.7850
G01 F250.00
G01 Z-0.0400
G01 F2500.00
G01 X6.6355 Y32.7698
G01 X6.6201 Y32.6650
G01 X6.6144 Y32.5505
G01 X6.6200 Y32.4358
G01 X6.6369 Y32.3218
G01 X6.6649 Y32.2104
G01 X6.7035 Y32.1026
G01 X6.7525 Y31.9993
G01 X6.8069 Y31.9082
G01 X6.8150 Y31.8960
G01 X6.8797 Y31.8091
G01 X6.9504 Y31.7308
G01 X6.9620 Y31.7192
G01 X7.0351 Y31.6530
G01 X7.0474 Y31.6430
G01 X7.1324 Y31.5802
G01 X7.2240 Y31.5250
G01 X7.2377 Y31.5176
G01 X7.3338 Y31.4723
G01 X7.4419 Y31.4336
G01 X7.5527 Y31.4058
G01 X7.6626 Y31.3893
G01 X7.6749 Y31.3882
G01 X7.7810 Y31.3832
G01 X8.2831 Y31.3832
G01 X8.3876 Y31.3882
G01 X8.3990 Y31.3892
G01 X8.5098 Y31.4058
G01 X8.6206 Y31.4336
G01 X8.7286 Y31.4723
G01 X8.8247 Y31.5176
G01 X8.8372 Y31.5242
G01 X8.9234 Y31.5759
G01 X8.9363 Y31.5845
G01 X9.0221 Y31.6485
G01 X9.1004 Y31.7192
G01 X9.1120 Y31.7308
G01 X9.1833 Y31.8098
G01 X9.2513 Y31.9014
G01 X9.3102 Y31.9997
G01 X9.3561 Y32.0963
G01 X9.3622 Y32.1110
G01 X9.3980 Y32.2117
G01 X9.4239 Y32.3142
G01 X9.4269 Y32.3295
G01 X9.4420 Y32.4314
G01 X9.4431 Y32.4437
G01 X9.4481 Y32.5499
G01 X9.4425 Y32.6634
G01 X9.4258 Y32.7768
G01 X9.3980 Y32.8880
G01 X9.3595 Y32.9957
G01 X9.3102 Y33.1000
G01 X9.2519 Y33.1973
G01 X9.1838 Y33.2893
G01 X9.1070 Y33.3742
G01 X9.0222 Y33.4512
G01 X8.9296 Y33.5199
G01 X8.8321 Y33.5784
G01 X8.7286 Y33.6274
G01 X8.6206 Y33.6661
G01 X8.5098 Y33.6939
G01 X8.3999 Y33.7104
G01 X8.3876 Y33.7115
G01 X8.2814 Y33.7165
G01 X7.7794 Y33.7165
G01 X7.6749 Y33.7115
G01 X7.6634 Y33.7105
G01 X7.5526 Y33.6939
G01 X7.4423 Y33.6662
G01 X7.3354 Y33.6280
G01 X7.2318 Y33.5791
G01 X7.1324 Y33.5195
G01 X7.0403 Y33.4512
G01 X6.9558 Y33.3745
G01 X6.8843 Y33.2958
G01 X6.8742 Y33.2835
G01 X6.8106 Y33.1973
G01 X6.7562 Y33.1069
G01 X6.7488 Y33.0932
G01 X6.7065 Y33.0038
G01 X6.7002 Y32.9887
G01 X6.6649 Y32.8893
G01 X6.6385 Y32.7850
G00 Z0.5000
G00 X8.2692 Y33.7949
G01 F250.00
G01 Z-0.0400
G01 F2500.00
G01 X8.6025 Y33.7509
G01 X8.9022 Y33.6279
G01 X9.1616 Y33.4289
G01 X9.3582 Y33.1720
G01 X9.4812 Y32.8722
G01 X9.5238 Y32.5499
G01 X9.4812 Y32.2275
G01 X9.3582 Y31.9277
G01 X9.1618 Y31.6710
G01 X8.9206 Y31.4871
G01 X8.9068 Y31.4749
G01 X8.8955 Y31.4625
G01 X8.8863 Y31.4503
G01 X8.8783 Y31.4373
G01 X8.8714 Y31.4236
G01 X8.8659 Y31.4093
G01 X8.8535 Y31.3664
G01 X8.8512 Y31.3573
G01 X8.8496 Y31.3496
G01 X8.8480 Y31.3379
G01 X8.8471 Y31.3205
G01 X8.8471 Y31.2351
G01 X8.8482 Y31.2200
G01 X8.8500 Y31.2080
G01 X8.8542 Y31.1909
G01 X8.8673 Y31.1489
G01 X8.8740 Y31.1332
G01 X8.8831 Y31.1168
G01 X8.8909 Y31.1056
G01 X8.8983 Y31.0964
G01 X8.9091 Y31.0852
G01 X8.9177 Y31.0775
G01 X9.1614 Y30.8891
G01 X9.3582 Y30.6320
G01 X9.4812 Y30.3322
G01 X9.5238 Y30.0099
G01 X9.4812 Y29.6875
G01 X9.3582 Y29.3877
G01 X9.1618 Y29.1310
G01 X8.9206 Y28.9471
G01 X8.9068 Y28.9349
G01 X8.8955 Y28.9225
G01 X8.8863 Y28.9103
G01 X8.8783 Y28.8973
G01 X8.8714 Y28.8836
G01 X8.8659 Y28.8693
G01 X8.8535 Y28.8264
G01 X8.8512 Y28.8173
G01 X8.8496 Y28.8096
G01 X8.8480 Y28.7979
G01 X8.8471 Y28.7805
G01 X8.8471 Y28.6951
G01 X8.8482 Y28.6800
G01 X8.8500 Y28.6680
G01 X8.8542 Y28.6509
G01 X8.8673 Y28.6089
G01 X8.8740 Y28.5932
G01 X8.8831 Y28.5768
G01 X8.8909 Y28.5656
G01 X8.8983 Y28.5564
G01 X8.9091 Y28.5452
G01 X8.9177 Y28.5375
G01 X9.1614 Y28.3491
G01 X9.3582 Y28.0920
G01 X9.4812 Y27.7922
G01 X9.5238 Y27.4699
G01 X9.4812 Y27.1475
G01 X9.3582 Y26.8477
G01 X9.1619 Y26.5912
G01 X8.9022 Y26.3941
G01 X8.6020 Y26.2687
G01 X8.2692 Y26.2248
G01 X7.7933 Y26.2248
G01 X7.4605 Y26.2687
G01 X7.1603 Y26.3941
G01 X6.9006 Y26.5912
G01 X6.7043 Y26.8477
G01 X6.5812 Y27.1475
G01 X6.5387 Y27.4699
G01 X6.5812 Y27.7922
G01 X6.7043 Y28.0920
G01 X6.9010 Y28.3491
G01 X7.1414 Y28.5348
G01 X7.1540 Y28.5457
G01 X7.1593 Y28.5511
G01 X7.1664 Y28.5590
G01 X7.1750 Y28.5704
G01 X7.1835 Y28.5837
G01 X7.1892 Y28.5947
G01 X7.1955 Y28.6098
G01 X7.2082 Y28.6507
G01 X7.2118 Y28.6647
G01 X7.2144 Y28.6811
G01 X7.2154 Y28.6992
G01 X7.2154 Y28.7846
G01 X7.2145 Y28.7979
G01 X7.2129 Y28.8096
G01 X7.2092 Y28.8256
G01 X7.1966 Y28.8693
G01 X7.1933 Y28.8782
G01 X7.1881 Y28.8899
G01 X7.1794 Y28.9053
G01 X7.1712 Y28.9172
G01 X7.1629 Y28.9272
G01 X7.1524 Y28.9380
G01 X7.1425 Y28.9466
G01 X6.9007 Y29.1310
G01 X6.7043 Y29.3877
G01 X6.5812 Y29.6875
G01 X6.5387 Y30.0099
G01 X6.5812 Y30.3322
G01 X6.7043 Y30.6320
G01 X6.9010 Y30.8891
G01 X7.1414 Y31.0748
G01 X7.1540 Y31.0857
G01 X7.1593 Y31.0911
G01 X7.1664 Y31.0990
G01 X7.1750 Y31.1104
G01 X7.1835 Y31.1237
G01 X7.1892 Y31.1347
G01 X7.1955 Y31.1498
G01 X7.2082 Y31.1907
G01 X7.2118 Y31.2047
G01 X7.2144 Y31.2211
G01 X7.2154 Y31.2392
G01 X7.2154 Y31.3246
G01 X7.2145 Y31.3379
G01 X7.2129 Y31.3496
G01 X7.2092 Y31.3656
G01 X7.1966 Y31.4093
G01 X7.1933 Y31.4182
G01 X7.1881 Y31.4299
G01 X7.1794 Y31.4453
G01 X7.1712 Y31.4572
G01 X7.1629 Y31.4672
G01 X7.1524 Y31.4780
G01 X7.1425 Y31.4866
G01 X6.9007 Y31.6710
G01 X6.7043 Y31.9277
G01 X6.5812 Y32.2275
G01 X6.5387 Y32.5499
G01 X6.5812 Y32.8722
G01 X6.7043 Y33.1720
G01 X6.9009 Y33.4289
G01 X7.1603 Y33.6279
G01 X7.4599 Y33.7509
G01 X7.7933 Y33.7949
G01 X8.2692 Y33.7949
G01 X8.2736 Y33.8626
G01 X8.6201 Y33.8169
G01 X8.9362 Y33.6871
G01 X9.2099 Y33.4771
G01 X9.4174 Y33.2060
G01 X9.5472 Y32.8898
G01 X9.5920 Y32.5499
G01 X9.5472 Y32.2099
G01 X9.4174 Y31.8937
G01 X9.2100 Y31.6227
G01 X8.9640 Y31.4352
G01 X8.9570 Y31.4292
G01 X8.9507 Y31.4229
G01 X8.9443 Y31.4151
G01 X8.9396 Y31.4081
G01 X8.9350 Y31.3998
G01 X8.9301 Y31.3877
G01 X8.9174 Y31.3434
G01 X8.9152 Y31.3300
G01 X8.9147 Y31.3205
G01 X8.9147 Y31.2374
G01 X8.9158 Y31.2244
G01 X8.9183 Y31.2126
G01 X8.9300 Y31.1747
G01 X8.9349 Y31.1627
G01 X8.9398 Y31.1538
G01 X8.9456 Y31.1454
G01 X8.9522 Y31.1377
G01 X8.9567 Y31.1333
G01 X8.9636 Y31.1274
G01 X9.2098 Y30.9373
G01 X9.4174 Y30.6660
G01 X9.5472 Y30.3498
G01 X9.5920 Y30.0099
G01 X9.5472 Y29.6699
G01 X9.4174 Y29.3537
G01 X9.2100 Y29.0827
G01 X8.9622 Y28.8938
G01 X8.9570 Y28.8892
G01 X8.9507 Y28.8829
G01 X8.9422 Y28.8721
G01 X8.9350 Y28.8598
G01 X8.9301 Y28.8477
G01 X8.9185 Y28.8078
G01 X8.9157 Y28.7943
G01 X8.9147 Y28.7824
G01 X8.9147 Y28.6992
G01 X8.9153 Y28.6886
G01 X8.9178 Y28.6747
G01 X8.9300 Y28.6347
G01 X8.9328 Y28.6273
G01 X8.9376 Y28.6176
G01 X8.9424 Y28.6098
G01 X8.9486 Y28.6016
G01 X8.9567 Y28.5933
G01 X8.9636 Y28.5874
G01 X9.2098 Y28.3973
G01 X9.4174 Y28.1260
G01 X9.5472 Y27.8098
G01 X9.5920 Y27.4699
G01 X9.5472 Y27.1299
G01 X9.4174 Y26.8137
G01 X9.2101 Y26.5428
G01 X8.9362 Y26.3350
G01 X8.6198 Y26.2028
G01 X8.2736 Y26.1571
G01 X7.7889 Y26.1571
G01 X7.4427 Y26.2028
G01 X7.1262 Y26.3350
G01 X6.8524 Y26.5428
G01 X6.6451 Y26.8137
G01 X6.5153 Y27.1299
G01 X6.4704 Y27.4699
G01 X6.5153 Y27.8098
G01 X6.6451 Y28.1260
G01 X6.8527 Y28.3973
G01 X7.0989 Y28.5874
G01 X7.1062 Y28.5937
G01 X7.1138 Y28.6016
G01 X7.1203 Y28.6101
G01 X7.1251 Y28.6179
G01 X7.1297 Y28.6273
G01 X7.1325 Y28.6347
G01 X7.1447 Y28.6747
G01 X7.1467 Y28.6844
G01 X7.1478 Y28.6992
G01 X7.1477 Y28.7824
G01 X7.1468 Y28.7943
G01 X7.1446 Y28.8055
G01 X7.1324 Y28.8477
G01 X7.1269 Y28.8609
G01 X7.1203 Y28.8721
G01 X7.1118 Y28.8829
G01 X7.1055 Y28.8892
G01 X7.0998 Y28.8941
G01 X6.8525 Y29.0827
G01 X6.6451 Y29.3537
G01 X6.5153 Y29.6699
G01 X6.4704 Y30.0099
G01 X6.5153 Y30.3498
G01 X6.6451 Y30.6660
G01 X6.8527 Y30.9373
G01 X7.0989 Y31.1274
G01 X7.1062 Y31.1337
G01 X7.1103 Y31.1377
G01 X7.1169 Y31.1454
G01 X7.1203 Y31.1501
G01 X7.1276 Y31.1627
G01 X7.1316 Y31.1721
G01 X7.1439 Y31.2118
G01 X7.1467 Y31.2244
G01 X7.1478 Y31.2392
G01 X7.1478 Y31.3205
G01 X7.1473 Y31.3300
G01 X7.1451 Y31.3434
G01 X7.1324 Y31.3877
G01 X7.1291 Y31.3962
G01 X7.1251 Y31.4044
G01 X7.1179 Y31.4154
G01 X7.1118 Y31.4229
G01 X7.1055 Y31.4292
G01 X7.0984 Y31.4352
G01 X6.8525 Y31.6227
G01 X6.6451 Y31.8937
G01 X6.5153 Y32.2099
G01 X6.4704 Y32.5499
G01 X6.5153 Y32.8898
G01 X6.6451 Y33.2060
G01 X6.8526 Y33.4771
G01 X7.1262 Y33.6871
G01 X7.4424 Y33.8169
G01 X7.7889 Y33.8626
G01 X8.2736 Y33.8626
G00 Z0.5000
G00 X5.8749 Y37.3251
G01 F250.00
G01 Z-0.0400
G01 F2500.00
G01 X5.8913 Y37.3243
G01 X7.8944 Y37.3243
G01 X7.9083 Y37.3252
G01 X7.9248 Y37.3279
G01 X7.9401 Y37.3319
G01 X7.9559 Y37.3377
G01 X7.9704 Y37.3448
G01 X7.9773 Y37.3487
G01 X7.9869 Y37.3550
G01 X7.9979 Y37.3636
G01 X8.0051 Y37.3700
G01 X8.0118 Y37.3766
G01 X8.0209 Y37.3872
G01 X8.0300 Y37.3997
G01 X8.0377 Y37.4126
G01 X8.0447 Y37.4275
G01 X8.0502 Y37.4429
G01 X8.0542 Y37.4588
G01 X8.0566 Y37.4750
G01 X8.0574 Y37.4875
G01 X8.0574 Y39.4904
G01 X8.0566 Y39.5068
G01 X8.0542 Y39.5230
G01 X8.0502 Y39.5389
G01 X8.0440 Y39.5560
G01 X8.0366 Y39.5711
G01 X8.0317 Y39.5794
G01 X8.0265 Y39.5873
G01 X8.0181 Y39.5981
G01 X8.0118 Y39.6052
G01 X8.0051 Y39.6118
G01 X7.9946 Y39.6210
G01 X7.9816 Y39.6304
G01 X7.9691 Y39.6378
G01 X7.9542 Y39.6448
G01 X7.9388 Y39.6504
G01 X7.9229 Y39.6544
G01 X7.9083 Y39.6566
G01 X7.8944 Y39.6575
G01 X5.8913 Y39.6576
G01 X5.8749 Y39.6568
G01 X5.8587 Y39.6544
G01 X5.8428 Y39.6504
G01 X5.8256 Y39.6441
G01 X5.8111 Y39.6371
G01 X5.8042 Y39.6331
G01 X5.7946 Y39.6268
G01 X5.7836 Y39.6182
G01 X5.7764 Y39.6118
G01 X5.7698 Y39.6052
G01 X5.7606 Y39.5946
G01 X5.7515 Y39.5821
G01 X5.7439 Y39.5692
G01 X5.7368 Y39.5544
G01 X5.7313 Y39.5389
G01 X5.7273 Y39.5230
G01 X5.7249 Y39.5068
G01 X5.7242 Y39.4943
G01 X5.7243 Y37.4837
G01 X5.7257 Y37.4686
G01 X5.7277 Y37.4572
G01 X5.7313 Y37.4429
G01 X5.7368 Y37.4275
G01 X5.7439 Y37.4126
G01 X5.7517 Y37.3995
G01 X5.7608 Y37.3870
G01 X5.7698 Y37.3766
G01 X5.7789 Y37.3677
G01 X5.7920 Y37.3570
G01 X5.8045 Y37.3486
G01 X5.8179 Y37.3413
G01 X5.8292 Y37.3362
G01 X5.8441 Y37.3311
G01 X5.8587 Y37.3275
G01 X5.8749 Y37.3251
G01 X5.8815 Y37.3924
G01 X5.8913 Y37.3919
G01 X7.8927 Y37.3919
G01 X7.9000 Y37.3924
G01 X7.9097 Y37.3938
G01 X7.9191 Y37.3962
G01 X7.9283 Y37.3995
G01 X7.9372 Y37.4037
G01 X7.9455 Y37.4087
G01 X7.9534 Y37.4145
G01 X7.9606 Y37.4211
G01 X7.9672 Y37.4283
G01 X7.9730 Y37.4361
G01 X7.9780 Y37.4445
G01 X7.9822 Y37.4533
G01 X7.9855 Y37.4625
G01 X7.9879 Y37.4720
G01 X7.9893 Y37.4817
G01 X7.9898 Y37.4896
G01 X7.9896 Y39.4953
G01 X7.9887 Y39.5050
G01 X7.9868 Y39.5145
G01 X7.9822 Y39.5285
G01 X7.9780 Y39.5373
G01 X7.9730 Y39.5457
G01 X7.9672 Y39.5535
G01 X7.9606 Y39.5608
G01 X7.9534 Y39.5673
G01 X7.9455 Y39.5731
G01 X7.9372 Y39.5782
G01 X7.9283 Y39.5823
G01 X7.9191 Y39.5856
G01 X7.9097 Y39.5880
G01 X7.9000 Y39.5894
G01 X7.8927 Y39.5899
G01 X5.8888 Y39.5899
G01 X5.8815 Y39.5894
G01 X5.8719 Y39.5880
G01 X5.8624 Y39.5856
G01 X5.8532 Y39.5823
G01 X5.8444 Y39.5782
G01 X5.8360 Y39.5731
G01 X5.8282 Y39.5673
G01 X5.8209 Y39.5608
G01 X5.8144 Y39.5535
G01 X5.8086 Y39.5457
G01 X5.8035 Y39.5373
G01 X5.7994 Y39.5285
G01 X5.7961 Y39.5193
G01 X5.7937 Y39.5098
G01 X5.7923 Y39.5002
G01 X5.7918 Y39.4922
G01 X5.7918 Y37.4890
G01 X5.7923 Y37.4817
G01 X5.7937 Y37.4720
G01 X5.7961 Y37.4625
G01 X5.7994 Y37.4533
G01 X5.8035 Y37.4445
G01 X5.8067 Y37.4390
G01 X5.8106 Y37.4331
G01 X5.8185 Y37.4236
G01 X5.8234 Y37.4187
G01 X5.8332 Y37.4106
G01 X5.8406 Y37.4058
G01 X5.8484 Y37.4016
G01 X5.8587 Y37.3974
G01 X5.8663 Y37.3951
G01 X5.8719 Y37.3938
G01 X5.8815 Y37.3924
G00 Z0.5000
G00 X8.1232 Y39.7233
G01 F250.00
G01 Z-0.0400
G01 F2500.00
G01 X8.1232 Y37.2585
G01 X5.6584 Y37.2585
G01 X5.6584 Y39.7233
G01 X8.1232 Y39.7233
G01 X8.1908 Y39.7909
G01 X8.1908 Y37.1909
G01 X5.5907 Y37.1909
G01 X5.5907 Y39.7909
G01 X8.1908 Y39.7909
G00 Z0.5000
G00 X17.9994 Y32.1984
G01 F250.00
G01 Z-0.0400
G01 F2500.00
G01 X18.0307 Y32.2169
G01 X18.0451 Y32.2245
G01 X18.1201 Y32.2595
G01 X18.1367 Y32.2661
G01 X18.2055 Y32.2903
G01 X18.2211 Y32.2951
G01 X18.2982 Y32.3143
G01 X18.2998 Y32.3147
G01 X18.3047 Y32.3157
G01 X18.3190 Y32.3184
G01 X18.3977 Y32.3297
G01 X18.4139 Y32.3312
G01 X18.4502 Y32.3329
G01 X18.1585 Y32.4879
G01 X17.9994 Y32.1984
G01 X18.1572 Y32.3450
G01 X18.1854 Y32.3549
G01 X18.2017 Y32.3600
G01 X18.2379 Y32.3691
G01 X18.1857 Y32.3968
G01 X18.1572 Y32.3450
G01 X18.8520 Y32.1961
G01 X18.1313 Y32.5789
G01 X17.7383 Y31.8638
G01 X17.7457 Y31.8745
G01 X17.7918 Y31.9352
G01 X17.8002 Y31.9451
G01 X17.8497 Y31.9987
G01 X17.8613 Y32.0101
G01 X17.9157 Y32.0586
G01 X17.9284 Y32.0688
G01 X17.9873 Y32.1118
G01 X17.9981 Y32.1190
G01 X18.0637 Y32.1578
G01 X18.0751 Y32.1639
G01 X18.1472 Y32.1975
G01 X18.1592 Y32.2023
G01 X18.2311 Y32.2275
G01 X18.2436 Y32.2312
G01 X18.3176 Y32.2493
G01 X18.3304 Y32.2517
G01 X18.4058 Y32.2626
G01 X18.4187 Y32.2637
G01 X18.4949 Y32.2672
G01 X18.5078 Y32.2671
G01 X18.5807 Y32.2634
G01 X18.5968 Y32.2618
G01 X18.6690 Y32.2511
G01 X18.6849 Y32.2479
G01 X18.7557 Y32.2302
G01 X18.7681 Y32.2265
G01 X18.8399 Y32.2010
G01 X18.8520 Y32.1961
G00 Z0.5000
G00 X21.8559 Y39.0345
G01 F250.00
G01 Z-0.0400
G01 F2500.00
G01 X21.8559 Y39.0187
G01 X21.8612 Y38.9133
G01 X21.8779 Y38.8001
G01 X21.9057 Y38.6887
G01 X21.9445 Y38.5803
G01 X21.9930 Y38.4776
G01 X22.0518 Y38.3794
G01 X22.1200 Y38.2874
G01 X22.1968 Y38.2025
G01 X22.2816 Y38.1255
G01 X22.3742 Y38.0568
G01 X22.4716 Y37.9984
G01 X22.5751 Y37.9493
G01 X22.6829 Y37.9107
G01 X22.7939 Y37.8828
G01 X22.9071 Y37.8659
G01 X23.0215 Y37.8602
G01 X23.1358 Y37.8657
G01 X23.2491 Y37.8825
G01 X23.3602 Y37.9102
G01 X23.4680 Y37.9487
G01 X23.5715 Y37.9976
G01 X23.6704 Y38.0567
G01 X23.7618 Y38.1245
G01 X23.8467 Y38.2013
G01 X23.9236 Y38.2861
G01 X23.9919 Y38.3780
G01 X24.0508 Y38.4762
G01 X24.1001 Y38.5803
G01 X24.1389 Y38.6887
G01 X24.1665 Y38.7988
G01 X24.1833 Y38.9117
G01 X24.1890 Y39.0269
G01 X24.1833 Y39.1420
G01 X24.1665 Y39.2549
G01 X24.1389 Y39.3650
G01 X24.1001 Y39.4734
G01 X24.0516 Y39.5761
G01 X23.9928 Y39.6743
G01 X23.9247 Y39.7663
G01 X23.8478 Y39.8512
G01 X23.7631 Y39.9282
G01 X23.6704 Y39.9969
G01 X23.5730 Y40.0554
G01 X23.4695 Y40.1044
G01 X23.3618 Y40.1430
G01 X23.2507 Y40.1709
G01 X23.1375 Y40.1878
G01 X23.0231 Y40.1935
G01 X22.9088 Y40.1880
G01 X22.7955 Y40.1712
G01 X22.6845 Y40.1435
G01 X22.5766 Y40.1050
G01 X22.4731 Y40.0561
G01 X22.3743 Y39.9970
G01 X22.2828 Y39.9292
G01 X22.1980 Y39.8524
G01 X22.1210 Y39.7676
G01 X22.0527 Y39.6757
G01 X21.9938 Y39.5775
G01 X21.9446 Y39.4736
G01 X21.9057 Y39.3650
G01 X21.8782 Y39.2549
G01 X21.8614 Y39.1420
G01 X21.8559 Y39.0345
G00 Z0.5000
G00 X21.9235 Y39.0317
G01 F250.00
G01 Z-0.0400
G01 F2500.00
G01 X21.9234 Y39.0220
G01 X21.9286 Y38.9191
G01 X21.9444 Y38.8124
G01 X21.9706 Y38.7078
G01 X22.0070 Y38.6063
G01 X22.0531 Y38.5088
G01 X22.1085 Y38.4163
G01 X22.1728 Y38.3297
G01 X22.2452 Y38.2497
G01 X22.3251 Y38.1773
G01 X22.4117 Y38.1131
G01 X22.5043 Y38.0576
G01 X22.6017 Y38.0115
G01 X22.7033 Y37.9752
G01 X22.8079 Y37.9490
G01 X22.9146 Y37.9332
G01 X23.0223 Y37.9279
G01 X23.1300 Y37.9332
G01 X23.2367 Y37.9490
G01 X23.3413 Y37.9752
G01 X23.4429 Y38.0115
G01 X23.5404 Y38.0576
G01 X23.6329 Y38.1131
G01 X23.7195 Y38.1773
G01 X23.7994 Y38.2497
G01 X23.8718 Y38.3297
G01 X23.9361 Y38.4163
G01 X23.9915 Y38.5088
G01 X24.0377 Y38.6063
G01 X24.0740 Y38.7078
G01 X24.1002 Y38.8124
G01 X24.1160 Y38.9191
G01 X24.1213 Y39.0269
G01 X24.1160 Y39.1346
G01 X24.1002 Y39.2413
G01 X24.0740 Y39.3459
G01 X24.0377 Y39.4474
G01 X23.9915 Y39.5449
G01 X23.9361 Y39.6374
G01 X23.8718 Y39.7240
G01 X23.7994 Y39.8040
G01 X23.7195 Y39.8764
G01 X23.6329 Y39.9406
G01 X23.5404 Y39.9961
G01 X23.4429 Y40.0422
G01 X23.3413 Y40.0785
G01 X23.2367 Y40.1047
G01 X23.1300 Y40.1206
G01 X23.0223 Y40.1258
G01 X22.9146 Y40.1206
G01 X22.8079 Y40.1047
G01 X22.7033 Y40.0785
G01 X22.6017 Y40.0422
G01 X22.5043 Y39.9961
G01 X22.4117 Y39.9406
G01 X22.3251 Y39.8764
G01 X22.2452 Y39.8040
G01 X22.1728 Y39.7240
G01 X22.1085 Y39.6374
G01 X22.0531 Y39.5449
G01 X22.0071 Y39.4476
G01 X21.9706 Y39.3459
G01 X21.9444 Y39.2413
G01 X21.9286 Y39.1346
G01 X21.9235 Y39.0317
G00 Z0.5000
G00 X23.1836 Y40.2592
G01 F250.00
G01 Z-0.0400
G01 F2500.00
G01 X23.4988 Y40.1765
G01 X23.7783 Y40.0133
G01 X24.0090 Y39.7848
G01 X24.1720 Y39.5035
G01 X24.2547 Y39.1906
G01 X24.2547 Y38.8657
G01 X24.1720 Y38.5528
G01 X24.0088 Y38.2711
G01 X23.7783 Y38.0405
G01 X23.4988 Y37.8796
G01 X23.1831 Y37.7945
G01 X22.8592 Y37.7945
G01 X22.5457 Y37.8796
G01 X22.2640 Y38.0405
G01 X22.0361 Y38.2707
G01 X21.8726 Y38.5528
G01 X21.7899 Y38.8657
G01 X21.7899 Y39.1906
G01 X21.8726 Y39.5035
G01 X22.0358 Y39.7852
G01 X22.2640 Y40.0133
G01 X22.5457 Y40.1765
G01 X22.8586 Y40.2592
G01 X23.1836 Y40.2592
G01 X23.1924 Y40.3269
G01 X23.5249 Y40.2396
G01 X23.8198 Y40.0674
G01 X24.0630 Y39.8265
G01 X24.2351 Y39.5295
G01 X24.3224 Y39.1993
G01 X24.3224 Y38.8569
G01 X24.2351 Y38.5267
G01 X24.0629 Y38.2295
G01 X23.8198 Y37.9864
G01 X23.5249 Y37.8165
G01 X23.1920 Y37.7268
G01 X22.8502 Y37.7268
G01 X22.5196 Y37.8165
G01 X22.2224 Y37.9864
G01 X21.9819 Y38.2293
G01 X21.8095 Y38.5267
G01 X21.7223 Y38.8569
G01 X21.7223 Y39.1993
G01 X21.8095 Y39.5295
G01 X21.9817 Y39.8268
G01 X22.2224 Y40.0674
G01 X22.5196 Y40.2396
G01 X22.8498 Y40.3269
G01 X23.1924 Y40.3269
G00 Z0.5000
G00 X26.2551 Y36.4945
G01 F250.00
G01 Z-0.0400
G01 F2500.00
G01 X26.2551 Y36.4787
G01 X26.2605 Y36.3733
G01 X26.2772 Y36.2601
G01 X26.3050 Y36.1487
G01 X26.3438 Y36.0403
G01 X26.3923 Y35.9376
G01 X26.4511 Y35.8394
G01 X26.5192 Y35.7474
G01 X26.5961 Y35.6625
G01 X26.6808 Y35.5855
G01 X26.7735 Y35.5168
G01 X26.8709 Y35.4584
G01 X26.9744 Y35.4093
G01 X27.0821 Y35.3707
G01 X27.1932 Y35.3428
G01 X27.3064 Y35.3259
G01 X27.4208 Y35.3202
G01 X27.5351 Y35.3257
G01 X27.6484 Y35.3425
G01 X27.7595 Y35.3702
G01 X27.8673 Y35.4087
G01 X27.9708 Y35.4576
G01 X28.0696 Y35.5167
G01 X28.1611 Y35.5845
G01 X28.2460 Y35.6613
G01 X28.3229 Y35.7461
G01 X28.3912 Y35.8380
G01 X28.4501 Y35.9362
G01 X28.4994 Y36.0403
G01 X28.5382 Y36.1487
G01 X28.5657 Y36.2588
G01 X28.5825 Y36.3717
G01 X28.5882 Y36.4869
G01 X28.5825 Y36.6020
G01 X28.5657 Y36.7149
G01 X28.5382 Y36.8250
G01 X28.4994 Y36.9334
G01 X28.4509 Y37.0361
G01 X28.3921 Y37.1343
G01 X28.3240 Y37.2263
G01 X28.2471 Y37.3112
G01 X28.1624 Y37.3882
G01 X28.0697 Y37.4569
G01 X27.9723 Y37.5154
G01 X27.8688 Y37.5644
G01 X27.7611 Y37.6030
G01 X27.6500 Y37.6309
G01 X27.5368 Y37.6478
G01 X27.4224 Y37.6535
G01 X27.3081 Y37.6480
G01 X27.1948 Y37.6312
G01 X27.0837 Y37.6035
G01 X26.9759 Y37.5650
G01 X26.8724 Y37.5161
G01 X26.7736 Y37.4570
G01 X26.6821 Y37.3892
G01 X26.5972 Y37.3124
G01 X26.5203 Y37.2276
G01 X26.4520 Y37.1357
G01 X26.3931 Y37.0375
G01 X26.3439 Y36.9336
G01 X26.3050 Y36.8250
G01 X26.2775 Y36.7149
G01 X26.2606 Y36.6020
G01 X26.2551 Y36.4945
G00 Z0.5000
G00 X26.3228 Y36.4917
G01 F250.00
G01 Z-0.0400
G01 F2500.00
G01 X26.3227 Y36.4820
G01 X26.3279 Y36.3791
G01 X26.3437 Y36.2724
G01 X26.3699 Y36.1678
G01 X26.4063 Y36.0663
G01 X26.4524 Y35.9688
G01 X26.5078 Y35.8763
G01 X26.5721 Y35.7897
G01 X26.6445 Y35.7097
G01 X26.7244 Y35.6373
G01 X26.8110 Y35.5731
G01 X26.9035 Y35.5176
G01 X27.0010 Y35.4715
G01 X27.1026 Y35.4352
G01 X27.2072 Y35.4090
G01 X27.3139 Y35.3932
G01 X27.4216 Y35.3879
G01 X27.5293 Y35.3932
G01 X27.6360 Y35.4090
G01 X27.7406 Y35.4352
G01 X27.8422 Y35.4715
G01 X27.9397 Y35.5176
G01 X28.0322 Y35.5731
G01 X28.1188 Y35.6373
G01 X28.1987 Y35.7097
G01 X28.2711 Y35.7897
G01 X28.3354 Y35.8763
G01 X28.3908 Y35.9688
G01 X28.4369 Y36.0663
G01 X28.4733 Y36.1678
G01 X28.4995 Y36.2724
G01 X28.5153 Y36.3791
G01 X28.5206 Y36.4869
G01 X28.5153 Y36.5946
G01 X28.4995 Y36.7013
G01 X28.4733 Y36.8059
G01 X28.4369 Y36.9074
G01 X28.3908 Y37.0049
G01 X28.3354 Y37.0974
G01 X28.2711 Y37.1840
G01 X28.1987 Y37.2640
G01 X28.1188 Y37.3364
G01 X28.0322 Y37.4006
G01 X27.9397 Y37.4561
G01 X27.8422 Y37.5022
G01 X27.7406 Y37.5385
G01 X27.6360 Y37.5647
G01 X27.5293 Y37.5806
G01 X27.4216 Y37.5858
G01 X27.3139 Y37.5806
G01 X27.2072 Y37.5647
G01 X27.1026 Y37.5385
G01 X27.0010 Y37.5022
G01 X26.9035 Y37.4561
G01 X26.8110 Y37.4006
G01 X26.7244 Y37.3364
G01 X26.6445 Y37.2640
G01 X26.5721 Y37.1840
G01 X26.5078 Y37.0974
G01 X26.4524 Y37.0049
G01 X26.4063 Y36.9076
G01 X26.3699 Y36.8059
G01 X26.3437 Y36.7013
G01 X26.3279 Y36.5946
G01 X26.3228 Y36.4917
G00 Z0.5000
G00 X27.5853 Y37.7192
G01 F250.00
G01 Z-0.0400
G01 F2500.00
G01 X27.8979 Y37.6366
G01 X28.1775 Y37.4733
G01 X28.4083 Y37.2448
G01 X28.5713 Y36.9635
G01 X28.6540 Y36.6506
G01 X28.6540 Y36.4996
G01 X28.6543 Y36.4901
G01 X28.6557 Y36.4758
G01 X28.6587 Y36.4603
G01 X28.6631 Y36.4450
G01 X28.6690 Y36.4303
G01 X28.6769 Y36.4150
G01 X28.6837 Y36.4044
G01 X28.6887 Y36.3976
G01 X28.6946 Y36.3903
G01 X28.7022 Y36.3821
G01 X28.7085 Y36.3760
G01 X28.7175 Y36.3684
G01 X28.7265 Y36.3618
G01 X28.7348 Y36.3564
G01 X28.8477 Y36.2907
G01 X28.8621 Y36.2835
G01 X28.8764 Y36.2779
G01 X28.8908 Y36.2737
G01 X28.9072 Y36.2705
G01 X28.9221 Y36.2691
G01 X28.9385 Y36.2691
G01 X28.9534 Y36.2705
G01 X28.9698 Y36.2736
G01 X28.9772 Y36.2756
G01 X28.9873 Y36.2789
G01 X28.9975 Y36.2830
G01 X29.0075 Y36.2878
G01 X29.1444 Y36.3665
G01 X29.4575 Y36.4492
G01 X29.7849 Y36.4492
G01 X30.0976 Y36.3666
G01 X30.3772 Y36.2033
G01 X30.6079 Y35.9748
G01 X30.7711 Y35.6932
G01 X30.8216 Y35.5051
G01 X30.8272 Y35.4883
G01 X30.8329 Y35.4754
G01 X30.8375 Y35.4668
G01 X30.8452 Y35.4544
G01 X30.8542 Y35.4426
G01 X30.8613 Y35.4347
G01 X30.8679 Y35.4281
G01 X30.8794 Y35.4182
G01 X30.8921 Y35.4091
G01 X30.9008 Y35.4039
G01 X30.9125 Y35.3979
G01 X30.9266 Y35.3921
G01 X30.9387 Y35.3883
G01 X30.9527 Y35.3851
G01 X31.1035 Y35.3652
G01 X31.1178 Y35.3647
G01 X31.1260 Y35.3649
G01 X31.1362 Y35.3657
G01 X31.1487 Y35.3676
G01 X31.1585 Y35.3698
G01 X31.1701 Y35.3732
G01 X31.1823 Y35.3778
G01 X31.1914 Y35.3820
G01 X31.1994 Y35.3862
G01 X31.2106 Y35.3931
G01 X31.2252 Y35.4041
G01 X31.2322 Y35.4104
G01 X31.2407 Y35.4190
G01 X31.2480 Y35.4275
G01 X31.2532 Y35.4345
G01 X31.2618 Y35.4478
G01 X31.3686 Y35.6314
G01 X33.5052 Y34.3987
G01 X33.3982 Y34.2133
G01 X33.3918 Y34.2011
G01 X33.3875 Y34.1911
G01 X33.3844 Y34.1826
G01 X33.3817 Y34.1737
G01 X33.3788 Y34.1609
G01 X33.3764 Y34.1434
G01 X33.3758 Y34.1292
G01 X33.3761 Y34.1209
G01 X33.3769 Y34.1106
G01 X33.3788 Y34.0983
G01 X33.3809 Y34.0891
G01 X33.3845 Y34.0768
G01 X33.3891 Y34.0645
G01 X33.3932 Y34.0556
G01 X33.3981 Y34.0465
G01 X33.4056 Y34.0346
G01 X33.4994 Y33.9124
G01 X33.5106 Y33.9004
G01 X33.5212 Y33.8910
G01 X33.5347 Y33.8811
G01 X33.5450 Y33.8748
G01 X33.5555 Y33.8693
G01 X33.5654 Y33.8650
G01 X33.5792 Y33.8603
G01 X33.5886 Y33.8578
G01 X33.6012 Y33.8553
G01 X33.6132 Y33.8539
G01 X33.6274 Y33.8534
G01 X33.6356 Y33.8536
G01 X33.6460 Y33.8545
G01 X33.6541 Y33.8556
G01 X33.6690 Y33.8588
G01 X33.8571 Y33.9092
G01 X34.1842 Y33.9092
G01 X34.4969 Y33.8266
G01 X34.7765 Y33.6633
G01 X35.0072 Y33.4348
G01 X35.1702 Y33.1535
G01 X35.2529 Y32.8406
G01 X35.2529 Y32.5157
G01 X35.1702 Y32.2028
G01 X35.0070 Y31.9211
G01 X34.7765 Y31.6905
G01 X34.4969 Y31.5295
G01 X34.1837 Y31.4445
G01 X33.8574 Y31.4445
G01 X33.5442 Y31.5295
G01 X33.2646 Y31.6905
G01 X33.0340 Y31.9211
G01 X32.8707 Y32.2030
G01 X32.8202 Y32.3912
G01 X32.8146 Y32.4080
G01 X32.8089 Y32.4208
G01 X32.8040 Y32.4299
G01 X32.7961 Y32.4424
G01 X32.7865 Y32.4548
G01 X32.7793 Y32.4628
G01 X32.7694 Y32.4722
G01 X32.7616 Y32.4787
G01 X32.7497 Y32.4871
G01 X32.7409 Y32.4924
G01 X32.7292 Y32.4984
G01 X32.7137 Y32.5046
G01 X32.7031 Y32.5079
G01 X32.6891 Y32.5111
G01 X32.5382 Y32.5310
G01 X32.5239 Y32.5316
G01 X32.5157 Y32.5313
G01 X32.5054 Y32.5305
G01 X32.4930 Y32.5286
G01 X32.4839 Y32.5266
G01 X32.4733 Y32.5236
G01 X32.4631 Y32.5199
G01 X32.4503 Y32.5142
G01 X32.4433 Y32.5105
G01 X32.4324 Y32.5039
G01 X32.4241 Y32.4981
G01 X32.4163 Y32.4919
G01 X32.4083 Y32.4846
G01 X32.4013 Y32.4774
G01 X32.3935 Y32.4683
G01 X32.3866 Y32.4589
G01 X32.3797 Y32.4480
G01 X32.2728 Y32.2627
G01 X30.1370 Y33.4972
G01 X30.2433 Y33.6800
G01 X30.2500 Y33.6927
G01 X30.2541 Y33.7021
G01 X30.2573 Y33.7110
G01 X30.2609 Y33.7234
G01 X30.2632 Y33.7337
G01 X30.2647 Y33.7440
G01 X30.2657 Y33.7564
G01 X30.2659 Y33.7664
G01 X30.2654 Y33.7773
G01 X30.2639 Y33.7897
G01 X30.2622 Y33.7991
G01 X30.2601 Y33.8078
G01 X30.2562 Y33.8201
G01 X30.2522 Y33.8304
G01 X30.2476 Y33.8400
G01 X30.2411 Y33.8515
G01 X30.2362 Y33.8591
G01 X30.1424 Y33.9813
G01 X30.1312 Y33.9933
G01 X30.1205 Y34.0028
G01 X30.1105 Y34.0103
G01 X30.0968 Y34.0189
G01 X30.0881 Y34.0235
G01 X30.0763 Y34.0287
G01 X30.0671 Y34.0320
G01 X30.0537 Y34.0358
G01 X30.0402 Y34.0384
G01 X30.0286 Y34.0398
G01 X30.0144 Y34.0404
G01 X30.0063 Y34.0401
G01 X29.9958 Y34.0393
G01 X29.9868 Y34.0379
G01 X29.9730 Y34.0350
G01 X29.7846 Y33.9845
G01 X29.4581 Y33.9845
G01 X29.1449 Y34.0695
G01 X28.8653 Y34.2305
G01 X28.6348 Y34.4611
G01 X28.4716 Y34.7428
G01 X28.3889 Y35.0557
G01 X28.3887 Y35.2146
G01 X28.3872 Y35.2304
G01 X28.3845 Y35.2444
G01 X28.3803 Y35.2596
G01 X28.3763 Y35.2702
G01 X28.3707 Y35.2824
G01 X28.3666 Y35.2901
G01 X28.3621 Y35.2974
G01 X28.3541 Y35.3087
G01 X28.3483 Y35.3159
G01 X28.3406 Y35.3241
G01 X28.3343 Y35.3302
G01 X28.3254 Y35.3378
G01 X28.3164 Y35.3445
G01 X28.3080 Y35.3498
G01 X28.1965 Y35.4147
G01 X28.1807 Y35.4228
G01 X28.1665 Y35.4284
G01 X28.1521 Y35.4326
G01 X28.1357 Y35.4357
G01 X28.1175 Y35.4373
G01 X28.1076 Y35.4373
G01 X28.0988 Y35.4368
G01 X28.0824 Y35.4346
G01 X28.0675 Y35.4312
G01 X28.0505 Y35.4254
G01 X28.0339 Y35.4177
G01 X27.8979 Y35.3395
G01 X27.5847 Y35.2545
G01 X27.2585 Y35.2545
G01 X26.9453 Y35.3395
G01 X26.6657 Y35.5005
G01 X26.4351 Y35.7311
G01 X26.2719 Y36.0128
G01 X26.1892 Y36.3257
G01 X26.1892 Y36.6506
G01 X26.2719 Y36.9635
G01 X26.4349 Y37.2448
G01 X26.6657 Y37.4733
G01 X26.9453 Y37.6366
G01 X27.2579 Y37.7192
G01 X27.5853 Y37.7192
G01 X27.5941 Y37.7869
G01 X27.9241 Y37.6997
G01 X28.2191 Y37.5274
G01 X28.4623 Y37.2865
G01 X28.6344 Y36.9895
G01 X28.7216 Y36.6593
G01 X28.7217 Y36.4948
G01 X28.7226 Y36.4854
G01 X28.7244 Y36.4762
G01 X28.7271 Y36.4671
G01 X28.7306 Y36.4583
G01 X28.7370 Y36.4465
G01 X28.7400 Y36.4420
G01 X28.7458 Y36.4345
G01 X28.7546 Y36.4256
G01 X28.7642 Y36.4179
G01 X28.7711 Y36.4135
G01 X28.8803 Y36.3500
G01 X28.8889 Y36.3456
G01 X28.9021 Y36.3407
G01 X28.9113 Y36.3384
G01 X28.9207 Y36.3370
G01 X28.9302 Y36.3366
G01 X28.9396 Y36.3370
G01 X28.9490 Y36.3383
G01 X28.9583 Y36.3405
G01 X28.9711 Y36.3453
G01 X28.9800 Y36.3498
G01 X29.1184 Y36.4296
G01 X29.4487 Y36.5169
G01 X29.7937 Y36.5169
G01 X30.1238 Y36.4297
G01 X30.4187 Y36.2574
G01 X30.6619 Y36.0165
G01 X30.8341 Y35.7194
G01 X30.8866 Y35.5238
G01 X30.8898 Y35.5139
G01 X30.8930 Y35.5065
G01 X30.8985 Y35.4965
G01 X30.9068 Y35.4852
G01 X30.9135 Y35.4781
G01 X30.9208 Y35.4717
G01 X30.9287 Y35.4660
G01 X30.9353 Y35.4621
G01 X30.9396 Y35.4599
G01 X30.9501 Y35.4556
G01 X30.9553 Y35.4539
G01 X30.9648 Y35.4517
G01 X31.1091 Y35.4326
G01 X31.1209 Y35.4324
G01 X31.1286 Y35.4330
G01 X31.1382 Y35.4345
G01 X31.1476 Y35.4370
G01 X31.1530 Y35.4389
G01 X31.1604 Y35.4421
G01 X31.1690 Y35.4468
G01 X31.1781 Y35.4531
G01 X31.1886 Y35.4624
G01 X31.1951 Y35.4697
G01 X31.2017 Y35.4791
G01 X31.3440 Y35.7237
G01 X33.5976 Y34.4235
G01 X33.4545 Y34.1752
G01 X33.4490 Y34.1623
G01 X33.4459 Y34.1513
G01 X33.4438 Y34.1378
G01 X33.4435 Y34.1297
G01 X33.4441 Y34.1183
G01 X33.4452 Y34.1116
G01 X33.4483 Y34.0993
G01 X33.4533 Y34.0867
G01 X33.4560 Y34.0814
G01 X33.4612 Y34.0731
G01 X33.5509 Y33.9561
G01 X33.5576 Y33.9490
G01 X33.5650 Y33.9426
G01 X33.5729 Y33.9369
G01 X33.5794 Y33.9330
G01 X33.5851 Y33.9302
G01 X33.5943 Y33.9265
G01 X33.6052 Y33.9234
G01 X33.6122 Y33.9221
G01 X33.6187 Y33.9213
G01 X33.6285 Y33.9210
G01 X33.6382 Y33.9217
G01 X33.6443 Y33.9226
G01 X33.6526 Y33.9244
G01 X33.8482 Y33.9769
G01 X34.1930 Y33.9769
G01 X34.5230 Y33.8897
G01 X34.8180 Y33.7174
G01 X35.0612 Y33.4765
G01 X35.2333 Y33.1795
G01 X35.3206 Y32.8493
G01 X35.3206 Y32.5069
G01 X35.2333 Y32.1767
G01 X35.0611 Y31.8795
G01 X34.8180 Y31.6364
G01 X34.5230 Y31.4665
G01 X34.1927 Y31.3768
G01 X33.8484 Y31.3768
G01 X33.5180 Y31.4665
G01 X33.2231 Y31.6364
G01 X32.9799 Y31.8795
G01 X32.8076 Y32.1769
G01 X32.7552 Y32.3724
G01 X32.7519 Y32.3824
G01 X32.7460 Y32.3950
G01 X32.7409 Y32.4033
G01 X32.7349 Y32.4110
G01 X32.7283 Y32.4182
G01 X32.7209 Y32.4246
G01 X32.7130 Y32.4303
G01 X32.7065 Y32.4341
G01 X32.6957 Y32.4392
G01 X32.6905 Y32.4410
G01 X32.6769 Y32.4445
G01 X32.5326 Y32.4636
G01 X32.5229 Y32.4639
G01 X32.5131 Y32.4633
G01 X32.4995 Y32.4608
G01 X32.4940 Y32.4592
G01 X32.4849 Y32.4557
G01 X32.4761 Y32.4514
G01 X32.4701 Y32.4478
G01 X32.4601 Y32.4403
G01 X32.4529 Y32.4336
G01 X32.4465 Y32.4263
G01 X32.4405 Y32.4179
G01 X32.2975 Y32.1702
G01 X30.0444 Y33.4725
G01 X30.1862 Y33.7166
G01 X30.1912 Y33.7272
G01 X30.1944 Y33.7364
G01 X30.1966 Y33.7460
G01 X30.1982 Y33.7604
G01 X30.1976 Y33.7752
G01 X30.1960 Y33.7849
G01 X30.1935 Y33.7943
G01 X30.1901 Y33.8035
G01 X30.1878 Y33.8085
G01 X30.1806 Y33.8206
G01 X30.0908 Y33.9376
G01 X30.0841 Y33.9447
G01 X30.0768 Y33.9511
G01 X30.0688 Y33.9568
G01 X30.0623 Y33.9607
G01 X30.0580 Y33.9629
G01 X30.0469 Y33.9674
G01 X30.0369 Y33.9702
G01 X30.0293 Y33.9717
G01 X30.0230 Y33.9724
G01 X30.0133 Y33.9727
G01 X30.0035 Y33.9720
G01 X29.9968 Y33.9710
G01 X29.9892 Y33.9693
G01 X29.7935 Y33.9168
G01 X29.4491 Y33.9168
G01 X29.1187 Y34.0065
G01 X28.8238 Y34.1764
G01 X28.5807 Y34.4195
G01 X28.4085 Y34.7167
G01 X28.3212 Y35.0469
G01 X28.3211 Y35.2105
G01 X28.3208 Y35.2159
G01 X28.3194 Y35.2255
G01 X28.3173 Y35.2343
G01 X28.3141 Y35.2436
G01 X28.3079 Y35.2563
G01 X28.2999 Y35.2682
G01 X28.2905 Y35.2785
G01 X28.2834 Y35.2847
G01 X28.2786 Y35.2883
G01 X28.2717 Y35.2927
G01 X28.1625 Y35.3562
G01 X28.1539 Y35.3606
G01 X28.1407 Y35.3656
G01 X28.1315 Y35.3679
G01 X28.1221 Y35.3692
G01 X28.1127 Y35.3697
G01 X28.1032 Y35.3693
G01 X28.0938 Y35.3679
G01 X28.0846 Y35.3657
G01 X28.0717 Y35.3610
G01 X28.0628 Y35.3564
G01 X27.9241 Y35.2765
G01 X27.5938 Y35.1868
G01 X27.2494 Y35.1868
G01 X26.9191 Y35.2765
G01 X26.6241 Y35.4464
G01 X26.3810 Y35.6895
G01 X26.2088 Y35.9867
G01 X26.1216 Y36.3169
G01 X26.1216 Y36.6593
G01 X26.2088 Y36.9895
G01 X26.3809 Y37.2865
G01 X26.6241 Y37.5274
G01 X26.9191 Y37.6997
G01 X27.2491 Y37.7869
G01 X27.5941 Y37.7869
G00 Z0.5000
G00 X28.6637 Y36.0974
G01 F250.00
G01 Z-0.0400
G01 F2500.00
G01 X28.6677 Y36.1095
G01 X28.6710 Y36.1214
G01 X28.6962 Y36.2223
G01 X28.7556 Y36.1878
G01 X28.7021 Y36.1389
G01 X28.6916 Y36.1281
G01 X28.6637 Y36.0974
G01 X28.2890 Y35.5175
G01 X28.3408 Y35.5648
G01 X28.3512 Y35.5756
G01 X28.3791 Y35.6063
G01 X28.3752 Y35.5942
G01 X28.3719 Y35.5827
G01 X28.3471 Y35.4837
G01 X28.2890 Y35.5175
G01 X28.1609 Y35.4999
G01 X28.1969 Y35.5266
G01 X28.2081 Y35.5356
G01 X28.2900 Y35.6098
G01 X28.3021 Y35.6221
G01 X28.3718 Y35.6991
G01 X28.3826 Y35.7126
G01 X28.4474 Y35.8004
G01 X28.4541 Y35.8108
G01 X28.5063 Y35.8981
G01 X28.5152 Y35.9149
G01 X28.5617 Y36.0138
G01 X28.5661 Y36.0253
G01 X28.6023 Y36.1270
G01 X28.6058 Y36.1397
G01 X28.6320 Y36.2451
G01 X28.6341 Y36.2570
G01 X28.6468 Y36.3423
G01 X28.6574 Y36.3312
G01 X28.6673 Y36.3222
G01 X28.6779 Y36.3135
G01 X28.6921 Y36.3034
G01 X28.7028 Y36.2967
G01 X28.8123 Y36.2330
G01 X28.8310 Y36.2233
G01 X28.8494 Y36.2156
G01 X28.8646 Y36.2106
G01 X28.8846 Y36.2057
G01 X28.8463 Y36.1773
G01 X28.8347 Y36.1681
G01 X28.7529 Y36.0940
G01 X28.7408 Y36.0816
G01 X28.6710 Y36.0046
G01 X28.6603 Y35.9911
G01 X28.5954 Y35.9033
G01 X28.5888 Y35.8929
G01 X28.5367 Y35.8059
G01 X28.5277 Y35.7888
G01 X28.4812 Y35.6899
G01 X28.4767 Y35.6785
G01 X28.4413 Y35.5791
G01 X28.4370 Y35.5640
G01 X28.4111 Y35.4601
G01 X28.4087 Y35.4467
G01 X28.3964 Y35.3636
G01 X28.3854 Y35.3750
G01 X28.3755 Y35.3841
G01 X28.3649 Y35.3927
G01 X28.3507 Y35.4029
G01 X28.3400 Y35.4095
G01 X28.2305 Y35.4732
G01 X28.2133 Y35.4822
G01 X28.1983 Y35.4888
G01 X28.1792 Y35.4953
G01 X28.1609 Y35.4999
G01 X28.4548 Y35.2245
G01 X28.4548 Y35.2087
G01 X28.4596 Y35.1099
G01 X28.4611 Y35.0951
G01 X28.4771 Y34.9888
G01 X28.5047 Y34.8787
G01 X28.5434 Y34.7703
G01 X28.5887 Y34.6742
G01 X28.5962 Y34.6601
G01 X28.6468 Y34.5756
G01 X28.6530 Y34.5660
G01 X28.7144 Y34.4832
G01 X28.7247 Y34.4706
G01 X28.7957 Y34.3925
G01 X28.8749 Y34.3204
G01 X28.8876 Y34.3100
G01 X28.9731 Y34.2468
G01 X29.0720 Y34.1876
G01 X29.1755 Y34.1387
G01 X29.2748 Y34.1030
G01 X29.2905 Y34.0982
G01 X29.3928 Y34.0728
G01 X29.4987 Y34.0568
G01 X29.5142 Y34.0553
G01 X29.6130 Y34.0504
G01 X29.6294 Y34.0504
G01 X29.7348 Y34.0557
G01 X29.8480 Y34.0725
G01 X29.9607 Y34.1007
G01 X30.0600 Y34.1361
G01 X30.0749 Y34.1422
G01 X30.1645 Y34.1846
G01 X30.1783 Y34.1920
G01 X30.2694 Y34.2468
G01 X30.3549 Y34.3100
G01 X30.3676 Y34.3204
G01 X30.4456 Y34.3913
G01 X30.5236 Y34.4774
G01 X30.5917 Y34.5694
G01 X30.6463 Y34.6601
G01 X30.6538 Y34.6742
G01 X30.6991 Y34.7703
G01 X30.7351 Y34.8705
G01 X30.7396 Y34.8853
G01 X30.7639 Y34.9821
G01 X30.7669 Y34.9973
G01 X30.7822 Y35.1017
G01 X30.7879 Y35.2169
G01 X30.7822 Y35.3320
G01 X30.7654 Y35.4449
G01 X30.7378 Y35.5550
G01 X30.6990 Y35.6636
G01 X30.6497 Y35.7675
G01 X30.5957 Y35.8581
G01 X30.5865 Y35.8717
G01 X30.5225 Y35.9576
G01 X30.4518 Y36.0359
G01 X30.4402 Y36.0475
G01 X30.3607 Y36.1192
G01 X30.2761 Y36.1822
G01 X30.2632 Y36.1908
G01 X30.1783 Y36.2417
G01 X30.1639 Y36.2494
G01 X30.0685 Y36.2944
G01 X29.9607 Y36.3330
G01 X29.8497 Y36.3609
G01 X29.7364 Y36.3778
G01 X29.6221 Y36.3835
G01 X29.5077 Y36.3780
G01 X29.3928 Y36.3609
G01 X29.2818 Y36.3330
G01 X29.1740 Y36.2944
G01 X29.0705 Y36.2454
G01 X28.9731 Y36.1869
G01 X28.8876 Y36.1237
G01 X28.8749 Y36.1133
G01 X28.7957 Y36.0412
G01 X28.7244 Y35.9628
G01 X28.7144 Y35.9505
G01 X28.6517 Y35.8657
G01 X28.5964 Y35.7739
G01 X28.5890 Y35.7602
G01 X28.5467 Y35.6708
G01 X28.5404 Y35.6557
G01 X28.5051 Y35.5563
G01 X28.4771 Y35.4449
G01 X28.4603 Y35.3320
G01 X28.4548 Y35.2245
G00 Z0.5000
G00 X28.5224 Y35.2217
G01 F250.00
G01 Z-0.0400
G01 F2500.00
G01 X28.5224 Y35.2120
G01 X28.5275 Y35.1091
G01 X28.5434 Y35.0024
G01 X28.5696 Y34.8978
G01 X28.6059 Y34.7963
G01 X28.6520 Y34.6988
G01 X28.7075 Y34.6063
G01 X28.7717 Y34.5197
G01 X28.8441 Y34.4397
G01 X28.9240 Y34.3673
G01 X29.0107 Y34.3031
G01 X29.1032 Y34.2476
G01 X29.2007 Y34.2015
G01 X29.3022 Y34.1652
G01 X29.4068 Y34.1390
G01 X29.5135 Y34.1232
G01 X29.6212 Y34.1179
G01 X29.7290 Y34.1232
G01 X29.8356 Y34.1390
G01 X29.9403 Y34.1652
G01 X30.0418 Y34.2015
G01 X30.1393 Y34.2476
G01 X30.2318 Y34.3031
G01 X30.3184 Y34.3673
G01 X30.3983 Y34.4397
G01 X30.4708 Y34.5197
G01 X30.5350 Y34.6063
G01 X30.5905 Y34.6988
G01 X30.6366 Y34.7963
G01 X30.6729 Y34.8978
G01 X30.6991 Y35.0024
G01 X30.7149 Y35.1091
G01 X30.7202 Y35.2169
G01 X30.7149 Y35.3246
G01 X30.6991 Y35.4313
G01 X30.6729 Y35.5359
G01 X30.6366 Y35.6374
G01 X30.5905 Y35.7349
G01 X30.5350 Y35.8274
G01 X30.4708 Y35.9140
G01 X30.3983 Y35.9940
G01 X30.3184 Y36.0664
G01 X30.2318 Y36.1306
G01 X30.1393 Y36.1861
G01 X30.0418 Y36.2322
G01 X29.9403 Y36.2685
G01 X29.8356 Y36.2947
G01 X29.7290 Y36.3106
G01 X29.6212 Y36.3158
G01 X29.5135 Y36.3106
G01 X29.4068 Y36.2947
G01 X29.3022 Y36.2685
G01 X29.2007 Y36.2322
G01 X29.1032 Y36.1861
G01 X29.0107 Y36.1306
G01 X28.9240 Y36.0664
G01 X28.8441 Y35.9940
G01 X28.7717 Y35.9140
G01 X28.7075 Y35.8274
G01 X28.6520 Y35.7349
G01 X28.6060 Y35.6376
G01 X28.5696 Y35.5359
G01 X28.5434 Y35.4313
G01 X28.5275 Y35.3246
G01 X28.5224 Y35.2217
G00 Z0.5000
G00 X30.1142 Y34.0860
G01 F250.00
G01 Z-0.0400
G01 F2500.00
G01 X30.1931 Y34.1233
G01 X30.2045 Y34.1291
G01 X30.2972 Y34.1844
G01 X30.3073 Y34.1908
G01 X30.3164 Y34.1972
G01 X30.4036 Y34.2622
G01 X30.4130 Y34.2702
G01 X30.4860 Y34.3364
G01 X30.4946 Y34.3447
G01 X30.5020 Y34.3524
G01 X30.5691 Y34.4264
G01 X30.5817 Y34.4419
G01 X30.6409 Y34.5217
G01 X30.6480 Y34.5318
G01 X30.7060 Y34.6281
G01 X30.7144 Y34.6442
G01 X30.7569 Y34.7340
G01 X30.7615 Y34.7444
G01 X30.7657 Y34.7553
G01 X30.7988 Y34.8477
G01 X30.8027 Y34.8596
G01 X30.8293 Y34.9649
G01 X30.8320 Y34.9770
G01 X30.8495 Y35.0950
G01 X30.8504 Y35.1070
G01 X30.8554 Y35.2078
G01 X30.8554 Y35.2263
G01 X30.8504 Y35.3275
G01 X30.8491 Y35.3423
G01 X30.8469 Y35.3581
G01 X30.8565 Y35.3516
G01 X30.8707 Y35.3432
G01 X30.8809 Y35.3380
G01 X30.8952 Y35.3317
G01 X30.9078 Y35.3270
G01 X30.9191 Y35.3235
G01 X30.9326 Y35.3202
G01 X30.9460 Y35.3177
G01 X31.0865 Y35.2990
G01 X31.1022 Y35.2975
G01 X31.1220 Y35.2970
G01 X31.1426 Y35.2984
G01 X31.1619 Y35.3013
G01 X31.1788 Y35.3052
G01 X30.3251 Y33.8265
G01 X30.3202 Y33.8420
G01 X30.3139 Y33.8581
G01 X30.3051 Y33.8760
G01 X30.2958 Y33.8916
G01 X30.2853 Y33.9066
G01 X30.1975 Y34.0209
G01 X30.1878 Y34.0321
G01 X30.1787 Y34.0415
G01 X30.1704 Y34.0491
G01 X30.1602 Y34.0577
G01 X30.1498 Y34.0654
G01 X30.1389 Y34.0726
G01 X30.1255 Y34.0804
G01 X30.1142 Y34.0860
G01 X30.2423 Y34.0727
G01 X30.3335 Y34.1272
G01 X30.3516 Y34.1392
G01 X30.4429 Y34.2069
G01 X30.4567 Y34.2186
G01 X30.4915 Y34.2501
G01 X30.3264 Y33.9642
G01 X30.2544 Y34.0580
G01 X30.2423 Y34.0727
G00 Z0.5000
G00 X30.3963 Y33.4998
G01 F250.00
G01 Z-0.0400
G01 F2500.00
G01 X30.4046 Y33.4945
G01 X32.1394 Y32.4929
G01 X32.1483 Y32.4886
G01 X32.1612 Y32.4842
G01 X32.1689 Y32.4824
G01 X32.1800 Y32.4810
G01 X32.1870 Y32.4808
G01 X32.1976 Y32.4813
G01 X32.2086 Y32.4831
G01 X32.2196 Y32.4863
G01 X32.2258 Y32.4886
G01 X32.2344 Y32.4928
G01 X32.2456 Y32.4998
G01 X32.2518 Y32.5047
G01 X32.2619 Y32.5147
G01 X32.2679 Y32.5223
G01 X32.2732 Y32.5305
G01 X33.2748 Y34.2654
G01 X33.2781 Y34.2720
G01 X33.2817 Y34.2810
G01 X33.2844 Y34.2904
G01 X33.2861 Y34.3000
G01 X33.2869 Y34.3098
G01 X33.2867 Y34.3195
G01 X33.2856 Y34.3292
G01 X33.2836 Y34.3388
G01 X33.2806 Y34.3481
G01 X33.2767 Y34.3570
G01 X33.2719 Y34.3656
G01 X33.2664 Y34.3736
G01 X33.2601 Y34.3810
G01 X33.2531 Y34.3878
G01 X33.2454 Y34.3939
G01 X33.2372 Y34.3992
G01 X31.5023 Y35.4008
G01 X31.4941 Y35.4048
G01 X31.4867 Y35.4076
G01 X31.4773 Y35.4103
G01 X31.4677 Y35.4121
G01 X31.4580 Y35.4129
G01 X31.4482 Y35.4127
G01 X31.4385 Y35.4116
G01 X31.4290 Y35.4095
G01 X31.4197 Y35.4065
G01 X31.4107 Y35.4027
G01 X31.4022 Y35.3979
G01 X31.3941 Y35.3924
G01 X31.3867 Y35.3860
G01 X31.3799 Y35.3790
G01 X31.3738 Y35.3714
G01 X31.3688 Y35.3636
G01 X30.3658 Y33.6261
G01 X30.3614 Y33.6164
G01 X30.3587 Y33.6083
G01 X30.3565 Y33.5988
G01 X30.3552 Y33.5895
G01 X30.3549 Y33.5839
G01 X30.3550 Y33.5742
G01 X30.3561 Y33.5645
G01 X30.3582 Y33.5549
G01 X30.3612 Y33.5456
G01 X30.3651 Y33.5367
G01 X30.3698 Y33.5281
G01 X30.3730 Y33.5234
G01 X30.3788 Y33.5159
G01 X30.3839 Y33.5103
G01 X30.3887 Y33.5059
G01 X30.3963 Y33.4998
G01 X30.3569 Y33.4448
G01 X30.3644 Y33.4397
G01 X32.1070 Y32.4335
G01 X32.1211 Y32.4267
G01 X32.1354 Y32.4213
G01 X32.1506 Y32.4171
G01 X32.1672 Y32.4143
G01 X32.1827 Y32.4132
G01 X32.1994 Y32.4136
G01 X32.2143 Y32.4154
G01 X32.2247 Y32.4174
G01 X32.2326 Y32.4195
G01 X32.2459 Y32.4238
G01 X32.2610 Y32.4304
G01 X32.2753 Y32.4383
G01 X32.2888 Y32.4477
G01 X32.3013 Y32.4583
G01 X32.3127 Y32.4701
G01 X32.3222 Y32.4819
G01 X32.3297 Y32.4932
G01 X33.3322 Y34.2294
G01 X33.3397 Y34.2440
G01 X33.3457 Y34.2593
G01 X33.3502 Y34.2751
G01 X33.3532 Y34.2912
G01 X33.3545 Y34.3076
G01 X33.3543 Y34.3240
G01 X33.3524 Y34.3403
G01 X33.3503 Y34.3507
G01 X33.3482 Y34.3586
G01 X33.3439 Y34.3719
G01 X33.3374 Y34.3870
G01 X33.3294 Y34.4013
G01 X33.3201 Y34.4148
G01 X33.3095 Y34.4273
G01 X33.2977 Y34.4387
G01 X33.2858 Y34.4482
G01 X33.2746 Y34.4557
G01 X31.5383 Y35.4582
G01 X31.5237 Y35.4657
G01 X31.5084 Y35.4717
G01 X31.4927 Y35.4762
G01 X31.4765 Y35.4792
G01 X31.4602 Y35.4805
G01 X31.4438 Y35.4802
G01 X31.4275 Y35.4784
G01 X31.4170 Y35.4763
G01 X31.4091 Y35.4742
G01 X31.3958 Y35.4699
G01 X31.3808 Y35.4633
G01 X31.3664 Y35.4554
G01 X31.3529 Y35.4460
G01 X31.3404 Y35.4354
G01 X31.3290 Y35.4236
G01 X31.3188 Y35.4108
G01 X31.3120 Y35.4005
G01 X30.3060 Y33.6578
G01 X30.2990 Y33.6425
G01 X30.2941 Y33.6285
G01 X30.2912 Y33.6171
G01 X30.2884 Y33.6011
G01 X30.2872 Y33.5861
G01 X30.2875 Y33.5697
G01 X30.2894 Y33.5535
G01 X30.2923 Y33.5394
G01 X30.2959 Y33.5273
G01 X30.3011 Y33.5138
G01 X30.3077 Y33.5003
G01 X30.3166 Y33.4860
G01 X30.3262 Y33.4733
G01 X30.3353 Y33.4633
G01 X30.3454 Y33.4539
G01 X30.3569 Y33.4448
G00 Z0.5000
G00 X30.8951 Y34.9492
G01 F250.00
G01 Z-0.0400
G01 F2500.00
G01 X30.8982 Y34.9627
G01 X30.9006 Y34.9767
G01 X30.9153 Y35.0758
G01 X30.9172 Y35.0917
G01 X30.9231 Y35.2082
G01 X30.9231 Y35.2255
G01 X30.9218 Y35.2533
G01 X30.9419 Y35.2499
G01 X31.0597 Y35.2343
G01 X30.8951 Y34.9492
G00 Z0.5000
G00 X33.1502 Y33.6436
G01 F250.00
G01 Z-0.0400
G01 F2500.00
G01 X33.3153 Y33.9296
G01 X33.3871 Y33.8360
G01 X33.3995 Y33.8210
G01 X33.3083 Y33.7665
G01 X33.2904 Y33.7547
G01 X33.1990 Y33.6869
G01 X33.1852 Y33.6753
G01 X33.1502 Y33.6436
G00 Z0.5000
G00 X32.9265 Y32.5740
G01 F250.00
G01 Z-0.0400
G01 F2500.00
G01 X32.9273 Y32.5648
G01 X32.9426 Y32.4624
G01 X32.9688 Y32.3578
G01 X33.0052 Y32.2563
G01 X33.0513 Y32.1588
G01 X33.1067 Y32.0663
G01 X33.1710 Y31.9797
G01 X33.2434 Y31.8997
G01 X33.3233 Y31.8273
G01 X33.4099 Y31.7631
G01 X33.5025 Y31.7076
G01 X33.5999 Y31.6615
G01 X33.7015 Y31.6252
G01 X33.8061 Y31.5990
G01 X33.9128 Y31.5832
G01 X34.0205 Y31.5779
G01 X34.1282 Y31.5832
G01 X34.2349 Y31.5990
G01 X34.3395 Y31.6252
G01 X34.4411 Y31.6615
G01 X34.5386 Y31.7076
G01 X34.6311 Y31.7631
G01 X34.7177 Y31.8273
G01 X34.7976 Y31.8997
G01 X34.8700 Y31.9797
G01 X34.9343 Y32.0663
G01 X34.9897 Y32.1588
G01 X35.0359 Y32.2563
G01 X35.0722 Y32.3578
G01 X35.0984 Y32.4624
G01 X35.1142 Y32.5691
G01 X35.1195 Y32.6769
G01 X35.1142 Y32.7846
G01 X35.0984 Y32.8913
G01 X35.0722 Y32.9959
G01 X35.0359 Y33.0974
G01 X34.9897 Y33.1949
G01 X34.9343 Y33.2874
G01 X34.8700 Y33.3740
G01 X34.7976 Y33.4540
G01 X34.7177 Y33.5264
G01 X34.6311 Y33.5906
G01 X34.5386 Y33.6461
G01 X34.4411 Y33.6922
G01 X34.3395 Y33.7285
G01 X34.2349 Y33.7547
G01 X34.1282 Y33.7706
G01 X34.0205 Y33.7758
G01 X33.9128 Y33.7706
G01 X33.8061 Y33.7547
G01 X33.7015 Y33.7285
G01 X33.5999 Y33.6922
G01 X33.5025 Y33.6461
G01 X33.4099 Y33.5906
G01 X33.3233 Y33.5264
G01 X33.2434 Y33.4540
G01 X33.1710 Y33.3740
G01 X33.1067 Y33.2874
G01 X33.0513 Y33.1949
G01 X33.0052 Y33.0974
G01 X32.9688 Y32.9959
G01 X32.9426 Y32.8913
G01 X32.9268 Y32.7846
G01 X32.9215 Y32.6769
G01 X32.9265 Y32.5740
G00 Z0.5000
G00 X32.8590 Y32.5698
G01 F250.00
G01 Z-0.0400
G01 F2500.00
G01 X32.8604 Y32.5551
G01 X32.8761 Y32.4501
G01 X32.9039 Y32.3387
G01 X32.9424 Y32.2312
G01 X32.9912 Y32.1276
G01 X33.0500 Y32.0294
G01 X33.1182 Y31.9374
G01 X33.1950 Y31.8525
G01 X33.2798 Y31.7755
G01 X33.3717 Y31.7073
G01 X33.4698 Y31.6484
G01 X33.5740 Y31.5990
G01 X33.6824 Y31.5603
G01 X33.7924 Y31.5327
G01 X33.9053 Y31.5159
G01 X34.0197 Y31.5102
G01 X34.1340 Y31.5157
G01 X34.2486 Y31.5327
G01 X34.3587 Y31.5603
G01 X34.4670 Y31.5990
G01 X34.5697 Y31.6476
G01 X34.6680 Y31.7064
G01 X34.7600 Y31.7745
G01 X34.8449 Y31.8513
G01 X34.9218 Y31.9361
G01 X34.9901 Y32.0280
G01 X35.0490 Y32.1262
G01 X35.0980 Y32.2296
G01 X35.1371 Y32.3387
G01 X35.1646 Y32.4484
G01 X35.1815 Y32.5617
G01 X35.1872 Y32.6769
G01 X35.1816 Y32.7904
G01 X35.1649 Y32.9036
G01 X35.1371 Y33.0150
G01 X35.0987 Y33.1225
G01 X35.0498 Y33.2261
G01 X34.9910 Y33.3243
G01 X34.9229 Y33.4163
G01 X34.8460 Y33.5012
G01 X34.7613 Y33.5782
G01 X34.6694 Y33.6464
G01 X34.5712 Y33.7054
G01 X34.4677 Y33.7544
G01 X34.3587 Y33.7934
G01 X34.2489 Y33.8209
G01 X34.1357 Y33.8378
G01 X34.0213 Y33.8435
G01 X33.9103 Y33.8382
G01 X33.8982 Y33.8369
G01 X33.7937 Y33.8212
G01 X33.6824 Y33.7934
G01 X33.5748 Y33.7550
G01 X33.4713 Y33.7061
G01 X33.3731 Y33.6473
G01 X33.2810 Y33.5792
G01 X33.1962 Y33.5024
G01 X33.1192 Y33.4176
G01 X33.0509 Y33.3257
G01 X32.9920 Y33.2275
G01 X32.9430 Y33.1241
G01 X32.9043 Y33.0163
G01 X32.8764 Y32.9053
G01 X32.8596 Y32.7920
G01 X32.8539 Y32.6777
G01 X32.8590 Y32.5698
G01 X32.5834 Y32.6618
G01 X32.7466 Y32.9445
G01 X32.7434 Y32.9300
G01 X32.7411 Y32.9170
G01 X32.7264 Y32.8179
G01 X32.7246 Y32.8020
G01 X32.7187 Y32.6851
G01 X32.7187 Y32.6688
G01 X32.7198 Y32.6430
G01 X32.7001 Y32.6463
G01 X32.5834 Y32.6618
G01 X32.4647 Y32.5915
G01 X33.3167 Y34.0672
G01 X33.3225 Y34.0490
G01 X33.3286 Y34.0339
G01 X33.3378 Y34.0156
G01 X33.3473 Y33.9999
G01 X33.3567 Y33.9868
G01 X33.4457 Y33.8711
G01 X33.4551 Y33.8603
G01 X33.4635 Y33.8518
G01 X33.4726 Y33.8435
G01 X33.4825 Y33.8353
G01 X33.4918 Y33.8284
G01 X33.5029 Y33.8211
G01 X33.5163 Y33.8133
G01 X33.5275 Y33.8077
G01 X33.4486 Y33.7704
G01 X33.4372 Y33.7646
G01 X33.3445 Y33.7093
G01 X33.3341 Y33.7027
G01 X33.2381 Y33.6315
G01 X33.2287 Y33.6235
G01 X33.1558 Y33.5573
G01 X33.1471 Y33.5491
G01 X33.1398 Y33.5413
G01 X33.0731 Y33.4677
G01 X33.0600 Y33.4518
G01 X33.0009 Y33.3720
G01 X32.9938 Y33.3619
G01 X32.9353 Y33.2648
G01 X32.9273 Y33.2495
G01 X32.8848 Y33.1597
G01 X32.8798 Y33.1484
G01 X32.8760 Y33.1385
G01 X32.8428 Y33.0457
G01 X32.8390 Y33.0341
G01 X32.8124 Y32.9289
G01 X32.8098 Y32.9168
G01 X32.7922 Y32.7987
G01 X32.7913 Y32.7863
G01 X32.7864 Y32.6871
G01 X32.7864 Y32.6666
G01 X32.7865 Y32.6653
G01 X32.7913 Y32.5674
G01 X32.7923 Y32.5542
G01 X32.7944 Y32.5384
G01 X32.7853 Y32.5447
G01 X32.7711 Y32.5530
G01 X32.7608 Y32.5583
G01 X32.7465 Y32.5646
G01 X32.7353 Y32.5688
G01 X32.7227 Y32.5727
G01 X32.7091 Y32.5761
G01 X32.6958 Y32.5786
G01 X32.5552 Y32.5972
G01 X32.5396 Y32.5987
G01 X32.5196 Y32.5992
G01 X32.4990 Y32.5979
G01 X32.4814 Y32.5953
G01 X32.4647 Y32.5915
G00 Z0.5000
G00 X29.9798 Y26.0308
G01 F250.00
G01 Z-0.0400
G01 F2500.00
G01 X30.0236 Y26.1086
G01 X29.9448 Y26.1504
G01 X29.9606 Y26.1049
G01 X29.9662 Y26.0866
G01 X29.9798 Y26.0308
G01 X29.9386 Y25.8195
G01 X30.1165 Y26.1358
G01 X29.7960 Y26.3061
G01 X29.8207 Y26.2643
G01 X29.8286 Y26.2496
G01 X29.8638 Y26.1742
G01 X29.8719 Y26.1541
G01 X29.8964 Y26.0835
G01 X29.9013 Y26.0676
G01 X29.9204 Y25.9884
G01 X29.9245 Y25.9670
G01 X29.9356 Y25.8846
G01 X29.9368 Y25.8680
G01 X29.9386 Y25.8195
G01 X29.7918 Y25.4206
G01 X30.2095 Y26.1630
G01 X29.4572 Y26.5627
G01 X29.4705 Y26.5538
G01 X29.5332 Y26.5072
G01 X29.5434 Y26.4987
G01 X29.5987 Y26.4485
G01 X29.6104 Y26.4367
G01 X29.6605 Y26.3811
G01 X29.6710 Y26.3682
G01 X29.7153 Y26.3080
G01 X29.7226 Y26.2970
G01 X29.7625 Y26.2298
G01 X29.7688 Y26.2181
G01 X29.8017 Y26.1473
G01 X29.8068 Y26.1350
G01 X29.8325 Y26.0613
G01 X29.8363 Y26.0485
G01 X29.8553 Y25.9693
G01 X29.8577 Y25.9562
G01 X29.8682 Y25.8788
G01 X29.8692 Y25.8656
G01 X29.8719 Y25.7875
G01 X29.8717 Y25.7743
G01 X29.8669 Y25.6997
G01 X29.8650 Y25.6831
G01 X29.8528 Y25.6094
G01 X29.8493 Y25.5931
G01 X29.8299 Y25.5210
G01 X29.8258 Y25.5083
G01 X29.7982 Y25.4353
G01 X29.7918 Y25.4206
G00 Z0.5000
G00 X38.8796 Y18.1277
G01 F250.00
G01 Z-0.0400
G01 F2500.00
G01 X38.8871 Y18.1131
G01 X39.8896 Y16.3769
G01 X39.8974 Y16.3653
G01 X39.9081 Y16.3521
G01 X39.9149 Y16.3450
G01 X39.9224 Y16.3380
G01 X39.9349 Y16.3281
G01 X39.9490 Y16.3190
G01 X39.9583 Y16.3141
G01 X39.9654 Y16.3108
G01 X39.9734 Y16.3075
G01 X39.9821 Y16.3045
G01 X39.9969 Y16.3006
G01 X40.0102 Y16.2983
G01 X40.0276 Y16.2969
G01 X40.0397 Y16.2970
G01 X40.0541 Y16.2982
G01 X40.0702 Y16.3012
G01 X40.0845 Y16.3052
G01 X40.0995 Y16.3109
G01 X40.1123 Y16.3172
G01 X41.8491 Y17.3199
G01 X41.8624 Y17.3285
G01 X41.8752 Y17.3387
G01 X41.8870 Y17.3501
G01 X41.8986 Y17.3639
G01 X41.9070 Y17.3761
G01 X41.9157 Y17.3920
G01 X41.9227 Y17.4088
G01 X41.9279 Y17.4267
G01 X41.9302 Y17.4390
G01 X41.9319 Y17.4557
G01 X41.9321 Y17.4698
G01 X41.9308 Y17.4862
G01 X41.9278 Y17.5023
G01 X41.9233 Y17.5181
G01 X41.9183 Y17.5312
G01 X41.9118 Y17.5444
G01 X40.9094 Y19.2807
G01 X40.9005 Y19.2945
G01 X40.8903 Y19.3073
G01 X40.8789 Y19.3191
G01 X40.8664 Y19.3297
G01 X40.8529 Y19.3391
G01 X40.8386 Y19.3470
G01 X40.8235 Y19.3536
G01 X40.8059 Y19.3591
G01 X40.7919 Y19.3621
G01 X40.7756 Y19.3639
G01 X40.7592 Y19.3642
G01 X40.7428 Y19.3629
G01 X40.7267 Y19.3599
G01 X40.7124 Y19.3559
G01 X40.6974 Y19.3502
G01 X40.6846 Y19.3439
G01 X38.9420 Y18.3377
G01 X38.9292 Y18.3286
G01 X38.9200 Y18.3209
G01 X38.9089 Y18.3099
G01 X38.8983 Y18.2972
G01 X38.8899 Y18.2850
G01 X38.8820 Y18.2707
G01 X38.8754 Y18.2556
G01 X38.8711 Y18.2423
G01 X38.8673 Y18.2258
G01 X38.8656 Y18.2134
G01 X38.8648 Y18.1989
G01 X38.8651 Y18.1859
G01 X38.8671 Y18.1685
G01 X38.8700 Y18.1550
G01 X38.8736 Y18.1430
G01 X38.8796 Y18.1277
G01 X38.9412 Y18.1557
G01 X38.9457 Y18.1470
G01 X39.9474 Y16.4121
G01 X39.9514 Y16.4060
G01 X39.9575 Y16.3984
G01 X39.9643 Y16.3914
G01 X39.9717 Y16.3850
G01 X39.9797 Y16.3795
G01 X39.9883 Y16.3747
G01 X39.9972 Y16.3709
G01 X40.0065 Y16.3679
G01 X40.0161 Y16.3658
G01 X40.0258 Y16.3647
G01 X40.0355 Y16.3645
G01 X40.0453 Y16.3653
G01 X40.0549 Y16.3671
G01 X40.0643 Y16.3698
G01 X40.0733 Y16.3733
G01 X40.0799 Y16.3766
G01 X41.8189 Y17.3808
G01 X41.8270 Y17.3865
G01 X41.8354 Y17.3940
G01 X41.8406 Y17.3996
G01 X41.8467 Y17.4076
G01 X41.8495 Y17.4118
G01 X41.8543 Y17.4204
G01 X41.8582 Y17.4293
G01 X41.8611 Y17.4386
G01 X41.8632 Y17.4482
G01 X41.8643 Y17.4579
G01 X41.8645 Y17.4676
G01 X41.8637 Y17.4774
G01 X41.8619 Y17.4870
G01 X41.8593 Y17.4964
G01 X41.8564 Y17.5038
G01 X41.8524 Y17.5120
G01 X40.8496 Y19.2490
G01 X40.8455 Y19.2551
G01 X40.8394 Y19.2627
G01 X40.8326 Y19.2697
G01 X40.8252 Y19.2761
G01 X40.8172 Y19.2816
G01 X40.8086 Y19.2864
G01 X40.7997 Y19.2902
G01 X40.7904 Y19.2932
G01 X40.7808 Y19.2953
G01 X40.7711 Y19.2964
G01 X40.7614 Y19.2966
G01 X40.7516 Y19.2958
G01 X40.7420 Y19.2940
G01 X40.7326 Y19.2913
G01 X40.7236 Y19.2878
G01 X40.7170 Y19.2845
G01 X38.9800 Y18.2816
G01 X38.9739 Y18.2776
G01 X38.9663 Y18.2715
G01 X38.9593 Y18.2647
G01 X38.9529 Y18.2573
G01 X38.9474 Y18.2493
G01 X38.9444 Y18.2441
G01 X38.9405 Y18.2361
G01 X38.9379 Y18.2293
G01 X38.9358 Y18.2225
G01 X38.9337 Y18.2129
G01 X38.9326 Y18.2032
G01 X38.9324 Y18.1935
G01 X38.9332 Y18.1837
G01 X38.9350 Y18.1741
G01 X38.9377 Y18.1647
G01 X38.9412 Y18.1557
G00 Z0.5000
G00 X40.8479 Y19.5148
G01 F250.00
G01 Z-0.0400
G01 F2500.00
G01 X42.0826 Y17.3787
G01 X39.9466 Y16.1463
G01 X38.7141 Y18.2824
G01 X40.8479 Y19.5148
G01 X40.8726 Y19.6073
G01 X42.1751 Y17.3539
G01 X39.9218 Y16.0538
G01 X38.6217 Y18.3072
G01 X40.8726 Y19.6073
G00 Z0.5000
G00 X52.3010 Y25.8773
G01 F250.00
G01 Z-0.0400
G01 F2500.00
G01 X52.3085 Y25.8627
G01 X53.3110 Y24.1264
G01 X53.3187 Y24.1149
G01 X53.3295 Y24.1017
G01 X53.3362 Y24.0945
G01 X53.3437 Y24.0876
G01 X53.3562 Y24.0777
G01 X53.3704 Y24.0686
G01 X53.3797 Y24.0636
G01 X53.3867 Y24.0604
G01 X53.3948 Y24.0571
G01 X53.4034 Y24.0541
G01 X53.4183 Y24.0502
G01 X53.4316 Y24.0478
G01 X53.4490 Y24.0464
G01 X53.4610 Y24.0465
G01 X53.4755 Y24.0478
G01 X53.4916 Y24.0507
G01 X53.5059 Y24.0547
G01 X53.5208 Y24.0605
G01 X53.5336 Y24.0667
G01 X55.2705 Y25.0695
G01 X55.2838 Y25.0780
G01 X55.2966 Y25.0882
G01 X55.3084 Y25.0996
G01 X55.3200 Y25.1134
G01 X55.3283 Y25.1256
G01 X55.3371 Y25.1415
G01 X55.3441 Y25.1584
G01 X55.3492 Y25.1762
G01 X55.3516 Y25.1885
G01 X55.3533 Y25.2052
G01 X55.3535 Y25.2194
G01 X55.3521 Y25.2357
G01 X55.3492 Y25.2519
G01 X55.3447 Y25.2677
G01 X55.3396 Y25.2807
G01 X55.3332 Y25.2939
G01 X54.3308 Y27.0302
G01 X54.3219 Y27.0440
G01 X54.3117 Y27.0569
G01 X54.3003 Y27.0687
G01 X54.2877 Y27.0793
G01 X54.2743 Y27.0886
G01 X54.2599 Y27.0966
G01 X54.2449 Y27.1031
G01 X54.2273 Y27.1086
G01 X54.2132 Y27.1116
G01 X54.1969 Y27.1135
G01 X54.1805 Y27.1137
G01 X54.1642 Y27.1124
G01 X54.1480 Y27.1095
G01 X54.1337 Y27.1054
G01 X54.1188 Y27.0997
G01 X54.1060 Y27.0934
G01 X52.3634 Y26.0872
G01 X52.3505 Y26.0781
G01 X52.3414 Y26.0705
G01 X52.3302 Y26.0594
G01 X52.3197 Y26.0468
G01 X52.3113 Y26.0345
G01 X52.3033 Y26.0202
G01 X52.2968 Y26.0051
G01 X52.2924 Y25.9919
G01 X52.2886 Y25.9753
G01 X52.2869 Y25.9629
G01 X52.2861 Y25.9485
G01 X52.2864 Y25.9355
G01 X52.2885 Y25.9180
G01 X52.2914 Y25.9045
G01 X52.2950 Y25.8925
G01 X52.3010 Y25.8773
G01 X52.3626 Y25.9052
G01 X52.3671 Y25.8965
G01 X53.3687 Y24.1617
G01 X53.3728 Y24.1556
G01 X53.3788 Y24.1479
G01 X53.3856 Y24.1409
G01 X53.3931 Y24.1346
G01 X53.4011 Y24.1290
G01 X53.4096 Y24.1243
G01 X53.4186 Y24.1204
G01 X53.4279 Y24.1174
G01 X53.4374 Y24.1153
G01 X53.4471 Y24.1142
G01 X53.4569 Y24.1141
G01 X53.4666 Y24.1149
G01 X53.4762 Y24.1166
G01 X53.4856 Y24.1193
G01 X53.4947 Y24.1229
G01 X53.5013 Y24.1262
G01 X55.2403 Y25.1303
G01 X55.2483 Y25.1360
G01 X55.2567 Y25.1436
G01 X55.2619 Y25.1492
G01 X55.2681 Y25.1571
G01 X55.2709 Y25.1614
G01 X55.2756 Y25.1699
G01 X55.2795 Y25.1789
G01 X55.2825 Y25.1882
G01 X55.2846 Y25.1977
G01 X55.2857 Y25.2074
G01 X55.2858 Y25.2172
G01 X55.2850 Y25.2269
G01 X55.2833 Y25.2365
G01 X55.2806 Y25.2459
G01 X55.2778 Y25.2533
G01 X55.2738 Y25.2615
G01 X54.2709 Y26.9985
G01 X54.2669 Y27.0046
G01 X54.2608 Y27.0123
G01 X54.2540 Y27.0193
G01 X54.2466 Y27.0256
G01 X54.2385 Y27.0312
G01 X54.2300 Y27.0359
G01 X54.2210 Y27.0398
G01 X54.2117 Y27.0428
G01 X54.2022 Y27.0448
G01 X54.1925 Y27.0460
G01 X54.1827 Y27.0461
G01 X54.1730 Y27.0453
G01 X54.1634 Y27.0436
G01 X54.1540 Y27.0409
G01 X54.1449 Y27.0373
G01 X54.1384 Y27.0340
G01 X52.4014 Y26.0312
G01 X52.3953 Y26.0271
G01 X52.3876 Y26.0211
G01 X52.3806 Y26.0143
G01 X52.3743 Y26.0068
G01 X52.3687 Y25.9988
G01 X52.3658 Y25.9937
G01 X52.3619 Y25.9857
G01 X52.3592 Y25.9788
G01 X52.3571 Y25.9720
G01 X52.3551 Y25.9625
G01 X52.3540 Y25.9528
G01 X52.3538 Y25.9430
G01 X52.3546 Y25.9333
G01 X52.3563 Y25.9237
G01 X52.3590 Y25.9143
G01 X52.3626 Y25.9052
G00 Z0.5000
G00 X54.2717 Y27.2644
G01 F250.00
G01 Z-0.0400
G01 F2500.00
G01 X55.5041 Y25.1306
G01 X53.3704 Y23.8960
G01 X52.1380 Y26.0320
G01 X54.2717 Y27.2644
G01 X54.2965 Y27.3568
G01 X55.5965 Y25.1059
G01 X53.3457 Y23.8035
G01 X52.0456 Y26.0568
G01 X54.2965 Y27.3568
G00 Z0.5000
G00 X54.2407 Y31.1728
G01 F250.00
G01 Z-0.0400
G01 F2500.00
G01 X54.2422 Y31.1574
G01 X54.2567 Y31.0596
G01 X54.2596 Y31.0451
G01 X54.2856 Y30.9420
G01 X54.3214 Y30.8410
G01 X54.3272 Y30.8270
G01 X54.3730 Y30.7306
G01 X54.4278 Y30.6386
G01 X54.4367 Y30.6252
G01 X54.4999 Y30.5404
G01 X54.5716 Y30.4608
G01 X54.5832 Y30.4492
G01 X54.6628 Y30.3775
G01 X54.7534 Y30.3103
G01 X54.8451 Y30.2550
G01 X54.8596 Y30.2473
G01 X54.9557 Y30.2020
G01 X55.0559 Y30.1660
G01 X55.0715 Y30.1612
G01 X55.1741 Y30.1357
G01 X55.2871 Y30.1189
G01 X55.3940 Y30.1134
G01 X55.4104 Y30.1134
G01 X55.5174 Y30.1189
G01 X55.6218 Y30.1342
G01 X55.6378 Y30.1374
G01 X55.7404 Y30.1633
G01 X55.8410 Y30.1991
G01 X55.8562 Y30.2053
G01 X55.9529 Y30.2514
G01 X56.0442 Y30.3059
G01 X56.0571 Y30.3145
G01 X56.1359 Y30.3730
G01 X56.1476 Y30.3825
G01 X56.2266 Y30.4543
G01 X56.2987 Y30.5335
G01 X56.3091 Y30.5462
G01 X56.3723 Y30.6318
G01 X56.4307 Y30.7292
G01 X56.4768 Y30.8259
G01 X56.4830 Y30.8410
G01 X56.5189 Y30.9420
G01 X56.5463 Y31.0514
G01 X56.5623 Y31.1574
G01 X56.5639 Y31.1737
G01 X56.5689 Y31.2799
G01 X56.5633 Y31.3934
G01 X56.5479 Y31.4994
G01 X56.5447 Y31.5155
G01 X56.5208 Y31.6106
G01 X56.5181 Y31.6202
G01 X70.3950 Y45.4971
G01 X70.4306 Y45.5363
G01 X70.4613 Y45.5775
G01 X70.4671 Y45.5864
G01 X70.4872 Y45.6199
G01 X70.4945 Y45.6337
G01 X70.5142 Y45.6758
G01 X70.5317 Y45.7249
G01 X70.5435 Y45.7707
G01 X70.5465 Y45.7860
G01 X70.5530 Y45.8319
G01 X70.5556 Y45.8824
G01 X70.5556 Y52.8561
G01 X70.5643 Y52.8610
G01 X70.6485 Y52.9114
G01 X70.6621 Y52.9205
G01 X70.7475 Y52.9842
G01 X70.8262 Y53.0552
G01 X70.8378 Y53.0668
G01 X70.9096 Y53.1464
G01 X70.9725 Y53.2310
G01 X70.9817 Y53.2446
G01 X71.0365 Y53.3366
G01 X71.0818 Y53.4319
G01 X71.0880 Y53.4470
G01 X71.1238 Y53.5477
G01 X71.1497 Y53.6502
G01 X71.1529 Y53.6663
G01 X71.1683 Y53.7723
G01 X71.1739 Y53.8826
G01 X71.1737 Y53.8941
G01 X71.1682 Y54.0010
G01 X71.1529 Y54.1054
G01 X71.1497 Y54.1215
G01 X71.1238 Y54.2240
G01 X71.0880 Y54.3247
G01 X71.0818 Y54.3398
G01 X71.0365 Y54.4351
G01 X70.9768 Y54.5347
G01 X70.9141 Y54.6195
G01 X70.9037 Y54.6322
G01 X70.8316 Y54.7114
G01 X70.7536 Y54.7823
G01 X70.7409 Y54.7927
G01 X70.6581 Y54.8540
G01 X70.6485 Y54.8603
G01 X70.5565 Y54.9151
G01 X70.4612 Y54.9604
G01 X70.4460 Y54.9667
G01 X70.3451 Y55.0025
G01 X70.2428 Y55.0283
G01 X70.2274 Y55.0314
G01 X70.1208 Y55.0470
G01 X70.0154 Y55.0523
G01 X69.9990 Y55.0523
G01 X69.8921 Y55.0468
G01 X69.7877 Y55.0315
G01 X69.7716 Y55.0283
G01 X69.6694 Y55.0025
G01 X69.5684 Y54.9667
G01 X69.5533 Y54.9604
G01 X69.4565 Y54.9144
G01 X69.3660 Y54.8603
G01 X69.3524 Y54.8512
G01 X69.2669 Y54.7875
G01 X69.1882 Y54.7165
G01 X69.1766 Y54.7049
G01 X69.1049 Y54.6253
G01 X69.0419 Y54.5407
G01 X69.0328 Y54.5271
G01 X68.9787 Y54.4365
G01 X68.9327 Y54.3398
G01 X68.9267 Y54.3254
G01 X68.8931 Y54.2315
G01 X68.8886 Y54.2166
G01 X68.8628 Y54.1126
G01 X68.8471 Y54.0075
G01 X68.8456 Y53.9929
G01 X68.8408 Y53.8941
G01 X68.8408 Y53.8777
G01 X68.8463 Y53.7707
G01 X68.8628 Y53.6591
G01 X68.8886 Y53.5551
G01 X68.8934 Y53.5394
G01 X68.9297 Y53.4386
G01 X68.9780 Y53.3366
G01 X69.0367 Y53.2384
G01 X69.1004 Y53.1522
G01 X69.1108 Y53.1395
G01 X69.1829 Y53.0603
G01 X69.2669 Y52.9842
G01 X69.3524 Y52.9205
G01 X69.3660 Y52.9114
G01 X69.4501 Y52.8610
G01 X69.4589 Y52.8561
G01 X69.4589 Y46.1120
G01 X55.7426 Y32.3957
G01 X55.7330 Y32.3985
G01 X55.6378 Y32.4223
G01 X55.6218 Y32.4255
G01 X55.5174 Y32.4408
G01 X55.4104 Y32.4463
G01 X55.3940 Y32.4463
G01 X55.2871 Y32.4408
G01 X55.1827 Y32.4255
G01 X55.1666 Y32.4223
G01 X55.0641 Y32.3964
G01 X54.9634 Y32.3607
G01 X54.9483 Y32.3544
G01 X54.8515 Y32.3084
G01 X54.7610 Y32.2543
G01 X54.7474 Y32.2452
G01 X54.6615 Y32.1812
G01 X54.5779 Y32.1054
G01 X54.5009 Y32.0206
G01 X54.4321 Y31.9279
G01 X54.3730 Y31.8291
G01 X54.3272 Y31.7327
G01 X54.3214 Y31.7187
G01 X54.2856 Y31.6177
G01 X54.2598 Y31.5155
G01 X54.2567 Y31.5001
G01 X54.2422 Y31.4023
G01 X54.2406 Y31.3860
G01 X54.2356 Y31.2807
G01 X54.2407 Y31.1728
G00 Z0.5000
G00 X54.3082 Y31.1770
G01 F250.00
G01 Z-0.0400
G01 F2500.00
G01 X54.3091 Y31.1678
G01 X54.3244 Y31.0654
G01 X54.3493 Y30.9655
G01 X54.3521 Y30.9562
G01 X54.3869 Y30.8593
G01 X54.4308 Y30.7662
G01 X54.4354 Y30.7575
G01 X54.4858 Y30.6734
G01 X54.4913 Y30.6653
G01 X54.5527 Y30.5827
G01 X54.6218 Y30.5063
G01 X54.6287 Y30.4994
G01 X54.7050 Y30.4303
G01 X54.7877 Y30.3689
G01 X54.7958 Y30.3635
G01 X54.8842 Y30.3106
G01 X54.9817 Y30.2645
G01 X55.0786 Y30.2297
G01 X55.0879 Y30.2269
G01 X55.1878 Y30.2020
G01 X55.2945 Y30.1862
G01 X55.3974 Y30.1810
G01 X55.4071 Y30.1810
G01 X55.5100 Y30.1862
G01 X55.6118 Y30.2011
G01 X55.6214 Y30.2030
G01 X55.7213 Y30.2282
G01 X55.8182 Y30.2628
G01 X55.8273 Y30.2665
G01 X55.9203 Y30.3106
G01 X56.0087 Y30.3635
G01 X56.0168 Y30.3689
G01 X56.0956 Y30.4273
G01 X56.1029 Y30.4333
G01 X56.1793 Y30.5027
G01 X56.2486 Y30.5790
G01 X56.2548 Y30.5865
G01 X56.3161 Y30.6694
G01 X56.3715 Y30.7618
G01 X56.4156 Y30.8548
G01 X56.4193 Y30.8638
G01 X56.4524 Y30.9562
G01 X56.4546 Y30.9632
G01 X56.4801 Y31.0654
G01 X56.4953 Y31.1673
G01 X56.4963 Y31.1770
G01 X56.5011 Y31.2750
G01 X56.5012 Y31.2823
G01 X56.4959 Y31.3876
G01 X56.4806 Y31.4919
G01 X56.4790 Y31.4990
G01 X56.4546 Y31.5965
G01 X56.4401 Y31.6379
G01 X70.3471 Y45.5450
G01 X70.3788 Y45.5799
G01 X70.4055 Y45.6158
G01 X70.4288 Y45.6540
G01 X70.4334 Y45.6626
G01 X70.4513 Y45.7009
G01 X70.4672 Y45.7453
G01 X70.4776 Y45.7863
G01 X70.4795 Y45.7959
G01 X70.4856 Y45.8377
G01 X70.4879 Y45.8836
G01 X70.4879 Y52.8988
G01 X70.5274 Y52.9178
G01 X70.6158 Y52.9707
G01 X70.6218 Y52.9749
G01 X70.7006 Y53.0333
G01 X70.7063 Y53.0379
G01 X70.7843 Y53.1087
G01 X70.8536 Y53.1850
G01 X70.8598 Y53.1925
G01 X70.9182 Y53.2713
G01 X70.9223 Y53.2773
G01 X70.9765 Y53.3678
G01 X71.0206 Y53.4608
G01 X71.0243 Y53.4698
G01 X71.0589 Y53.5668
G01 X71.0840 Y53.6667
G01 X71.0859 Y53.6763
G01 X71.1009 Y53.7781
G01 X71.1062 Y53.8834
G01 X71.1061 Y53.8907
G01 X71.1009 Y53.9936
G01 X71.0859 Y54.0954
G01 X71.0840 Y54.1050
G01 X71.0589 Y54.2049
G01 X71.0243 Y54.3019
G01 X71.0206 Y54.3109
G01 X70.9765 Y54.4039
G01 X70.9210 Y54.4964
G01 X70.8598 Y54.5792
G01 X70.8536 Y54.5867
G01 X70.7843 Y54.6630
G01 X70.7081 Y54.7322
G01 X70.7006 Y54.7384
G01 X70.6198 Y54.7982
G01 X70.6137 Y54.8022
G01 X70.5253 Y54.8551
G01 X70.4323 Y54.8992
G01 X70.4232 Y54.9029
G01 X70.3263 Y54.9375
G01 X70.2264 Y54.9627
G01 X70.2168 Y54.9646
G01 X70.1150 Y54.9796
G01 X70.0121 Y54.9847
G01 X70.0024 Y54.9847
G01 X69.8995 Y54.9796
G01 X69.7976 Y54.9646
G01 X69.7881 Y54.9627
G01 X69.6882 Y54.9375
G01 X69.5912 Y54.9029
G01 X69.5822 Y54.8992
G01 X69.4892 Y54.8551
G01 X69.4008 Y54.8022
G01 X69.3927 Y54.7968
G01 X69.3100 Y54.7354
G01 X69.2337 Y54.6663
G01 X69.2268 Y54.6594
G01 X69.1577 Y54.5830
G01 X69.0963 Y54.5004
G01 X69.0908 Y54.4923
G01 X69.0380 Y54.4039
G01 X68.9939 Y54.3109
G01 X68.9901 Y54.3019
G01 X68.9556 Y54.2049
G01 X68.9304 Y54.1050
G01 X68.9285 Y54.0954
G01 X68.9138 Y53.9960
G01 X68.9132 Y53.9887
G01 X68.9084 Y53.8907
G01 X68.9084 Y53.8810
G01 X68.9135 Y53.7781
G01 X68.9294 Y53.6714
G01 X68.9556 Y53.5668
G01 X68.9901 Y53.4698
G01 X68.9939 Y53.4608
G01 X69.0358 Y53.3722
G01 X69.0392 Y53.3657
G01 X69.0935 Y53.2753
G01 X69.1547 Y53.1925
G01 X69.1609 Y53.1850
G01 X69.2268 Y53.1123
G01 X69.2319 Y53.1070
G01 X69.3100 Y53.0363
G01 X69.3947 Y52.9735
G01 X69.4008 Y52.9695
G01 X69.4870 Y52.9178
G01 X69.5265 Y52.8988
G01 X69.5265 Y46.0840
G01 X55.7603 Y32.3177
G01 X55.7189 Y32.3322
G01 X55.6190 Y32.3572
G01 X55.6118 Y32.3586
G01 X55.5148 Y32.3730
G01 X55.5075 Y32.3738
G01 X55.4022 Y32.3788
G01 X55.2994 Y32.3739
G01 X55.2897 Y32.3730
G01 X55.1926 Y32.3586
G01 X55.1854 Y32.3572
G01 X55.0832 Y32.3315
G01 X54.9862 Y32.2969
G01 X54.9772 Y32.2932
G01 X54.8842 Y32.2491
G01 X54.7958 Y32.1962
G01 X54.7877 Y32.1908
G01 X54.7050 Y32.1294
G01 X54.6251 Y32.0570
G01 X54.5527 Y31.9770
G01 X54.4884 Y31.8903
G01 X54.4330 Y31.7979
G01 X54.3889 Y31.7049
G01 X54.3851 Y31.6959
G01 X54.3506 Y31.5989
G01 X54.3254 Y31.4990
G01 X54.3236 Y31.4900
G01 X54.3091 Y31.3924
G01 X54.3082 Y31.3827
G01 X54.3032 Y31.2799
G01 X54.3082 Y31.1770
G00 Z0.5000
G00 X58.3793 Y29.8926
G01 F250.00
G01 Z-0.0400
G01 F2500.00
G01 X58.3868 Y29.8780
G01 X59.6381 Y27.7111
G01 X59.6453 Y27.7001
G01 X59.6555 Y27.6873
G01 X59.6669 Y27.6755
G01 X59.6780 Y27.6660
G01 X59.6913 Y27.6566
G01 X59.7029 Y27.6498
G01 X59.7156 Y27.6438
G01 X59.7278 Y27.6391
G01 X59.7380 Y27.6360
G01 X59.7458 Y27.6342
G01 X59.7624 Y27.6314
G01 X59.7798 Y27.6304
G01 X59.7975 Y27.6312
G01 X59.8099 Y27.6328
G01 X59.8177 Y27.6344
G01 X59.8331 Y27.6386
G01 X59.8502 Y27.6453
G01 X59.8641 Y27.6524
G01 X61.6000 Y28.6553
G01 X61.6109 Y28.6624
G01 X61.6237 Y28.6726
G01 X61.6325 Y28.6809
G01 X61.6416 Y28.6909
G01 X61.6517 Y28.7043
G01 X61.6595 Y28.7169
G01 X61.6663 Y28.7305
G01 X61.6702 Y28.7403
G01 X61.6743 Y28.7527
G01 X61.6763 Y28.7606
G01 X61.6794 Y28.7783
G01 X61.6803 Y28.7874
G01 X61.6806 Y28.7961
G01 X61.6800 Y28.8124
G01 X61.6792 Y28.8201
G01 X61.6775 Y28.8302
G01 X61.6753 Y28.8400
G01 X61.6725 Y28.8498
G01 X61.6667 Y28.8651
G01 X61.6586 Y28.8811
G01 X60.4069 Y31.0488
G01 X60.3997 Y31.0597
G01 X60.3895 Y31.0726
G01 X60.3812 Y31.0813
G01 X60.3712 Y31.0904
G01 X60.3612 Y31.0982
G01 X60.3503 Y31.1054
G01 X60.3377 Y31.1123
G01 X60.3227 Y31.1188
G01 X60.3050 Y31.1243
G01 X60.2959 Y31.1264
G01 X60.2858 Y31.1280
G01 X60.2685 Y31.1294
G01 X60.2508 Y31.1290
G01 X60.2351 Y31.1270
G01 X60.2258 Y31.1251
G01 X60.2172 Y31.1229
G01 X60.2003 Y31.1170
G01 X60.1838 Y31.1091
G01 X58.4416 Y30.1025
G01 X58.4288 Y30.0934
G01 X58.4196 Y30.0858
G01 X58.4085 Y30.0747
G01 X58.3979 Y30.0621
G01 X58.3895 Y30.0498
G01 X58.3816 Y30.0355
G01 X58.3751 Y30.0204
G01 X58.3707 Y30.0072
G01 X58.3669 Y29.9906
G01 X58.3652 Y29.9783
G01 X58.3644 Y29.9638
G01 X58.3647 Y29.9508
G01 X58.3668 Y29.9329
G01 X58.3697 Y29.9199
G01 X58.3732 Y29.9078
G01 X58.3793 Y29.8926
G01 X58.4409 Y29.9205
G01 X58.4453 Y29.9118
G01 X59.6950 Y27.7478
G01 X59.6995 Y27.7407
G01 X59.7031 Y27.7358
G01 X59.7108 Y27.7272
G01 X59.7164 Y27.7220
G01 X59.7239 Y27.7162
G01 X59.7287 Y27.7130
G01 X59.7372 Y27.7083
G01 X59.7462 Y27.7044
G01 X59.7555 Y27.7014
G01 X59.7689 Y27.6988
G01 X59.7794 Y27.6980
G01 X59.7900 Y27.6984
G01 X59.7993 Y27.6997
G01 X59.8078 Y27.7016
G01 X59.8182 Y27.7051
G01 X59.8288 Y27.7102
G01 X61.5674 Y28.7147
G01 X61.5754 Y28.7204
G01 X61.5838 Y28.7279
G01 X61.5890 Y28.7335
G01 X61.5952 Y28.7415
G01 X61.5980 Y28.7457
G01 X61.6027 Y28.7543
G01 X61.6066 Y28.7632
G01 X61.6096 Y28.7725
G01 X61.6117 Y28.7821
G01 X61.6128 Y28.7918
G01 X61.6129 Y28.8015
G01 X61.6121 Y28.8113
G01 X61.6104 Y28.8209
G01 X61.6077 Y28.8303
G01 X61.6048 Y28.8377
G01 X61.6008 Y28.8459
G01 X60.3500 Y31.0121
G01 X60.3455 Y31.0192
G01 X60.3418 Y31.0241
G01 X60.3342 Y31.0327
G01 X60.3286 Y31.0379
G01 X60.3211 Y31.0437
G01 X60.3163 Y31.0469
G01 X60.3078 Y31.0516
G01 X60.2988 Y31.0555
G01 X60.2895 Y31.0585
G01 X60.2761 Y31.0611
G01 X60.2656 Y31.0618
G01 X60.2549 Y31.0615
G01 X60.2457 Y31.0602
G01 X60.2372 Y31.0582
G01 X60.2268 Y31.0547
G01 X60.2162 Y31.0497
G01 X58.4796 Y30.0465
G01 X58.4735 Y30.0425
G01 X58.4659 Y30.0364
G01 X58.4589 Y30.0296
G01 X58.4526 Y30.0221
G01 X58.4470 Y30.0141
G01 X58.4440 Y30.0090
G01 X58.4402 Y30.0010
G01 X58.4375 Y29.9941
G01 X58.4354 Y29.9873
G01 X58.4333 Y29.9778
G01 X58.4322 Y29.9681
G01 X58.4321 Y29.9583
G01 X58.4329 Y29.9486
G01 X58.4346 Y29.9390
G01 X58.4373 Y29.9296
G01 X58.4409 Y29.9205
G00 Z0.5000
G00 X60.6627 Y30.8764
G01 F250.00
G01 Z-0.0400
G01 F2500.00
G01 X60.7972 Y30.9040
G01 X60.7958 Y30.8741
G01 X60.7958 Y30.8578
G01 X60.7961 Y30.8510
G01 X60.8009 Y30.7530
G01 X60.8017 Y30.7407
G01 X60.8036 Y30.7248
G01 X60.8184 Y30.6248
G01 X60.8210 Y30.6106
G01 X60.8241 Y30.5970
G01 X60.6627 Y30.8764
G01 X60.9361 Y30.7588
G01 X60.9375 Y30.7440
G01 X60.9533 Y30.6390
G01 X60.9810 Y30.5280
G01 X61.0195 Y30.4201
G01 X61.0669 Y30.3195
G01 X61.0788 Y30.2988
G01 X61.0867 Y30.2833
G01 X61.3369 Y29.8499
G01 X61.3743 Y29.7893
G01 X61.3811 Y29.7794
G01 X61.4442 Y29.6946
G01 X61.5160 Y29.6150
G01 X61.5276 Y29.6034
G01 X61.6006 Y29.5372
G01 X61.6129 Y29.5271
G01 X61.6991 Y29.4635
G01 X61.7959 Y29.4055
G01 X61.8926 Y29.3595
G01 X61.9078 Y29.3532
G01 X62.0085 Y29.3175
G01 X62.1119 Y29.2914
G01 X62.1271 Y29.2884
G01 X62.2314 Y29.2731
G01 X62.3458 Y29.2674
G01 X62.4601 Y29.2729
G01 X62.5734 Y29.2896
G01 X62.6847 Y29.3175
G01 X62.7931 Y29.3562
G01 X62.8958 Y29.4047
G01 X62.9941 Y29.4635
G01 X63.0861 Y29.5317
G01 X63.1710 Y29.6085
G01 X63.2479 Y29.6933
G01 X63.3167 Y29.7859
G01 X63.3751 Y29.8833
G01 X63.4241 Y29.9868
G01 X63.4628 Y30.0946
G01 X63.4902 Y30.2032
G01 X63.4921 Y30.2138
G01 X63.5067 Y30.3122
G01 X63.5082 Y30.3279
G01 X63.5132 Y30.4340
G01 X63.5082 Y30.5402
G01 X63.5067 Y30.5558
G01 X63.4910 Y30.6608
G01 X63.4652 Y30.7648
G01 X63.4620 Y30.7758
G01 X63.4241 Y30.8813
G01 X63.3759 Y30.9833
G01 X63.3655 Y31.0011
G01 X63.3576 Y31.0166
G01 X63.1074 Y31.4499
G01 X63.0695 Y31.5112
G01 X63.0630 Y31.5207
G01 X63.0000 Y31.6053
G01 X62.9232 Y31.6902
G01 X62.8384 Y31.7671
G01 X62.7465 Y31.8354
G01 X62.6484 Y31.8943
G01 X62.5444 Y31.9436
G01 X62.4358 Y31.9824
G01 X62.3280 Y32.0095
G01 X62.3172 Y32.0115
G01 X62.2112 Y32.0269
G01 X62.1059 Y32.0323
G01 X62.0895 Y32.0323
G01 X61.9908 Y32.0274
G01 X61.9752 Y32.0259
G01 X61.8696 Y32.0100
G01 X61.7669 Y31.9844
G01 X61.7513 Y31.9797
G01 X61.6512 Y31.9437
G01 X61.5485 Y31.8951
G01 X61.4488 Y31.8354
G01 X61.3640 Y31.7727
G01 X61.3517 Y31.7626
G01 X61.2781 Y31.6959
G01 X61.2671 Y31.6848
G01 X61.1953 Y31.6053
G01 X61.1322 Y31.5204
G01 X61.1233 Y31.5071
G01 X61.0692 Y31.4165
G01 X61.0195 Y31.3115
G01 X60.9810 Y31.2037
G01 X60.9552 Y31.1014
G01 X60.9521 Y31.0855
G01 X60.9367 Y30.9810
G01 X60.9312 Y30.8740
G01 X60.9312 Y30.8585
G01 X60.9361 Y30.7588
G00 Z0.5000
G00 X61.0037 Y30.7630
G01 F250.00
G01 Z-0.0400
G01 F2500.00
G01 X61.0045 Y30.7538
G01 X61.0198 Y30.6514
G01 X61.0460 Y30.5468
G01 X61.0823 Y30.4453
G01 X61.1263 Y30.3521
G01 X61.1296 Y30.3456
G01 X61.1394 Y30.3293
G01 X61.1418 Y30.3238
G01 X61.1453 Y30.3171
G01 X61.3967 Y29.8817
G01 X61.4342 Y29.8215
G01 X61.4971 Y29.7368
G01 X61.5695 Y29.6569
G01 X61.6460 Y29.5875
G01 X61.6533 Y29.5815
G01 X61.7320 Y29.5231
G01 X61.7402 Y29.5176
G01 X61.8285 Y29.4648
G01 X61.9260 Y29.4187
G01 X62.0276 Y29.3824
G01 X62.1298 Y29.3567
G01 X62.1370 Y29.3553
G01 X62.2389 Y29.3403
G01 X62.3466 Y29.3350
G01 X62.4543 Y29.3403
G01 X62.5610 Y29.3562
G01 X62.6656 Y29.3824
G01 X62.7672 Y29.4187
G01 X62.8647 Y29.4648
G01 X62.9572 Y29.5203
G01 X63.0438 Y29.5845
G01 X63.1237 Y29.6569
G01 X63.1961 Y29.7368
G01 X63.2604 Y29.8235
G01 X63.3158 Y29.9160
G01 X63.3619 Y30.0135
G01 X63.3983 Y30.1150
G01 X63.4240 Y30.2172
G01 X63.4253 Y30.2244
G01 X63.4403 Y30.3263
G01 X63.4455 Y30.4292
G01 X63.4455 Y30.4389
G01 X63.4403 Y30.5418
G01 X63.4252 Y30.6442
G01 X63.4234 Y30.6532
G01 X63.3996 Y30.7483
G01 X63.3975 Y30.7554
G01 X63.3619 Y30.8546
G01 X63.3158 Y30.9521
G01 X63.3049 Y30.9706
G01 X63.3025 Y30.9761
G01 X63.2990 Y30.9828
G01 X63.0488 Y31.4161
G01 X63.0128 Y31.4744
G01 X63.0086 Y31.4804
G01 X62.9472 Y31.5630
G01 X62.8748 Y31.6429
G01 X62.7949 Y31.7154
G01 X62.7082 Y31.7796
G01 X62.6157 Y31.8351
G01 X62.5184 Y31.8811
G01 X62.4167 Y31.9175
G01 X62.3145 Y31.9432
G01 X62.3073 Y31.9445
G01 X62.2054 Y31.9595
G01 X62.1026 Y31.9647
G01 X62.0928 Y31.9647
G01 X61.9948 Y31.9599
G01 X61.9851 Y31.9589
G01 X61.8833 Y31.9437
G01 X61.7834 Y31.9188
G01 X61.7741 Y31.9160
G01 X61.6771 Y31.8812
G01 X61.5796 Y31.8351
G01 X61.4871 Y31.7796
G01 X61.4043 Y31.7184
G01 X61.3970 Y31.7124
G01 X61.3241 Y31.6463
G01 X61.3172 Y31.6394
G01 X61.2481 Y31.5630
G01 X61.1867 Y31.4804
G01 X61.1813 Y31.4723
G01 X61.1285 Y31.3839
G01 X61.0823 Y31.2864
G01 X61.0460 Y31.1849
G01 X61.0209 Y31.0850
G01 X61.0190 Y31.0754
G01 X61.0040 Y30.9736
G01 X60.9988 Y30.8707
G01 X60.9988 Y30.8610
G01 X61.0037 Y30.7630
G00 Z0.5000
G00 X61.4766 Y29.4670
G01 F250.00
G01 Z-0.0400
G01 F2500.00
G01 X61.5113 Y29.4356
G01 X61.5251 Y29.4240
G01 X61.6166 Y29.3560
G01 X61.6351 Y29.3440
G01 X61.7284 Y29.2882
G01 X61.6382 Y29.1872
G01 X61.4766 Y29.4670
G01 X61.6397 Y29.0493
G01 X60.5443 Y30.9461
G01 X60.5636 Y30.9419
G01 X60.5729 Y30.9404
G01 X60.5846 Y30.9392
G01 X60.5953 Y30.9385
G01 X60.6063 Y30.9384
G01 X60.6177 Y30.9387
G01 X60.6281 Y30.9396
G01 X60.6401 Y30.9411
G01 X60.6503 Y30.9429
G01 X60.7756 Y30.9685
G01 X60.7880 Y30.9714
G01 X60.8022 Y30.9756
G01 X60.8151 Y30.9803
G01 X60.8287 Y30.9862
G01 X60.8415 Y30.9927
G01 X60.8526 Y30.9991
G01 X60.8641 Y31.0068
G01 X60.8730 Y31.0134
G01 X60.8699 Y30.9925
G01 X60.8686 Y30.9770
G01 X60.8636 Y30.8761
G01 X60.8635 Y30.8584
G01 X60.8685 Y30.7563
G01 X60.8694 Y30.7440
G01 X60.8851 Y30.6364
G01 X60.8872 Y30.6242
G01 X60.9163 Y30.5083
G01 X60.9201 Y30.4966
G01 X60.9547 Y30.4000
G01 X60.9613 Y30.3844
G01 X61.0055 Y30.2910
G01 X61.0117 Y30.2793
G01 X61.0188 Y30.2672
G01 X61.0281 Y30.2494
G01 X61.2812 Y29.8111
G01 X61.3163 Y29.7546
G01 X61.3233 Y29.7439
G01 X61.3856 Y29.6597
G01 X61.3970 Y29.6456
G01 X61.4659 Y29.5696
G01 X61.4750 Y29.5601
G01 X61.5556 Y29.4868
G01 X61.5642 Y29.4794
G01 X61.5726 Y29.4728
G01 X61.6528 Y29.4134
G01 X61.6706 Y29.4016
G01 X61.7640 Y29.3459
G01 X61.7747 Y29.3405
G01 X61.8607 Y29.2998
G01 X61.8426 Y29.2914
G01 X61.8241 Y29.2807
G01 X61.8067 Y29.2685
G01 X61.7921 Y29.2562
G01 X61.7833 Y29.2478
G01 X61.7761 Y29.2402
G01 X61.6906 Y29.1443
G01 X61.6823 Y29.1343
G01 X61.6728 Y29.1214
G01 X61.6656 Y29.1103
G01 X61.6592 Y29.0990
G01 X61.6535 Y29.0876
G01 X61.6486 Y29.0761
G01 X61.6442 Y29.0642
G01 X61.6397 Y29.0493
G00 Z0.5000
G00 X62.0977 Y32.1095
G01 F250.00
G01 Z-0.0400
G01 F2500.00
G01 X62.4200 Y32.0669
G01 X62.7198 Y31.9439
G01 X62.9764 Y31.7476
G01 X63.1801 Y31.4790
G01 X63.4206 Y31.0660
G01 X63.5477 Y30.7564
G01 X63.5902 Y30.4340
G01 X63.5477 Y30.1117
G01 X63.4248 Y29.8123
G01 X63.2259 Y29.5553
G01 X62.9683 Y29.3582
G01 X62.6684 Y29.2329
G01 X62.3466 Y29.1904
G01 X62.0247 Y29.2329
G01 X62.0072 Y29.2399
G01 X61.9920 Y29.2446
G01 X61.9765 Y29.2479
G01 X61.9607 Y29.2496
G01 X61.9465 Y29.2499
G01 X61.9337 Y29.2491
G01 X61.9201 Y29.2471
G01 X61.9082 Y29.2445
G01 X61.8979 Y29.2415
G01 X61.8841 Y29.2362
G01 X61.8742 Y29.2316
G01 X61.8627 Y29.2251
G01 X61.8541 Y29.2194
G01 X61.8440 Y29.2117
G01 X61.8357 Y29.2043
G01 X61.8294 Y29.1981
G01 X61.7413 Y29.0995
G01 X61.7313 Y29.0871
G01 X61.7238 Y29.0757
G01 X61.7189 Y29.0672
G01 X61.7136 Y29.0563
G01 X61.7084 Y29.0430
G01 X61.7054 Y29.0333
G01 X61.7027 Y29.0221
G01 X61.7005 Y29.0077
G01 X61.6996 Y28.9972
G01 X61.6994 Y28.9887
G01 X61.6999 Y28.9759
G01 X61.7022 Y28.9583
G01 X61.7064 Y28.9408
G01 X61.7106 Y28.9286
G01 X61.7143 Y28.9197
G01 X61.7214 Y28.9058
G01 X61.8318 Y28.7126
G01 X59.6951 Y27.4797
G01 X58.2137 Y30.0477
G01 X60.3481 Y31.2805
G01 X60.4598 Y31.0889
G01 X60.4688 Y31.0751
G01 X60.4750 Y31.0670
G01 X60.4821 Y31.0590
G01 X60.4892 Y31.0518
G01 X60.4955 Y31.0462
G01 X60.5023 Y31.0406
G01 X60.5136 Y31.0327
G01 X60.5216 Y31.0278
G01 X60.5307 Y31.0230
G01 X60.5408 Y31.0185
G01 X60.5508 Y31.0148
G01 X60.5618 Y31.0115
G01 X60.5745 Y31.0087
G01 X60.5874 Y31.0069
G01 X60.5978 Y31.0061
G01 X60.6086 Y31.0061
G01 X60.6208 Y31.0069
G01 X60.6376 Y31.0094
G01 X60.7677 Y31.0361
G01 X60.7771 Y31.0386
G01 X60.7875 Y31.0421
G01 X60.8000 Y31.0474
G01 X60.8086 Y31.0518
G01 X60.8183 Y31.0575
G01 X60.8308 Y31.0663
G01 X60.8391 Y31.0731
G01 X60.8497 Y31.0834
G01 X60.8584 Y31.0932
G01 X60.8657 Y31.1030
G01 X60.8738 Y31.1158
G01 X60.8790 Y31.1256
G01 X60.8857 Y31.1413
G01 X60.8901 Y31.1555
G01 X60.8927 Y31.1665
G01 X60.8959 Y31.1865
G01 X61.0196 Y31.4879
G01 X61.2186 Y31.7473
G01 X61.4755 Y31.9439
G01 X61.7753 Y32.0669
G01 X62.0977 Y32.1095
G01 X62.0977 Y32.1777
G01 X62.4376 Y32.1329
G01 X62.7538 Y32.0031
G01 X63.0247 Y31.7957
G01 X63.2365 Y31.5166
G01 X63.4814 Y31.0960
G01 X63.6136 Y30.7740
G01 X63.6585 Y30.4340
G01 X63.6136 Y30.0941
G01 X63.4839 Y29.7782
G01 X63.2741 Y29.5070
G01 X63.0025 Y29.2991
G01 X62.6862 Y29.1670
G01 X62.3466 Y29.1222
G01 X62.0069 Y29.1670
G01 X61.9886 Y29.1746
G01 X61.9796 Y29.1779
G01 X61.9709 Y29.1801
G01 X61.9613 Y29.1816
G01 X61.9470 Y29.1822
G01 X61.9376 Y29.1814
G01 X61.9283 Y29.1798
G01 X61.9191 Y29.1772
G01 X61.9134 Y29.1751
G01 X61.9018 Y29.1696
G01 X61.8901 Y29.1619
G01 X61.8828 Y29.1558
G01 X61.8781 Y29.1512
G01 X61.7923 Y29.0550
G01 X61.7867 Y29.0482
G01 X61.7835 Y29.0437
G01 X61.7787 Y29.0355
G01 X61.7746 Y29.0268
G01 X61.7714 Y29.0178
G01 X61.7681 Y29.0036
G01 X61.7671 Y28.9925
G01 X61.7671 Y28.9851
G01 X61.7676 Y28.9778
G01 X61.7687 Y28.9706
G01 X61.7709 Y28.9613
G01 X61.7740 Y28.9523
G01 X61.7779 Y28.9436
G01 X61.9240 Y28.6876
G01 X59.6703 Y27.3873
G01 X58.1213 Y30.0725
G01 X60.3725 Y31.3727
