(G-CODE GENERATED BY FLATCAM v8.991 - www.flatcam.org - Version Date: 2019/12/30)

(Name: Cncjob_drill_1.0mm)
(Type: G-code from Excellon)
(Units: MM)

(Created on Monday, 13 November 2023 at 17:34)

(Feedrate: 480 mm/min)
(Feedrate rapids 1500 mm/min)

(Z_Cut: -2 mm)
(Z_Move: 1 mm)
(Z Toolchange: 15 mm)
(X,Y Toolchange: None mm)
(Z Start: None mm)
(Z End: 0.5 mm)
(Steps per circle: 64)
(Preprocessor Excellon: default)

(X range:    9.1389 ...  113.0579  mm)
(Y range:   12.5857 ...  132.2375  mm)

(Spindle Speed: 0 RPM)
G21
G90
G94




G01 F480.00
G00 Z1.0000

M03
G4 P1.0
G00 X8.0312 Y27.4699
G01 Z-2.0000
G01 Z0
G00 Z1.0000
G00 X8.0312 Y30.0099
G01 Z-2.0000
G01 Z0
G00 Z1.0000
G00 X8.0312 Y32.5499
G01 Z-2.0000
G01 Z0
G00 Z1.0000
G00 X6.8908 Y38.4909
G01 Z-2.0000
G01 Z0
G00 Z1.0000
G00 X9.0193 Y63.0832
G01 Z-2.0000
G01 Z0
G00 Z1.0000
G00 X11.9682 Y83.8579
G01 Z-2.0000
G01 Z0
G00 Z1.0000
G00 X14.4930 Y86.9821
G01 Z-2.0000
G01 Z0
G00 Z1.0000
G00 X14.5082 Y83.8579
G01 Z-2.0000
G01 Z0
G00 Z1.0000
G00 X17.0482 Y83.8579
G01 Z-2.0000
G01 Z0
G00 Z1.0000
G00 X19.5882 Y83.8579
G01 Z-2.0000
G01 Z0
G00 Z1.0000
G00 X22.1282 Y83.8579
G01 Z-2.0000
G01 Z0
G00 Z1.0000
G00 X24.6682 Y83.8579
G01 Z-2.0000
G01 Z0
G00 Z1.0000
G00 X27.2082 Y83.8579
G01 Z-2.0000
G01 Z0
G00 Z1.0000
G00 X29.7482 Y83.8579
G01 Z-2.0000
G01 Z0
G00 Z1.0000
G00 X32.2882 Y83.8579
G01 Z-2.0000
G01 Z0
G00 Z1.0000
G00 X34.8282 Y83.8579
G01 Z-2.0000
G01 Z0
G00 Z1.0000
G00 X37.3682 Y83.8579
G01 Z-2.0000
G01 Z0
G00 Z1.0000
G00 X39.9082 Y83.8579
G01 Z-2.0000
G01 Z0
G00 Z1.0000
G00 X42.4482 Y83.8579
G01 Z-2.0000
G01 Z0
G00 Z1.0000
G00 X44.9882 Y83.8579
G01 Z-2.0000
G01 Z0
G00 Z1.0000
G00 X47.5282 Y83.8579
G01 Z-2.0000
G01 Z0
G00 Z1.0000
G00 X47.1193 Y89.3722
G01 Z-2.0000
G01 Z0
G00 Z1.0000
G00 X49.5171 Y92.1179
G01 Z-2.0000
G01 Z0
G00 Z1.0000
G00 X47.3174 Y93.3879
G01 Z-2.0000
G01 Z0
G00 Z1.0000
G00 X45.1178 Y94.6579
G01 Z-2.0000
G01 Z0
G00 Z1.0000
G00 X42.9181 Y95.9279
G01 Z-2.0000
G01 Z0
G00 Z1.0000
G00 X40.7185 Y97.1979
G01 Z-2.0000
G01 Z0
G00 Z1.0000
G00 X38.7500 Y94.7291
G01 Z-2.0000
G01 Z0
G00 Z1.0000
G00 X24.9527 Y93.1619
G01 Z-2.0000
G01 Z0
G00 Z1.0000
G00 X22.7531 Y91.8919
G01 Z-2.0000
G01 Z0
G00 Z1.0000
G00 X22.6083 Y95.3412
G01 Z-2.0000
G01 Z0
G00 Z1.0000
G00 X27.1524 Y94.4319
G01 Z-2.0000
G01 Z0
G00 Z1.0000
G00 X29.3520 Y95.7019
G01 Z-2.0000
G01 Z0
G00 Z1.0000
G00 X31.5516 Y96.9719
G01 Z-2.0000
G01 Z0
G00 Z1.0000
G00 X33.7513 Y98.2419
G01 Z-2.0000
G01 Z0
G00 Z1.0000
G00 X48.3385 Y110.3958
G01 Z-2.0000
G01 Z0
G00 Z1.0000
G00 X50.5381 Y109.1258
G01 Z-2.0000
G01 Z0
G00 Z1.0000
G00 X52.7378 Y107.8558
G01 Z-2.0000
G01 Z0
G00 Z1.0000
G00 X54.9374 Y106.5858
G01 Z-2.0000
G01 Z0
G00 Z1.0000
G00 X57.1371 Y105.3158
G01 Z-2.0000
G01 Z0
G00 Z1.0000
G00 X59.3367 Y104.0458
G01 Z-2.0000
G01 Z0
G00 Z1.0000
G00 X61.5363 Y102.7758
G01 Z-2.0000
G01 Z0
G00 Z1.0000
G00 X63.7360 Y101.5058
G01 Z-2.0000
G01 Z0
G00 Z1.0000
G00 X55.4022 Y99.3519
G01 Z-2.0000
G01 Z0
G00 Z1.0000
G00 X51.7167 Y90.8479
G01 Z-2.0000
G01 Z0
G00 Z1.0000
G00 X53.9163 Y89.5779
G01 Z-2.0000
G01 Z0
G00 Z1.0000
G00 X56.1160 Y88.3079
G01 Z-2.0000
G01 Z0
G00 Z1.0000
G00 X69.7609 Y74.7875
G01 Z-2.0000
G01 Z0
G00 Z1.0000
G00 X69.7609 Y72.2475
G01 Z-2.0000
G01 Z0
G00 Z1.0000
G00 X69.7609 Y69.7075
G01 Z-2.0000
G01 Z0
G00 Z1.0000
G00 X69.7609 Y67.1675
G01 Z-2.0000
G01 Z0
G00 Z1.0000
G00 X69.7609 Y64.6275
G01 Z-2.0000
G01 Z0
G00 Z1.0000
G00 X78.9404 Y71.7370
G01 Z-2.0000
G01 Z0
G00 Z1.0000
G00 X78.9404 Y69.1970
G01 Z-2.0000
G01 Z0
G00 Z1.0000
G00 X78.9404 Y66.6570
G01 Z-2.0000
G01 Z0
G00 Z1.0000
G00 X78.9404 Y64.1170
G01 Z-2.0000
G01 Z0
G00 Z1.0000
G00 X78.9404 Y61.5770
G01 Z-2.0000
G01 Z0
G00 Z1.0000
G00 X78.9404 Y59.0370
G01 Z-2.0000
G01 Z0
G00 Z1.0000
G00 X75.4200 Y38.2699
G01 Z-2.0000
G01 Z0
G00 Z1.0000
G00 X73.2203 Y36.9999
G01 Z-2.0000
G01 Z0
G00 Z1.0000
G00 X71.0207 Y35.7299
G01 Z-2.0000
G01 Z0
G00 Z1.0000
G00 X68.8211 Y34.4599
G01 Z-2.0000
G01 Z0
G00 Z1.0000
G00 X66.6214 Y33.1899
G01 Z-2.0000
G01 Z0
G00 Z1.0000
G00 X64.4218 Y31.9199
G01 Z-2.0000
G01 Z0
G00 Z1.0000
G00 X62.2221 Y30.6499
G01 Z-2.0000
G01 Z0
G00 Z1.0000
G00 X60.0225 Y29.3799
G01 Z-2.0000
G01 Z0
G00 Z1.0000
G00 X55.4022 Y31.2799
G01 Z-2.0000
G01 Z0
G00 Z1.0000
G00 X53.8198 Y25.5801
G01 Z-2.0000
G01 Z0
G00 Z1.0000
G00 X40.3985 Y17.8306
G01 Z-2.0000
G01 Z0
G00 Z1.0000
G00 X35.6487 Y26.0576
G01 Z-2.0000
G01 Z0
G00 Z1.0000
G00 X32.1612 Y26.3269
G01 Z-2.0000
G01 Z0
G00 Z1.0000
G00 X22.0012 Y36.1059
G01 Z-2.0000
G01 Z0
G00 Z1.0000
G00 X23.0223 Y39.0269
G01 Z-2.0000
G01 Z0
G00 Z1.0000
G00 X25.2220 Y37.7569
G01 Z-2.0000
G01 Z0
G00 Z1.0000
G00 X27.4216 Y36.4869
G01 Z-2.0000
G01 Z0
G00 Z1.0000
G00 X29.6212 Y35.2169
G01 Z-2.0000
G01 Z0
G00 Z1.0000
G00 X31.8209 Y33.9469
G01 Z-2.0000
G01 Z0
G00 Z1.0000
G00 X34.0205 Y32.6769
G01 Z-2.0000
G01 Z0
G00 Z1.0000
G00 X45.7858 Y33.8199
G01 Z-2.0000
G01 Z0
G00 Z1.0000
G00 X49.0700 Y33.8072
G01 Z-2.0000
G01 Z0
G00 Z1.0000
G00 X52.4025 Y42.5778
G01 Z-2.0000
G01 Z0
G00 Z1.0000
G00 X54.6021 Y43.8478
G01 Z-2.0000
G01 Z0
G00 Z1.0000
G00 X56.8018 Y45.1178
G01 Z-2.0000
G01 Z0
G00 Z1.0000
G00 X59.0014 Y46.3878
G01 Z-2.0000
G01 Z0
G00 Z1.0000
G00 X61.2011 Y47.6578
G01 Z-2.0000
G01 Z0
G00 Z1.0000
G00 X63.4007 Y48.9278
G01 Z-2.0000
G01 Z0
G00 Z1.0000
G00 X65.6003 Y50.1978
G01 Z-2.0000
G01 Z0
G00 Z1.0000
G00 X67.8000 Y51.4678
G01 Z-2.0000
G01 Z0
G00 Z1.0000
G00 X70.0072 Y53.8859
G01 Z-2.0000
G01 Z0
G00 Z1.0000
G00 X69.7609 Y57.0075
G01 Z-2.0000
G01 Z0
G00 Z1.0000
G00 X69.7609 Y59.5475
G01 Z-2.0000
G01 Z0
G00 Z1.0000
G00 X69.7609 Y62.0875
G01 Z-2.0000
G01 Z0
G00 Z1.0000
G00 X63.0578 Y57.0609
G01 Z-2.0000
G01 Z0
G00 Z1.0000
G00 X52.1002 Y49.5679
G01 Z-2.0000
G01 Z0
G00 Z1.0000
G00 X47.5282 Y58.4579
G01 Z-2.0000
G01 Z0
G00 Z1.0000
G00 X44.9882 Y58.4579
G01 Z-2.0000
G01 Z0
G00 Z1.0000
G00 X42.4482 Y58.4579
G01 Z-2.0000
G01 Z0
G00 Z1.0000
G00 X39.9082 Y58.4579
G01 Z-2.0000
G01 Z0
G00 Z1.0000
G00 X37.3682 Y58.4579
G01 Z-2.0000
G01 Z0
G00 Z1.0000
G00 X34.8282 Y58.4579
G01 Z-2.0000
G01 Z0
G00 Z1.0000
G00 X32.2882 Y58.4579
G01 Z-2.0000
G01 Z0
G00 Z1.0000
G00 X29.7482 Y58.4579
G01 Z-2.0000
G01 Z0
G00 Z1.0000
G00 X27.2082 Y58.4579
G01 Z-2.0000
G01 Z0
G00 Z1.0000
G00 X24.6682 Y58.4579
G01 Z-2.0000
G01 Z0
G00 Z1.0000
G00 X22.1282 Y58.4579
G01 Z-2.0000
G01 Z0
G00 Z1.0000
G00 X19.5882 Y58.4579
G01 Z-2.0000
G01 Z0
G00 Z1.0000
G00 X17.0482 Y58.4579
G01 Z-2.0000
G01 Z0
G00 Z1.0000
G00 X14.5082 Y58.4579
G01 Z-2.0000
G01 Z0
G00 Z1.0000
G00 X11.9682 Y58.4579
G01 Z-2.0000
G01 Z0
G00 Z1.0000
G00 X9.6822 Y44.9959
G01 Z-2.0000
G01 Z0
G00 Z1.0000
G00 X9.3901 Y38.4909
G01 Z-2.0000
G01 Z0
G00 Z1.0000
M05
G00 Z0.50

