(G-CODE GENERATED BY FLATCAM v8.991 - www.flatcam.org - Version Date: 2019/12/30)

(Name: Cncjob_Milled_Drills)
(Type: G-code from Geometry)
(Units: MM)

(Created on Monday, 13 November 2023 at 17:34)

(TOOL DIAMETER: 1.5 mm)
(Feedrate: 1250.0 mm/min)
(Feedrate_Z: 250.0 mm/min)
(Feedrate rapids 1500.0 mm/min)

(Z_Cut: -1.7 mm)
(Z_Move: 0.5 mm)
(Z Toolchange: 15.0 mm)
(X,Y Toolchange: 0.0000, 0.0000 mm)
(Z Start: 0.5 mm)
(Z End: 15.0 mm)
(Steps per circle: 64)
(Preprocessor Geometry: default)

(X range:    5.8552 ...  108.2742  mm)
(Y range:    6.4978 ...  124.6496  mm)

(Spindle Speed: None RPM)
G21
G90
G94




G01 F1250.00
G00 Z0.5000
G00 Z0.5000
M03
G4 P1.0
G00 X6.6564 Y15.9002
G01 F250.00
G01 Z-0.1000
G01 F1250.00
G01 X6.6545 Y15.8609
G01 X6.6487 Y15.8220
G01 X6.6391 Y15.7839
G01 X6.6259 Y15.7468
G01 X6.6091 Y15.7113
G01 X6.5889 Y15.6776
G01 X6.5655 Y15.6460
G01 X6.5391 Y15.6169
G01 X6.5099 Y15.5905
G01 X6.4783 Y15.5670
G01 X6.4446 Y15.5468
G01 X6.4091 Y15.5300
G01 X6.3721 Y15.5168
G01 X6.3339 Y15.5072
G01 X6.2950 Y15.5015
G01 X6.2558 Y15.4995
G01 X6.2165 Y15.5015
G01 X6.1776 Y15.5072
G01 X6.1395 Y15.5168
G01 X6.1025 Y15.5300
G01 X6.0669 Y15.5468
G01 X6.0332 Y15.5670
G01 X6.0016 Y15.5905
G01 X5.9725 Y15.6169
G01 X5.9461 Y15.6460
G01 X5.9227 Y15.6776
G01 X5.9025 Y15.7113
G01 X5.8857 Y15.7468
G01 X5.8724 Y15.7839
G01 X5.8629 Y15.8220
G01 X5.8571 Y15.8609
G01 X5.8552 Y15.9002
G01 X5.8571 Y15.9394
G01 X5.8629 Y15.9783
G01 X5.8724 Y16.0164
G01 X5.8857 Y16.0535
G01 X5.9025 Y16.0890
G01 X5.9227 Y16.1227
G01 X5.9461 Y16.1543
G01 X5.9725 Y16.1834
G01 X6.0016 Y16.2098
G01 X6.0332 Y16.2333
G01 X6.0669 Y16.2535
G01 X6.1025 Y16.2703
G01 X6.1395 Y16.2835
G01 X6.1776 Y16.2931
G01 X6.2165 Y16.2988
G01 X6.2558 Y16.3008
G01 X6.2950 Y16.2988
G01 X6.3339 Y16.2931
G01 X6.3721 Y16.2835
G01 X6.4091 Y16.2703
G01 X6.4446 Y16.2535
G01 X6.4783 Y16.2333
G01 X6.5099 Y16.2098
G01 X6.5391 Y16.1834
G01 X6.5655 Y16.1543
G01 X6.5889 Y16.1227
G01 X6.6091 Y16.0890
G01 X6.6259 Y16.0535
G01 X6.6391 Y16.0164
G01 X6.6487 Y15.9783
G01 X6.6545 Y15.9394
G01 X6.6564 Y15.9002
G00 X6.6564 Y15.9002
G01 F250.00
G01 Z-0.2000
G01 F1250.00
G01 X6.6545 Y15.8609
G01 X6.6487 Y15.8220
G01 X6.6391 Y15.7839
G01 X6.6259 Y15.7468
G01 X6.6091 Y15.7113
G01 X6.5889 Y15.6776
G01 X6.5655 Y15.6460
G01 X6.5391 Y15.6169
G01 X6.5099 Y15.5905
G01 X6.4783 Y15.5670
G01 X6.4446 Y15.5468
G01 X6.4091 Y15.5300
G01 X6.3721 Y15.5168
G01 X6.3339 Y15.5072
G01 X6.2950 Y15.5015
G01 X6.2558 Y15.4995
G01 X6.2165 Y15.5015
G01 X6.1776 Y15.5072
G01 X6.1395 Y15.5168
G01 X6.1025 Y15.5300
G01 X6.0669 Y15.5468
G01 X6.0332 Y15.5670
G01 X6.0016 Y15.5905
G01 X5.9725 Y15.6169
G01 X5.9461 Y15.6460
G01 X5.9227 Y15.6776
G01 X5.9025 Y15.7113
G01 X5.8857 Y15.7468
G01 X5.8724 Y15.7839
G01 X5.8629 Y15.8220
G01 X5.8571 Y15.8609
G01 X5.8552 Y15.9002
G01 X5.8571 Y15.9394
G01 X5.8629 Y15.9783
G01 X5.8724 Y16.0164
G01 X5.8857 Y16.0535
G01 X5.9025 Y16.0890
G01 X5.9227 Y16.1227
G01 X5.9461 Y16.1543
G01 X5.9725 Y16.1834
G01 X6.0016 Y16.2098
G01 X6.0332 Y16.2333
G01 X6.0669 Y16.2535
G01 X6.1025 Y16.2703
G01 X6.1395 Y16.2835
G01 X6.1776 Y16.2931
G01 X6.2165 Y16.2988
G01 X6.2558 Y16.3008
G01 X6.2950 Y16.2988
G01 X6.3339 Y16.2931
G01 X6.3721 Y16.2835
G01 X6.4091 Y16.2703
G01 X6.4446 Y16.2535
G01 X6.4783 Y16.2333
G01 X6.5099 Y16.2098
G01 X6.5391 Y16.1834
G01 X6.5655 Y16.1543
G01 X6.5889 Y16.1227
G01 X6.6091 Y16.0890
G01 X6.6259 Y16.0535
G01 X6.6391 Y16.0164
G01 X6.6487 Y15.9783
G01 X6.6545 Y15.9394
G01 X6.6564 Y15.9002
G00 X6.6564 Y15.9002
G01 F250.00
G01 Z-0.3000
G01 F1250.00
G01 X6.6545 Y15.8609
G01 X6.6487 Y15.8220
G01 X6.6391 Y15.7839
G01 X6.6259 Y15.7468
G01 X6.6091 Y15.7113
G01 X6.5889 Y15.6776
G01 X6.5655 Y15.6460
G01 X6.5391 Y15.6169
G01 X6.5099 Y15.5905
G01 X6.4783 Y15.5670
G01 X6.4446 Y15.5468
G01 X6.4091 Y15.5300
G01 X6.3721 Y15.5168
G01 X6.3339 Y15.5072
G01 X6.2950 Y15.5015
G01 X6.2558 Y15.4995
G01 X6.2165 Y15.5015
G01 X6.1776 Y15.5072
G01 X6.1395 Y15.5168
G01 X6.1025 Y15.5300
G01 X6.0669 Y15.5468
G01 X6.0332 Y15.5670
G01 X6.0016 Y15.5905
G01 X5.9725 Y15.6169
G01 X5.9461 Y15.6460
G01 X5.9227 Y15.6776
G01 X5.9025 Y15.7113
G01 X5.8857 Y15.7468
G01 X5.8724 Y15.7839
G01 X5.8629 Y15.8220
G01 X5.8571 Y15.8609
G01 X5.8552 Y15.9002
G01 X5.8571 Y15.9394
G01 X5.8629 Y15.9783
G01 X5.8724 Y16.0164
G01 X5.8857 Y16.0535
G01 X5.9025 Y16.0890
G01 X5.9227 Y16.1227
G01 X5.9461 Y16.1543
G01 X5.9725 Y16.1834
G01 X6.0016 Y16.2098
G01 X6.0332 Y16.2333
G01 X6.0669 Y16.2535
G01 X6.1025 Y16.2703
G01 X6.1395 Y16.2835
G01 X6.1776 Y16.2931
G01 X6.2165 Y16.2988
G01 X6.2558 Y16.3008
G01 X6.2950 Y16.2988
G01 X6.3339 Y16.2931
G01 X6.3721 Y16.2835
G01 X6.4091 Y16.2703
G01 X6.4446 Y16.2535
G01 X6.4783 Y16.2333
G01 X6.5099 Y16.2098
G01 X6.5391 Y16.1834
G01 X6.5655 Y16.1543
G01 X6.5889 Y16.1227
G01 X6.6091 Y16.0890
G01 X6.6259 Y16.0535
G01 X6.6391 Y16.0164
G01 X6.6487 Y15.9783
G01 X6.6545 Y15.9394
G01 X6.6564 Y15.9002
G00 X6.6564 Y15.9002
G01 F250.00
G01 Z-0.4000
G01 F1250.00
G01 X6.6545 Y15.8609
G01 X6.6487 Y15.8220
G01 X6.6391 Y15.7839
G01 X6.6259 Y15.7468
G01 X6.6091 Y15.7113
G01 X6.5889 Y15.6776
G01 X6.5655 Y15.6460
G01 X6.5391 Y15.6169
G01 X6.5099 Y15.5905
G01 X6.4783 Y15.5670
G01 X6.4446 Y15.5468
G01 X6.4091 Y15.5300
G01 X6.3721 Y15.5168
G01 X6.3339 Y15.5072
G01 X6.2950 Y15.5015
G01 X6.2558 Y15.4995
G01 X6.2165 Y15.5015
G01 X6.1776 Y15.5072
G01 X6.1395 Y15.5168
G01 X6.1025 Y15.5300
G01 X6.0669 Y15.5468
G01 X6.0332 Y15.5670
G01 X6.0016 Y15.5905
G01 X5.9725 Y15.6169
G01 X5.9461 Y15.6460
G01 X5.9227 Y15.6776
G01 X5.9025 Y15.7113
G01 X5.8857 Y15.7468
G01 X5.8724 Y15.7839
G01 X5.8629 Y15.8220
G01 X5.8571 Y15.8609
G01 X5.8552 Y15.9002
G01 X5.8571 Y15.9394
G01 X5.8629 Y15.9783
G01 X5.8724 Y16.0164
G01 X5.8857 Y16.0535
G01 X5.9025 Y16.0890
G01 X5.9227 Y16.1227
G01 X5.9461 Y16.1543
G01 X5.9725 Y16.1834
G01 X6.0016 Y16.2098
G01 X6.0332 Y16.2333
G01 X6.0669 Y16.2535
G01 X6.1025 Y16.2703
G01 X6.1395 Y16.2835
G01 X6.1776 Y16.2931
G01 X6.2165 Y16.2988
G01 X6.2558 Y16.3008
G01 X6.2950 Y16.2988
G01 X6.3339 Y16.2931
G01 X6.3721 Y16.2835
G01 X6.4091 Y16.2703
G01 X6.4446 Y16.2535
G01 X6.4783 Y16.2333
G01 X6.5099 Y16.2098
G01 X6.5391 Y16.1834
G01 X6.5655 Y16.1543
G01 X6.5889 Y16.1227
G01 X6.6091 Y16.0890
G01 X6.6259 Y16.0535
G01 X6.6391 Y16.0164
G01 X6.6487 Y15.9783
G01 X6.6545 Y15.9394
G01 X6.6564 Y15.9002
G00 X6.6564 Y15.9002
G01 F250.00
G01 Z-0.5000
G01 F1250.00
G01 X6.6545 Y15.8609
G01 X6.6487 Y15.8220
G01 X6.6391 Y15.7839
G01 X6.6259 Y15.7468
G01 X6.6091 Y15.7113
G01 X6.5889 Y15.6776
G01 X6.5655 Y15.6460
G01 X6.5391 Y15.6169
G01 X6.5099 Y15.5905
G01 X6.4783 Y15.5670
G01 X6.4446 Y15.5468
G01 X6.4091 Y15.5300
G01 X6.3721 Y15.5168
G01 X6.3339 Y15.5072
G01 X6.2950 Y15.5015
G01 X6.2558 Y15.4995
G01 X6.2165 Y15.5015
G01 X6.1776 Y15.5072
G01 X6.1395 Y15.5168
G01 X6.1025 Y15.5300
G01 X6.0669 Y15.5468
G01 X6.0332 Y15.5670
G01 X6.0016 Y15.5905
G01 X5.9725 Y15.6169
G01 X5.9461 Y15.6460
G01 X5.9227 Y15.6776
G01 X5.9025 Y15.7113
G01 X5.8857 Y15.7468
G01 X5.8724 Y15.7839
G01 X5.8629 Y15.8220
G01 X5.8571 Y15.8609
G01 X5.8552 Y15.9002
G01 X5.8571 Y15.9394
G01 X5.8629 Y15.9783
G01 X5.8724 Y16.0164
G01 X5.8857 Y16.0535
G01 X5.9025 Y16.0890
G01 X5.9227 Y16.1227
G01 X5.9461 Y16.1543
G01 X5.9725 Y16.1834
G01 X6.0016 Y16.2098
G01 X6.0332 Y16.2333
G01 X6.0669 Y16.2535
G01 X6.1025 Y16.2703
G01 X6.1395 Y16.2835
G01 X6.1776 Y16.2931
G01 X6.2165 Y16.2988
G01 X6.2558 Y16.3008
G01 X6.2950 Y16.2988
G01 X6.3339 Y16.2931
G01 X6.3721 Y16.2835
G01 X6.4091 Y16.2703
G01 X6.4446 Y16.2535
G01 X6.4783 Y16.2333
G01 X6.5099 Y16.2098
G01 X6.5391 Y16.1834
G01 X6.5655 Y16.1543
G01 X6.5889 Y16.1227
G01 X6.6091 Y16.0890
G01 X6.6259 Y16.0535
G01 X6.6391 Y16.0164
G01 X6.6487 Y15.9783
G01 X6.6545 Y15.9394
G01 X6.6564 Y15.9002
G00 X6.6564 Y15.9002
G01 F250.00
G01 Z-0.6000
G01 F1250.00
G01 X6.6545 Y15.8609
G01 X6.6487 Y15.8220
G01 X6.6391 Y15.7839
G01 X6.6259 Y15.7468
G01 X6.6091 Y15.7113
G01 X6.5889 Y15.6776
G01 X6.5655 Y15.6460
G01 X6.5391 Y15.6169
G01 X6.5099 Y15.5905
G01 X6.4783 Y15.5670
G01 X6.4446 Y15.5468
G01 X6.4091 Y15.5300
G01 X6.3721 Y15.5168
G01 X6.3339 Y15.5072
G01 X6.2950 Y15.5015
G01 X6.2558 Y15.4995
G01 X6.2165 Y15.5015
G01 X6.1776 Y15.5072
G01 X6.1395 Y15.5168
G01 X6.1025 Y15.5300
G01 X6.0669 Y15.5468
G01 X6.0332 Y15.5670
G01 X6.0016 Y15.5905
G01 X5.9725 Y15.6169
G01 X5.9461 Y15.6460
G01 X5.9227 Y15.6776
G01 X5.9025 Y15.7113
G01 X5.8857 Y15.7468
G01 X5.8724 Y15.7839
G01 X5.8629 Y15.8220
G01 X5.8571 Y15.8609
G01 X5.8552 Y15.9002
G01 X5.8571 Y15.9394
G01 X5.8629 Y15.9783
G01 X5.8724 Y16.0164
G01 X5.8857 Y16.0535
G01 X5.9025 Y16.0890
G01 X5.9227 Y16.1227
G01 X5.9461 Y16.1543
G01 X5.9725 Y16.1834
G01 X6.0016 Y16.2098
G01 X6.0332 Y16.2333
G01 X6.0669 Y16.2535
G01 X6.1025 Y16.2703
G01 X6.1395 Y16.2835
G01 X6.1776 Y16.2931
G01 X6.2165 Y16.2988
G01 X6.2558 Y16.3008
G01 X6.2950 Y16.2988
G01 X6.3339 Y16.2931
G01 X6.3721 Y16.2835
G01 X6.4091 Y16.2703
G01 X6.4446 Y16.2535
G01 X6.4783 Y16.2333
G01 X6.5099 Y16.2098
G01 X6.5391 Y16.1834
G01 X6.5655 Y16.1543
G01 X6.5889 Y16.1227
G01 X6.6091 Y16.0890
G01 X6.6259 Y16.0535
G01 X6.6391 Y16.0164
G01 X6.6487 Y15.9783
G01 X6.6545 Y15.9394
G01 X6.6564 Y15.9002
G00 X6.6564 Y15.9002
G01 F250.00
G01 Z-0.7000
G01 F1250.00
G01 X6.6545 Y15.8609
G01 X6.6487 Y15.8220
G01 X6.6391 Y15.7839
G01 X6.6259 Y15.7468
G01 X6.6091 Y15.7113
G01 X6.5889 Y15.6776
G01 X6.5655 Y15.6460
G01 X6.5391 Y15.6169
G01 X6.5099 Y15.5905
G01 X6.4783 Y15.5670
G01 X6.4446 Y15.5468
G01 X6.4091 Y15.5300
G01 X6.3721 Y15.5168
G01 X6.3339 Y15.5072
G01 X6.2950 Y15.5015
G01 X6.2558 Y15.4995
G01 X6.2165 Y15.5015
G01 X6.1776 Y15.5072
G01 X6.1395 Y15.5168
G01 X6.1025 Y15.5300
G01 X6.0669 Y15.5468
G01 X6.0332 Y15.5670
G01 X6.0016 Y15.5905
G01 X5.9725 Y15.6169
G01 X5.9461 Y15.6460
G01 X5.9227 Y15.6776
G01 X5.9025 Y15.7113
G01 X5.8857 Y15.7468
G01 X5.8724 Y15.7839
G01 X5.8629 Y15.8220
G01 X5.8571 Y15.8609
G01 X5.8552 Y15.9002
G01 X5.8571 Y15.9394
G01 X5.8629 Y15.9783
G01 X5.8724 Y16.0164
G01 X5.8857 Y16.0535
G01 X5.9025 Y16.0890
G01 X5.9227 Y16.1227
G01 X5.9461 Y16.1543
G01 X5.9725 Y16.1834
G01 X6.0016 Y16.2098
G01 X6.0332 Y16.2333
G01 X6.0669 Y16.2535
G01 X6.1025 Y16.2703
G01 X6.1395 Y16.2835
G01 X6.1776 Y16.2931
G01 X6.2165 Y16.2988
G01 X6.2558 Y16.3008
G01 X6.2950 Y16.2988
G01 X6.3339 Y16.2931
G01 X6.3721 Y16.2835
G01 X6.4091 Y16.2703
G01 X6.4446 Y16.2535
G01 X6.4783 Y16.2333
G01 X6.5099 Y16.2098
G01 X6.5391 Y16.1834
G01 X6.5655 Y16.1543
G01 X6.5889 Y16.1227
G01 X6.6091 Y16.0890
G01 X6.6259 Y16.0535
G01 X6.6391 Y16.0164
G01 X6.6487 Y15.9783
G01 X6.6545 Y15.9394
G01 X6.6564 Y15.9002
G00 X6.6564 Y15.9002
G01 F250.00
G01 Z-0.8000
G01 F1250.00
G01 X6.6545 Y15.8609
G01 X6.6487 Y15.8220
G01 X6.6391 Y15.7839
G01 X6.6259 Y15.7468
G01 X6.6091 Y15.7113
G01 X6.5889 Y15.6776
G01 X6.5655 Y15.6460
G01 X6.5391 Y15.6169
G01 X6.5099 Y15.5905
G01 X6.4783 Y15.5670
G01 X6.4446 Y15.5468
G01 X6.4091 Y15.5300
G01 X6.3721 Y15.5168
G01 X6.3339 Y15.5072
G01 X6.2950 Y15.5015
G01 X6.2558 Y15.4995
G01 X6.2165 Y15.5015
G01 X6.1776 Y15.5072
G01 X6.1395 Y15.5168
G01 X6.1025 Y15.5300
G01 X6.0669 Y15.5468
G01 X6.0332 Y15.5670
G01 X6.0016 Y15.5905
G01 X5.9725 Y15.6169
G01 X5.9461 Y15.6460
G01 X5.9227 Y15.6776
G01 X5.9025 Y15.7113
G01 X5.8857 Y15.7468
G01 X5.8724 Y15.7839
G01 X5.8629 Y15.8220
G01 X5.8571 Y15.8609
G01 X5.8552 Y15.9002
G01 X5.8571 Y15.9394
G01 X5.8629 Y15.9783
G01 X5.8724 Y16.0164
G01 X5.8857 Y16.0535
G01 X5.9025 Y16.0890
G01 X5.9227 Y16.1227
G01 X5.9461 Y16.1543
G01 X5.9725 Y16.1834
G01 X6.0016 Y16.2098
G01 X6.0332 Y16.2333
G01 X6.0669 Y16.2535
G01 X6.1025 Y16.2703
G01 X6.1395 Y16.2835
G01 X6.1776 Y16.2931
G01 X6.2165 Y16.2988
G01 X6.2558 Y16.3008
G01 X6.2950 Y16.2988
G01 X6.3339 Y16.2931
G01 X6.3721 Y16.2835
G01 X6.4091 Y16.2703
G01 X6.4446 Y16.2535
G01 X6.4783 Y16.2333
G01 X6.5099 Y16.2098
G01 X6.5391 Y16.1834
G01 X6.5655 Y16.1543
G01 X6.5889 Y16.1227
G01 X6.6091 Y16.0890
G01 X6.6259 Y16.0535
G01 X6.6391 Y16.0164
G01 X6.6487 Y15.9783
G01 X6.6545 Y15.9394
G01 X6.6564 Y15.9002
G00 X6.6564 Y15.9002
G01 F250.00
G01 Z-0.9000
G01 F1250.00
G01 X6.6545 Y15.8609
G01 X6.6487 Y15.8220
G01 X6.6391 Y15.7839
G01 X6.6259 Y15.7468
G01 X6.6091 Y15.7113
G01 X6.5889 Y15.6776
G01 X6.5655 Y15.6460
G01 X6.5391 Y15.6169
G01 X6.5099 Y15.5905
G01 X6.4783 Y15.5670
G01 X6.4446 Y15.5468
G01 X6.4091 Y15.5300
G01 X6.3721 Y15.5168
G01 X6.3339 Y15.5072
G01 X6.2950 Y15.5015
G01 X6.2558 Y15.4995
G01 X6.2165 Y15.5015
G01 X6.1776 Y15.5072
G01 X6.1395 Y15.5168
G01 X6.1025 Y15.5300
G01 X6.0669 Y15.5468
G01 X6.0332 Y15.5670
G01 X6.0016 Y15.5905
G01 X5.9725 Y15.6169
G01 X5.9461 Y15.6460
G01 X5.9227 Y15.6776
G01 X5.9025 Y15.7113
G01 X5.8857 Y15.7468
G01 X5.8724 Y15.7839
G01 X5.8629 Y15.8220
G01 X5.8571 Y15.8609
G01 X5.8552 Y15.9002
G01 X5.8571 Y15.9394
G01 X5.8629 Y15.9783
G01 X5.8724 Y16.0164
G01 X5.8857 Y16.0535
G01 X5.9025 Y16.0890
G01 X5.9227 Y16.1227
G01 X5.9461 Y16.1543
G01 X5.9725 Y16.1834
G01 X6.0016 Y16.2098
G01 X6.0332 Y16.2333
G01 X6.0669 Y16.2535
G01 X6.1025 Y16.2703
G01 X6.1395 Y16.2835
G01 X6.1776 Y16.2931
G01 X6.2165 Y16.2988
G01 X6.2558 Y16.3008
G01 X6.2950 Y16.2988
G01 X6.3339 Y16.2931
G01 X6.3721 Y16.2835
G01 X6.4091 Y16.2703
G01 X6.4446 Y16.2535
G01 X6.4783 Y16.2333
G01 X6.5099 Y16.2098
G01 X6.5391 Y16.1834
G01 X6.5655 Y16.1543
G01 X6.5889 Y16.1227
G01 X6.6091 Y16.0890
G01 X6.6259 Y16.0535
G01 X6.6391 Y16.0164
G01 X6.6487 Y15.9783
G01 X6.6545 Y15.9394
G01 X6.6564 Y15.9002
G00 X6.6564 Y15.9002
G01 F250.00
G01 Z-1.0000
G01 F1250.00
G01 X6.6545 Y15.8609
G01 X6.6487 Y15.8220
G01 X6.6391 Y15.7839
G01 X6.6259 Y15.7468
G01 X6.6091 Y15.7113
G01 X6.5889 Y15.6776
G01 X6.5655 Y15.6460
G01 X6.5391 Y15.6169
G01 X6.5099 Y15.5905
G01 X6.4783 Y15.5670
G01 X6.4446 Y15.5468
G01 X6.4091 Y15.5300
G01 X6.3721 Y15.5168
G01 X6.3339 Y15.5072
G01 X6.2950 Y15.5015
G01 X6.2558 Y15.4995
G01 X6.2165 Y15.5015
G01 X6.1776 Y15.5072
G01 X6.1395 Y15.5168
G01 X6.1025 Y15.5300
G01 X6.0669 Y15.5468
G01 X6.0332 Y15.5670
G01 X6.0016 Y15.5905
G01 X5.9725 Y15.6169
G01 X5.9461 Y15.6460
G01 X5.9227 Y15.6776
G01 X5.9025 Y15.7113
G01 X5.8857 Y15.7468
G01 X5.8724 Y15.7839
G01 X5.8629 Y15.8220
G01 X5.8571 Y15.8609
G01 X5.8552 Y15.9002
G01 X5.8571 Y15.9394
G01 X5.8629 Y15.9783
G01 X5.8724 Y16.0164
G01 X5.8857 Y16.0535
G01 X5.9025 Y16.0890
G01 X5.9227 Y16.1227
G01 X5.9461 Y16.1543
G01 X5.9725 Y16.1834
G01 X6.0016 Y16.2098
G01 X6.0332 Y16.2333
G01 X6.0669 Y16.2535
G01 X6.1025 Y16.2703
G01 X6.1395 Y16.2835
G01 X6.1776 Y16.2931
G01 X6.2165 Y16.2988
G01 X6.2558 Y16.3008
G01 X6.2950 Y16.2988
G01 X6.3339 Y16.2931
G01 X6.3721 Y16.2835
G01 X6.4091 Y16.2703
G01 X6.4446 Y16.2535
G01 X6.4783 Y16.2333
G01 X6.5099 Y16.2098
G01 X6.5391 Y16.1834
G01 X6.5655 Y16.1543
G01 X6.5889 Y16.1227
G01 X6.6091 Y16.0890
G01 X6.6259 Y16.0535
G01 X6.6391 Y16.0164
G01 X6.6487 Y15.9783
G01 X6.6545 Y15.9394
G01 X6.6564 Y15.9002
G00 X6.6564 Y15.9002
G01 F250.00
G01 Z-1.1000
G01 F1250.00
G01 X6.6545 Y15.8609
G01 X6.6487 Y15.8220
G01 X6.6391 Y15.7839
G01 X6.6259 Y15.7468
G01 X6.6091 Y15.7113
G01 X6.5889 Y15.6776
G01 X6.5655 Y15.6460
G01 X6.5391 Y15.6169
G01 X6.5099 Y15.5905
G01 X6.4783 Y15.5670
G01 X6.4446 Y15.5468
G01 X6.4091 Y15.5300
G01 X6.3721 Y15.5168
G01 X6.3339 Y15.5072
G01 X6.2950 Y15.5015
G01 X6.2558 Y15.4995
G01 X6.2165 Y15.5015
G01 X6.1776 Y15.5072
G01 X6.1395 Y15.5168
G01 X6.1025 Y15.5300
G01 X6.0669 Y15.5468
G01 X6.0332 Y15.5670
G01 X6.0016 Y15.5905
G01 X5.9725 Y15.6169
G01 X5.9461 Y15.6460
G01 X5.9227 Y15.6776
G01 X5.9025 Y15.7113
G01 X5.8857 Y15.7468
G01 X5.8724 Y15.7839
G01 X5.8629 Y15.8220
G01 X5.8571 Y15.8609
G01 X5.8552 Y15.9002
G01 X5.8571 Y15.9394
G01 X5.8629 Y15.9783
G01 X5.8724 Y16.0164
G01 X5.8857 Y16.0535
G01 X5.9025 Y16.0890
G01 X5.9227 Y16.1227
G01 X5.9461 Y16.1543
G01 X5.9725 Y16.1834
G01 X6.0016 Y16.2098
G01 X6.0332 Y16.2333
G01 X6.0669 Y16.2535
G01 X6.1025 Y16.2703
G01 X6.1395 Y16.2835
G01 X6.1776 Y16.2931
G01 X6.2165 Y16.2988
G01 X6.2558 Y16.3008
G01 X6.2950 Y16.2988
G01 X6.3339 Y16.2931
G01 X6.3721 Y16.2835
G01 X6.4091 Y16.2703
G01 X6.4446 Y16.2535
G01 X6.4783 Y16.2333
G01 X6.5099 Y16.2098
G01 X6.5391 Y16.1834
G01 X6.5655 Y16.1543
G01 X6.5889 Y16.1227
G01 X6.6091 Y16.0890
G01 X6.6259 Y16.0535
G01 X6.6391 Y16.0164
G01 X6.6487 Y15.9783
G01 X6.6545 Y15.9394
G01 X6.6564 Y15.9002
G00 X6.6564 Y15.9002
G01 F250.00
G01 Z-1.2000
G01 F1250.00
G01 X6.6545 Y15.8609
G01 X6.6487 Y15.8220
G01 X6.6391 Y15.7839
G01 X6.6259 Y15.7468
G01 X6.6091 Y15.7113
G01 X6.5889 Y15.6776
G01 X6.5655 Y15.6460
G01 X6.5391 Y15.6169
G01 X6.5099 Y15.5905
G01 X6.4783 Y15.5670
G01 X6.4446 Y15.5468
G01 X6.4091 Y15.5300
G01 X6.3721 Y15.5168
G01 X6.3339 Y15.5072
G01 X6.2950 Y15.5015
G01 X6.2558 Y15.4995
G01 X6.2165 Y15.5015
G01 X6.1776 Y15.5072
G01 X6.1395 Y15.5168
G01 X6.1025 Y15.5300
G01 X6.0669 Y15.5468
G01 X6.0332 Y15.5670
G01 X6.0016 Y15.5905
G01 X5.9725 Y15.6169
G01 X5.9461 Y15.6460
G01 X5.9227 Y15.6776
G01 X5.9025 Y15.7113
G01 X5.8857 Y15.7468
G01 X5.8724 Y15.7839
G01 X5.8629 Y15.8220
G01 X5.8571 Y15.8609
G01 X5.8552 Y15.9002
G01 X5.8571 Y15.9394
G01 X5.8629 Y15.9783
G01 X5.8724 Y16.0164
G01 X5.8857 Y16.0535
G01 X5.9025 Y16.0890
G01 X5.9227 Y16.1227
G01 X5.9461 Y16.1543
G01 X5.9725 Y16.1834
G01 X6.0016 Y16.2098
G01 X6.0332 Y16.2333
G01 X6.0669 Y16.2535
G01 X6.1025 Y16.2703
G01 X6.1395 Y16.2835
G01 X6.1776 Y16.2931
G01 X6.2165 Y16.2988
G01 X6.2558 Y16.3008
G01 X6.2950 Y16.2988
G01 X6.3339 Y16.2931
G01 X6.3721 Y16.2835
G01 X6.4091 Y16.2703
G01 X6.4446 Y16.2535
G01 X6.4783 Y16.2333
G01 X6.5099 Y16.2098
G01 X6.5391 Y16.1834
G01 X6.5655 Y16.1543
G01 X6.5889 Y16.1227
G01 X6.6091 Y16.0890
G01 X6.6259 Y16.0535
G01 X6.6391 Y16.0164
G01 X6.6487 Y15.9783
G01 X6.6545 Y15.9394
G01 X6.6564 Y15.9002
G00 X6.6564 Y15.9002
G01 F250.00
G01 Z-1.3000
G01 F1250.00
G01 X6.6545 Y15.8609
G01 X6.6487 Y15.8220
G01 X6.6391 Y15.7839
G01 X6.6259 Y15.7468
G01 X6.6091 Y15.7113
G01 X6.5889 Y15.6776
G01 X6.5655 Y15.6460
G01 X6.5391 Y15.6169
G01 X6.5099 Y15.5905
G01 X6.4783 Y15.5670
G01 X6.4446 Y15.5468
G01 X6.4091 Y15.5300
G01 X6.3721 Y15.5168
G01 X6.3339 Y15.5072
G01 X6.2950 Y15.5015
G01 X6.2558 Y15.4995
G01 X6.2165 Y15.5015
G01 X6.1776 Y15.5072
G01 X6.1395 Y15.5168
G01 X6.1025 Y15.5300
G01 X6.0669 Y15.5468
G01 X6.0332 Y15.5670
G01 X6.0016 Y15.5905
G01 X5.9725 Y15.6169
G01 X5.9461 Y15.6460
G01 X5.9227 Y15.6776
G01 X5.9025 Y15.7113
G01 X5.8857 Y15.7468
G01 X5.8724 Y15.7839
G01 X5.8629 Y15.8220
G01 X5.8571 Y15.8609
G01 X5.8552 Y15.9002
G01 X5.8571 Y15.9394
G01 X5.8629 Y15.9783
G01 X5.8724 Y16.0164
G01 X5.8857 Y16.0535
G01 X5.9025 Y16.0890
G01 X5.9227 Y16.1227
G01 X5.9461 Y16.1543
G01 X5.9725 Y16.1834
G01 X6.0016 Y16.2098
G01 X6.0332 Y16.2333
G01 X6.0669 Y16.2535
G01 X6.1025 Y16.2703
G01 X6.1395 Y16.2835
G01 X6.1776 Y16.2931
G01 X6.2165 Y16.2988
G01 X6.2558 Y16.3008
G01 X6.2950 Y16.2988
G01 X6.3339 Y16.2931
G01 X6.3721 Y16.2835
G01 X6.4091 Y16.2703
G01 X6.4446 Y16.2535
G01 X6.4783 Y16.2333
G01 X6.5099 Y16.2098
G01 X6.5391 Y16.1834
G01 X6.5655 Y16.1543
G01 X6.5889 Y16.1227
G01 X6.6091 Y16.0890
G01 X6.6259 Y16.0535
G01 X6.6391 Y16.0164
G01 X6.6487 Y15.9783
G01 X6.6545 Y15.9394
G01 X6.6564 Y15.9002
G00 X6.6564 Y15.9002
G01 F250.00
G01 Z-1.4000
G01 F1250.00
G01 X6.6545 Y15.8609
G01 X6.6487 Y15.8220
G01 X6.6391 Y15.7839
G01 X6.6259 Y15.7468
G01 X6.6091 Y15.7113
G01 X6.5889 Y15.6776
G01 X6.5655 Y15.6460
G01 X6.5391 Y15.6169
G01 X6.5099 Y15.5905
G01 X6.4783 Y15.5670
G01 X6.4446 Y15.5468
G01 X6.4091 Y15.5300
G01 X6.3721 Y15.5168
G01 X6.3339 Y15.5072
G01 X6.2950 Y15.5015
G01 X6.2558 Y15.4995
G01 X6.2165 Y15.5015
G01 X6.1776 Y15.5072
G01 X6.1395 Y15.5168
G01 X6.1025 Y15.5300
G01 X6.0669 Y15.5468
G01 X6.0332 Y15.5670
G01 X6.0016 Y15.5905
G01 X5.9725 Y15.6169
G01 X5.9461 Y15.6460
G01 X5.9227 Y15.6776
G01 X5.9025 Y15.7113
G01 X5.8857 Y15.7468
G01 X5.8724 Y15.7839
G01 X5.8629 Y15.8220
G01 X5.8571 Y15.8609
G01 X5.8552 Y15.9002
G01 X5.8571 Y15.9394
G01 X5.8629 Y15.9783
G01 X5.8724 Y16.0164
G01 X5.8857 Y16.0535
G01 X5.9025 Y16.0890
G01 X5.9227 Y16.1227
G01 X5.9461 Y16.1543
G01 X5.9725 Y16.1834
G01 X6.0016 Y16.2098
G01 X6.0332 Y16.2333
G01 X6.0669 Y16.2535
G01 X6.1025 Y16.2703
G01 X6.1395 Y16.2835
G01 X6.1776 Y16.2931
G01 X6.2165 Y16.2988
G01 X6.2558 Y16.3008
G01 X6.2950 Y16.2988
G01 X6.3339 Y16.2931
G01 X6.3721 Y16.2835
G01 X6.4091 Y16.2703
G01 X6.4446 Y16.2535
G01 X6.4783 Y16.2333
G01 X6.5099 Y16.2098
G01 X6.5391 Y16.1834
G01 X6.5655 Y16.1543
G01 X6.5889 Y16.1227
G01 X6.6091 Y16.0890
G01 X6.6259 Y16.0535
G01 X6.6391 Y16.0164
G01 X6.6487 Y15.9783
G01 X6.6545 Y15.9394
G01 X6.6564 Y15.9002
G00 X6.6564 Y15.9002
G01 F250.00
G01 Z-1.5000
G01 F1250.00
G01 X6.6545 Y15.8609
G01 X6.6487 Y15.8220
G01 X6.6391 Y15.7839
G01 X6.6259 Y15.7468
G01 X6.6091 Y15.7113
G01 X6.5889 Y15.6776
G01 X6.5655 Y15.6460
G01 X6.5391 Y15.6169
G01 X6.5099 Y15.5905
G01 X6.4783 Y15.5670
G01 X6.4446 Y15.5468
G01 X6.4091 Y15.5300
G01 X6.3721 Y15.5168
G01 X6.3339 Y15.5072
G01 X6.2950 Y15.5015
G01 X6.2558 Y15.4995
G01 X6.2165 Y15.5015
G01 X6.1776 Y15.5072
G01 X6.1395 Y15.5168
G01 X6.1025 Y15.5300
G01 X6.0669 Y15.5468
G01 X6.0332 Y15.5670
G01 X6.0016 Y15.5905
G01 X5.9725 Y15.6169
G01 X5.9461 Y15.6460
G01 X5.9227 Y15.6776
G01 X5.9025 Y15.7113
G01 X5.8857 Y15.7468
G01 X5.8724 Y15.7839
G01 X5.8629 Y15.8220
G01 X5.8571 Y15.8609
G01 X5.8552 Y15.9002
G01 X5.8571 Y15.9394
G01 X5.8629 Y15.9783
G01 X5.8724 Y16.0164
G01 X5.8857 Y16.0535
G01 X5.9025 Y16.0890
G01 X5.9227 Y16.1227
G01 X5.9461 Y16.1543
G01 X5.9725 Y16.1834
G01 X6.0016 Y16.2098
G01 X6.0332 Y16.2333
G01 X6.0669 Y16.2535
G01 X6.1025 Y16.2703
G01 X6.1395 Y16.2835
G01 X6.1776 Y16.2931
G01 X6.2165 Y16.2988
G01 X6.2558 Y16.3008
G01 X6.2950 Y16.2988
G01 X6.3339 Y16.2931
G01 X6.3721 Y16.2835
G01 X6.4091 Y16.2703
G01 X6.4446 Y16.2535
G01 X6.4783 Y16.2333
G01 X6.5099 Y16.2098
G01 X6.5391 Y16.1834
G01 X6.5655 Y16.1543
G01 X6.5889 Y16.1227
G01 X6.6091 Y16.0890
G01 X6.6259 Y16.0535
G01 X6.6391 Y16.0164
G01 X6.6487 Y15.9783
G01 X6.6545 Y15.9394
G01 X6.6564 Y15.9002
G00 X6.6564 Y15.9002
G01 F250.00
G01 Z-1.6000
G01 F1250.00
G01 X6.6545 Y15.8609
G01 X6.6487 Y15.8220
G01 X6.6391 Y15.7839
G01 X6.6259 Y15.7468
G01 X6.6091 Y15.7113
G01 X6.5889 Y15.6776
G01 X6.5655 Y15.6460
G01 X6.5391 Y15.6169
G01 X6.5099 Y15.5905
G01 X6.4783 Y15.5670
G01 X6.4446 Y15.5468
G01 X6.4091 Y15.5300
G01 X6.3721 Y15.5168
G01 X6.3339 Y15.5072
G01 X6.2950 Y15.5015
G01 X6.2558 Y15.4995
G01 X6.2165 Y15.5015
G01 X6.1776 Y15.5072
G01 X6.1395 Y15.5168
G01 X6.1025 Y15.5300
G01 X6.0669 Y15.5468
G01 X6.0332 Y15.5670
G01 X6.0016 Y15.5905
G01 X5.9725 Y15.6169
G01 X5.9461 Y15.6460
G01 X5.9227 Y15.6776
G01 X5.9025 Y15.7113
G01 X5.8857 Y15.7468
G01 X5.8724 Y15.7839
G01 X5.8629 Y15.8220
G01 X5.8571 Y15.8609
G01 X5.8552 Y15.9002
G01 X5.8571 Y15.9394
G01 X5.8629 Y15.9783
G01 X5.8724 Y16.0164
G01 X5.8857 Y16.0535
G01 X5.9025 Y16.0890
G01 X5.9227 Y16.1227
G01 X5.9461 Y16.1543
G01 X5.9725 Y16.1834
G01 X6.0016 Y16.2098
G01 X6.0332 Y16.2333
G01 X6.0669 Y16.2535
G01 X6.1025 Y16.2703
G01 X6.1395 Y16.2835
G01 X6.1776 Y16.2931
G01 X6.2165 Y16.2988
G01 X6.2558 Y16.3008
G01 X6.2950 Y16.2988
G01 X6.3339 Y16.2931
G01 X6.3721 Y16.2835
G01 X6.4091 Y16.2703
G01 X6.4446 Y16.2535
G01 X6.4783 Y16.2333
G01 X6.5099 Y16.2098
G01 X6.5391 Y16.1834
G01 X6.5655 Y16.1543
G01 X6.5889 Y16.1227
G01 X6.6091 Y16.0890
G01 X6.6259 Y16.0535
G01 X6.6391 Y16.0164
G01 X6.6487 Y15.9783
G01 X6.6545 Y15.9394
G01 X6.6564 Y15.9002
G00 X6.6564 Y15.9002
G01 F250.00
G01 Z-1.7000
G01 F1250.00
G01 X6.6545 Y15.8609
G01 X6.6487 Y15.8220
G01 X6.6391 Y15.7839
G01 X6.6259 Y15.7468
G01 X6.6091 Y15.7113
G01 X6.5889 Y15.6776
G01 X6.5655 Y15.6460
G01 X6.5391 Y15.6169
G01 X6.5099 Y15.5905
G01 X6.4783 Y15.5670
G01 X6.4446 Y15.5468
G01 X6.4091 Y15.5300
G01 X6.3721 Y15.5168
G01 X6.3339 Y15.5072
G01 X6.2950 Y15.5015
G01 X6.2558 Y15.4995
G01 X6.2165 Y15.5015
G01 X6.1776 Y15.5072
G01 X6.1395 Y15.5168
G01 X6.1025 Y15.5300
G01 X6.0669 Y15.5468
G01 X6.0332 Y15.5670
G01 X6.0016 Y15.5905
G01 X5.9725 Y15.6169
G01 X5.9461 Y15.6460
G01 X5.9227 Y15.6776
G01 X5.9025 Y15.7113
G01 X5.8857 Y15.7468
G01 X5.8724 Y15.7839
G01 X5.8629 Y15.8220
G01 X5.8571 Y15.8609
G01 X5.8552 Y15.9002
G01 X5.8571 Y15.9394
G01 X5.8629 Y15.9783
G01 X5.8724 Y16.0164
G01 X5.8857 Y16.0535
G01 X5.9025 Y16.0890
G01 X5.9227 Y16.1227
G01 X5.9461 Y16.1543
G01 X5.9725 Y16.1834
G01 X6.0016 Y16.2098
G01 X6.0332 Y16.2333
G01 X6.0669 Y16.2535
G01 X6.1025 Y16.2703
G01 X6.1395 Y16.2835
G01 X6.1776 Y16.2931
G01 X6.2165 Y16.2988
G01 X6.2558 Y16.3008
G01 X6.2950 Y16.2988
G01 X6.3339 Y16.2931
G01 X6.3721 Y16.2835
G01 X6.4091 Y16.2703
G01 X6.4446 Y16.2535
G01 X6.4783 Y16.2333
G01 X6.5099 Y16.2098
G01 X6.5391 Y16.1834
G01 X6.5655 Y16.1543
G01 X6.5889 Y16.1227
G01 X6.6091 Y16.0890
G01 X6.6259 Y16.0535
G01 X6.6391 Y16.0164
G01 X6.6487 Y15.9783
G01 X6.6545 Y15.9394
G01 X6.6564 Y15.9002
G00 Z0.5000
G00 X22.2444 Y6.8984
G01 F250.00
G01 Z-0.1000
G01 F1250.00
G01 X22.2424 Y6.8591
G01 X22.2367 Y6.8202
G01 X22.2271 Y6.7821
G01 X22.2139 Y6.7451
G01 X22.1971 Y6.7095
G01 X22.1769 Y6.6758
G01 X22.1534 Y6.6442
G01 X22.1270 Y6.6151
G01 X22.0979 Y6.5887
G01 X22.0663 Y6.5653
G01 X22.0326 Y6.5451
G01 X21.9971 Y6.5283
G01 X21.9600 Y6.5150
G01 X21.9219 Y6.5055
G01 X21.8830 Y6.4997
G01 X21.8438 Y6.4978
G01 X21.8045 Y6.4997
G01 X21.7656 Y6.5055
G01 X21.7275 Y6.5150
G01 X21.6904 Y6.5283
G01 X21.6549 Y6.5451
G01 X21.6212 Y6.5653
G01 X21.5896 Y6.5887
G01 X21.5605 Y6.6151
G01 X21.5341 Y6.6442
G01 X21.5107 Y6.6758
G01 X21.4904 Y6.7095
G01 X21.4736 Y6.7451
G01 X21.4604 Y6.7821
G01 X21.4508 Y6.8202
G01 X21.4451 Y6.8591
G01 X21.4431 Y6.8984
G01 X21.4451 Y6.9377
G01 X21.4508 Y6.9765
G01 X21.4604 Y7.0147
G01 X21.4736 Y7.0517
G01 X21.4904 Y7.0872
G01 X21.5107 Y7.1210
G01 X21.5341 Y7.1525
G01 X21.5605 Y7.1817
G01 X21.5896 Y7.2081
G01 X21.6212 Y7.2315
G01 X21.6549 Y7.2517
G01 X21.6904 Y7.2685
G01 X21.7275 Y7.2818
G01 X21.7656 Y7.2913
G01 X21.8045 Y7.2971
G01 X21.8438 Y7.2990
G01 X21.8830 Y7.2971
G01 X21.9219 Y7.2913
G01 X21.9600 Y7.2818
G01 X21.9971 Y7.2685
G01 X22.0326 Y7.2517
G01 X22.0663 Y7.2315
G01 X22.0979 Y7.2081
G01 X22.1270 Y7.1817
G01 X22.1534 Y7.1525
G01 X22.1769 Y7.1210
G01 X22.1971 Y7.0872
G01 X22.2139 Y7.0517
G01 X22.2271 Y7.0147
G01 X22.2367 Y6.9765
G01 X22.2424 Y6.9377
G01 X22.2444 Y6.8984
G00 X22.2444 Y6.8984
G01 F250.00
G01 Z-0.2000
G01 F1250.00
G01 X22.2424 Y6.8591
G01 X22.2367 Y6.8202
G01 X22.2271 Y6.7821
G01 X22.2139 Y6.7451
G01 X22.1971 Y6.7095
G01 X22.1769 Y6.6758
G01 X22.1534 Y6.6442
G01 X22.1270 Y6.6151
G01 X22.0979 Y6.5887
G01 X22.0663 Y6.5653
G01 X22.0326 Y6.5451
G01 X21.9971 Y6.5283
G01 X21.9600 Y6.5150
G01 X21.9219 Y6.5055
G01 X21.8830 Y6.4997
G01 X21.8438 Y6.4978
G01 X21.8045 Y6.4997
G01 X21.7656 Y6.5055
G01 X21.7275 Y6.5150
G01 X21.6904 Y6.5283
G01 X21.6549 Y6.5451
G01 X21.6212 Y6.5653
G01 X21.5896 Y6.5887
G01 X21.5605 Y6.6151
G01 X21.5341 Y6.6442
G01 X21.5107 Y6.6758
G01 X21.4904 Y6.7095
G01 X21.4736 Y6.7451
G01 X21.4604 Y6.7821
G01 X21.4508 Y6.8202
G01 X21.4451 Y6.8591
G01 X21.4431 Y6.8984
G01 X21.4451 Y6.9377
G01 X21.4508 Y6.9765
G01 X21.4604 Y7.0147
G01 X21.4736 Y7.0517
G01 X21.4904 Y7.0872
G01 X21.5107 Y7.1210
G01 X21.5341 Y7.1525
G01 X21.5605 Y7.1817
G01 X21.5896 Y7.2081
G01 X21.6212 Y7.2315
G01 X21.6549 Y7.2517
G01 X21.6904 Y7.2685
G01 X21.7275 Y7.2818
G01 X21.7656 Y7.2913
G01 X21.8045 Y7.2971
G01 X21.8438 Y7.2990
G01 X21.8830 Y7.2971
G01 X21.9219 Y7.2913
G01 X21.9600 Y7.2818
G01 X21.9971 Y7.2685
G01 X22.0326 Y7.2517
G01 X22.0663 Y7.2315
G01 X22.0979 Y7.2081
G01 X22.1270 Y7.1817
G01 X22.1534 Y7.1525
G01 X22.1769 Y7.1210
G01 X22.1971 Y7.0872
G01 X22.2139 Y7.0517
G01 X22.2271 Y7.0147
G01 X22.2367 Y6.9765
G01 X22.2424 Y6.9377
G01 X22.2444 Y6.8984
G00 X22.2444 Y6.8984
G01 F250.00
G01 Z-0.3000
G01 F1250.00
G01 X22.2424 Y6.8591
G01 X22.2367 Y6.8202
G01 X22.2271 Y6.7821
G01 X22.2139 Y6.7451
G01 X22.1971 Y6.7095
G01 X22.1769 Y6.6758
G01 X22.1534 Y6.6442
G01 X22.1270 Y6.6151
G01 X22.0979 Y6.5887
G01 X22.0663 Y6.5653
G01 X22.0326 Y6.5451
G01 X21.9971 Y6.5283
G01 X21.9600 Y6.5150
G01 X21.9219 Y6.5055
G01 X21.8830 Y6.4997
G01 X21.8438 Y6.4978
G01 X21.8045 Y6.4997
G01 X21.7656 Y6.5055
G01 X21.7275 Y6.5150
G01 X21.6904 Y6.5283
G01 X21.6549 Y6.5451
G01 X21.6212 Y6.5653
G01 X21.5896 Y6.5887
G01 X21.5605 Y6.6151
G01 X21.5341 Y6.6442
G01 X21.5107 Y6.6758
G01 X21.4904 Y6.7095
G01 X21.4736 Y6.7451
G01 X21.4604 Y6.7821
G01 X21.4508 Y6.8202
G01 X21.4451 Y6.8591
G01 X21.4431 Y6.8984
G01 X21.4451 Y6.9377
G01 X21.4508 Y6.9765
G01 X21.4604 Y7.0147
G01 X21.4736 Y7.0517
G01 X21.4904 Y7.0872
G01 X21.5107 Y7.1210
G01 X21.5341 Y7.1525
G01 X21.5605 Y7.1817
G01 X21.5896 Y7.2081
G01 X21.6212 Y7.2315
G01 X21.6549 Y7.2517
G01 X21.6904 Y7.2685
G01 X21.7275 Y7.2818
G01 X21.7656 Y7.2913
G01 X21.8045 Y7.2971
G01 X21.8438 Y7.2990
G01 X21.8830 Y7.2971
G01 X21.9219 Y7.2913
G01 X21.9600 Y7.2818
G01 X21.9971 Y7.2685
G01 X22.0326 Y7.2517
G01 X22.0663 Y7.2315
G01 X22.0979 Y7.2081
G01 X22.1270 Y7.1817
G01 X22.1534 Y7.1525
G01 X22.1769 Y7.1210
G01 X22.1971 Y7.0872
G01 X22.2139 Y7.0517
G01 X22.2271 Y7.0147
G01 X22.2367 Y6.9765
G01 X22.2424 Y6.9377
G01 X22.2444 Y6.8984
G00 X22.2444 Y6.8984
G01 F250.00
G01 Z-0.4000
G01 F1250.00
G01 X22.2424 Y6.8591
G01 X22.2367 Y6.8202
G01 X22.2271 Y6.7821
G01 X22.2139 Y6.7451
G01 X22.1971 Y6.7095
G01 X22.1769 Y6.6758
G01 X22.1534 Y6.6442
G01 X22.1270 Y6.6151
G01 X22.0979 Y6.5887
G01 X22.0663 Y6.5653
G01 X22.0326 Y6.5451
G01 X21.9971 Y6.5283
G01 X21.9600 Y6.5150
G01 X21.9219 Y6.5055
G01 X21.8830 Y6.4997
G01 X21.8438 Y6.4978
G01 X21.8045 Y6.4997
G01 X21.7656 Y6.5055
G01 X21.7275 Y6.5150
G01 X21.6904 Y6.5283
G01 X21.6549 Y6.5451
G01 X21.6212 Y6.5653
G01 X21.5896 Y6.5887
G01 X21.5605 Y6.6151
G01 X21.5341 Y6.6442
G01 X21.5107 Y6.6758
G01 X21.4904 Y6.7095
G01 X21.4736 Y6.7451
G01 X21.4604 Y6.7821
G01 X21.4508 Y6.8202
G01 X21.4451 Y6.8591
G01 X21.4431 Y6.8984
G01 X21.4451 Y6.9377
G01 X21.4508 Y6.9765
G01 X21.4604 Y7.0147
G01 X21.4736 Y7.0517
G01 X21.4904 Y7.0872
G01 X21.5107 Y7.1210
G01 X21.5341 Y7.1525
G01 X21.5605 Y7.1817
G01 X21.5896 Y7.2081
G01 X21.6212 Y7.2315
G01 X21.6549 Y7.2517
G01 X21.6904 Y7.2685
G01 X21.7275 Y7.2818
G01 X21.7656 Y7.2913
G01 X21.8045 Y7.2971
G01 X21.8438 Y7.2990
G01 X21.8830 Y7.2971
G01 X21.9219 Y7.2913
G01 X21.9600 Y7.2818
G01 X21.9971 Y7.2685
G01 X22.0326 Y7.2517
G01 X22.0663 Y7.2315
G01 X22.0979 Y7.2081
G01 X22.1270 Y7.1817
G01 X22.1534 Y7.1525
G01 X22.1769 Y7.1210
G01 X22.1971 Y7.0872
G01 X22.2139 Y7.0517
G01 X22.2271 Y7.0147
G01 X22.2367 Y6.9765
G01 X22.2424 Y6.9377
G01 X22.2444 Y6.8984
G00 X22.2444 Y6.8984
G01 F250.00
G01 Z-0.5000
G01 F1250.00
G01 X22.2424 Y6.8591
G01 X22.2367 Y6.8202
G01 X22.2271 Y6.7821
G01 X22.2139 Y6.7451
G01 X22.1971 Y6.7095
G01 X22.1769 Y6.6758
G01 X22.1534 Y6.6442
G01 X22.1270 Y6.6151
G01 X22.0979 Y6.5887
G01 X22.0663 Y6.5653
G01 X22.0326 Y6.5451
G01 X21.9971 Y6.5283
G01 X21.9600 Y6.5150
G01 X21.9219 Y6.5055
G01 X21.8830 Y6.4997
G01 X21.8438 Y6.4978
G01 X21.8045 Y6.4997
G01 X21.7656 Y6.5055
G01 X21.7275 Y6.5150
G01 X21.6904 Y6.5283
G01 X21.6549 Y6.5451
G01 X21.6212 Y6.5653
G01 X21.5896 Y6.5887
G01 X21.5605 Y6.6151
G01 X21.5341 Y6.6442
G01 X21.5107 Y6.6758
G01 X21.4904 Y6.7095
G01 X21.4736 Y6.7451
G01 X21.4604 Y6.7821
G01 X21.4508 Y6.8202
G01 X21.4451 Y6.8591
G01 X21.4431 Y6.8984
G01 X21.4451 Y6.9377
G01 X21.4508 Y6.9765
G01 X21.4604 Y7.0147
G01 X21.4736 Y7.0517
G01 X21.4904 Y7.0872
G01 X21.5107 Y7.1210
G01 X21.5341 Y7.1525
G01 X21.5605 Y7.1817
G01 X21.5896 Y7.2081
G01 X21.6212 Y7.2315
G01 X21.6549 Y7.2517
G01 X21.6904 Y7.2685
G01 X21.7275 Y7.2818
G01 X21.7656 Y7.2913
G01 X21.8045 Y7.2971
G01 X21.8438 Y7.2990
G01 X21.8830 Y7.2971
G01 X21.9219 Y7.2913
G01 X21.9600 Y7.2818
G01 X21.9971 Y7.2685
G01 X22.0326 Y7.2517
G01 X22.0663 Y7.2315
G01 X22.0979 Y7.2081
G01 X22.1270 Y7.1817
G01 X22.1534 Y7.1525
G01 X22.1769 Y7.1210
G01 X22.1971 Y7.0872
G01 X22.2139 Y7.0517
G01 X22.2271 Y7.0147
G01 X22.2367 Y6.9765
G01 X22.2424 Y6.9377
G01 X22.2444 Y6.8984
G00 X22.2444 Y6.8984
G01 F250.00
G01 Z-0.6000
G01 F1250.00
G01 X22.2424 Y6.8591
G01 X22.2367 Y6.8202
G01 X22.2271 Y6.7821
G01 X22.2139 Y6.7451
G01 X22.1971 Y6.7095
G01 X22.1769 Y6.6758
G01 X22.1534 Y6.6442
G01 X22.1270 Y6.6151
G01 X22.0979 Y6.5887
G01 X22.0663 Y6.5653
G01 X22.0326 Y6.5451
G01 X21.9971 Y6.5283
G01 X21.9600 Y6.5150
G01 X21.9219 Y6.5055
G01 X21.8830 Y6.4997
G01 X21.8438 Y6.4978
G01 X21.8045 Y6.4997
G01 X21.7656 Y6.5055
G01 X21.7275 Y6.5150
G01 X21.6904 Y6.5283
G01 X21.6549 Y6.5451
G01 X21.6212 Y6.5653
G01 X21.5896 Y6.5887
G01 X21.5605 Y6.6151
G01 X21.5341 Y6.6442
G01 X21.5107 Y6.6758
G01 X21.4904 Y6.7095
G01 X21.4736 Y6.7451
G01 X21.4604 Y6.7821
G01 X21.4508 Y6.8202
G01 X21.4451 Y6.8591
G01 X21.4431 Y6.8984
G01 X21.4451 Y6.9377
G01 X21.4508 Y6.9765
G01 X21.4604 Y7.0147
G01 X21.4736 Y7.0517
G01 X21.4904 Y7.0872
G01 X21.5107 Y7.1210
G01 X21.5341 Y7.1525
G01 X21.5605 Y7.1817
G01 X21.5896 Y7.2081
G01 X21.6212 Y7.2315
G01 X21.6549 Y7.2517
G01 X21.6904 Y7.2685
G01 X21.7275 Y7.2818
G01 X21.7656 Y7.2913
G01 X21.8045 Y7.2971
G01 X21.8438 Y7.2990
G01 X21.8830 Y7.2971
G01 X21.9219 Y7.2913
G01 X21.9600 Y7.2818
G01 X21.9971 Y7.2685
G01 X22.0326 Y7.2517
G01 X22.0663 Y7.2315
G01 X22.0979 Y7.2081
G01 X22.1270 Y7.1817
G01 X22.1534 Y7.1525
G01 X22.1769 Y7.1210
G01 X22.1971 Y7.0872
G01 X22.2139 Y7.0517
G01 X22.2271 Y7.0147
G01 X22.2367 Y6.9765
G01 X22.2424 Y6.9377
G01 X22.2444 Y6.8984
G00 X22.2444 Y6.8984
G01 F250.00
G01 Z-0.7000
G01 F1250.00
G01 X22.2424 Y6.8591
G01 X22.2367 Y6.8202
G01 X22.2271 Y6.7821
G01 X22.2139 Y6.7451
G01 X22.1971 Y6.7095
G01 X22.1769 Y6.6758
G01 X22.1534 Y6.6442
G01 X22.1270 Y6.6151
G01 X22.0979 Y6.5887
G01 X22.0663 Y6.5653
G01 X22.0326 Y6.5451
G01 X21.9971 Y6.5283
G01 X21.9600 Y6.5150
G01 X21.9219 Y6.5055
G01 X21.8830 Y6.4997
G01 X21.8438 Y6.4978
G01 X21.8045 Y6.4997
G01 X21.7656 Y6.5055
G01 X21.7275 Y6.5150
G01 X21.6904 Y6.5283
G01 X21.6549 Y6.5451
G01 X21.6212 Y6.5653
G01 X21.5896 Y6.5887
G01 X21.5605 Y6.6151
G01 X21.5341 Y6.6442
G01 X21.5107 Y6.6758
G01 X21.4904 Y6.7095
G01 X21.4736 Y6.7451
G01 X21.4604 Y6.7821
G01 X21.4508 Y6.8202
G01 X21.4451 Y6.8591
G01 X21.4431 Y6.8984
G01 X21.4451 Y6.9377
G01 X21.4508 Y6.9765
G01 X21.4604 Y7.0147
G01 X21.4736 Y7.0517
G01 X21.4904 Y7.0872
G01 X21.5107 Y7.1210
G01 X21.5341 Y7.1525
G01 X21.5605 Y7.1817
G01 X21.5896 Y7.2081
G01 X21.6212 Y7.2315
G01 X21.6549 Y7.2517
G01 X21.6904 Y7.2685
G01 X21.7275 Y7.2818
G01 X21.7656 Y7.2913
G01 X21.8045 Y7.2971
G01 X21.8438 Y7.2990
G01 X21.8830 Y7.2971
G01 X21.9219 Y7.2913
G01 X21.9600 Y7.2818
G01 X21.9971 Y7.2685
G01 X22.0326 Y7.2517
G01 X22.0663 Y7.2315
G01 X22.0979 Y7.2081
G01 X22.1270 Y7.1817
G01 X22.1534 Y7.1525
G01 X22.1769 Y7.1210
G01 X22.1971 Y7.0872
G01 X22.2139 Y7.0517
G01 X22.2271 Y7.0147
G01 X22.2367 Y6.9765
G01 X22.2424 Y6.9377
G01 X22.2444 Y6.8984
G00 X22.2444 Y6.8984
G01 F250.00
G01 Z-0.8000
G01 F1250.00
G01 X22.2424 Y6.8591
G01 X22.2367 Y6.8202
G01 X22.2271 Y6.7821
G01 X22.2139 Y6.7451
G01 X22.1971 Y6.7095
G01 X22.1769 Y6.6758
G01 X22.1534 Y6.6442
G01 X22.1270 Y6.6151
G01 X22.0979 Y6.5887
G01 X22.0663 Y6.5653
G01 X22.0326 Y6.5451
G01 X21.9971 Y6.5283
G01 X21.9600 Y6.5150
G01 X21.9219 Y6.5055
G01 X21.8830 Y6.4997
G01 X21.8438 Y6.4978
G01 X21.8045 Y6.4997
G01 X21.7656 Y6.5055
G01 X21.7275 Y6.5150
G01 X21.6904 Y6.5283
G01 X21.6549 Y6.5451
G01 X21.6212 Y6.5653
G01 X21.5896 Y6.5887
G01 X21.5605 Y6.6151
G01 X21.5341 Y6.6442
G01 X21.5107 Y6.6758
G01 X21.4904 Y6.7095
G01 X21.4736 Y6.7451
G01 X21.4604 Y6.7821
G01 X21.4508 Y6.8202
G01 X21.4451 Y6.8591
G01 X21.4431 Y6.8984
G01 X21.4451 Y6.9377
G01 X21.4508 Y6.9765
G01 X21.4604 Y7.0147
G01 X21.4736 Y7.0517
G01 X21.4904 Y7.0872
G01 X21.5107 Y7.1210
G01 X21.5341 Y7.1525
G01 X21.5605 Y7.1817
G01 X21.5896 Y7.2081
G01 X21.6212 Y7.2315
G01 X21.6549 Y7.2517
G01 X21.6904 Y7.2685
G01 X21.7275 Y7.2818
G01 X21.7656 Y7.2913
G01 X21.8045 Y7.2971
G01 X21.8438 Y7.2990
G01 X21.8830 Y7.2971
G01 X21.9219 Y7.2913
G01 X21.9600 Y7.2818
G01 X21.9971 Y7.2685
G01 X22.0326 Y7.2517
G01 X22.0663 Y7.2315
G01 X22.0979 Y7.2081
G01 X22.1270 Y7.1817
G01 X22.1534 Y7.1525
G01 X22.1769 Y7.1210
G01 X22.1971 Y7.0872
G01 X22.2139 Y7.0517
G01 X22.2271 Y7.0147
G01 X22.2367 Y6.9765
G01 X22.2424 Y6.9377
G01 X22.2444 Y6.8984
G00 X22.2444 Y6.8984
G01 F250.00
G01 Z-0.9000
G01 F1250.00
G01 X22.2424 Y6.8591
G01 X22.2367 Y6.8202
G01 X22.2271 Y6.7821
G01 X22.2139 Y6.7451
G01 X22.1971 Y6.7095
G01 X22.1769 Y6.6758
G01 X22.1534 Y6.6442
G01 X22.1270 Y6.6151
G01 X22.0979 Y6.5887
G01 X22.0663 Y6.5653
G01 X22.0326 Y6.5451
G01 X21.9971 Y6.5283
G01 X21.9600 Y6.5150
G01 X21.9219 Y6.5055
G01 X21.8830 Y6.4997
G01 X21.8438 Y6.4978
G01 X21.8045 Y6.4997
G01 X21.7656 Y6.5055
G01 X21.7275 Y6.5150
G01 X21.6904 Y6.5283
G01 X21.6549 Y6.5451
G01 X21.6212 Y6.5653
G01 X21.5896 Y6.5887
G01 X21.5605 Y6.6151
G01 X21.5341 Y6.6442
G01 X21.5107 Y6.6758
G01 X21.4904 Y6.7095
G01 X21.4736 Y6.7451
G01 X21.4604 Y6.7821
G01 X21.4508 Y6.8202
G01 X21.4451 Y6.8591
G01 X21.4431 Y6.8984
G01 X21.4451 Y6.9377
G01 X21.4508 Y6.9765
G01 X21.4604 Y7.0147
G01 X21.4736 Y7.0517
G01 X21.4904 Y7.0872
G01 X21.5107 Y7.1210
G01 X21.5341 Y7.1525
G01 X21.5605 Y7.1817
G01 X21.5896 Y7.2081
G01 X21.6212 Y7.2315
G01 X21.6549 Y7.2517
G01 X21.6904 Y7.2685
G01 X21.7275 Y7.2818
G01 X21.7656 Y7.2913
G01 X21.8045 Y7.2971
G01 X21.8438 Y7.2990
G01 X21.8830 Y7.2971
G01 X21.9219 Y7.2913
G01 X21.9600 Y7.2818
G01 X21.9971 Y7.2685
G01 X22.0326 Y7.2517
G01 X22.0663 Y7.2315
G01 X22.0979 Y7.2081
G01 X22.1270 Y7.1817
G01 X22.1534 Y7.1525
G01 X22.1769 Y7.1210
G01 X22.1971 Y7.0872
G01 X22.2139 Y7.0517
G01 X22.2271 Y7.0147
G01 X22.2367 Y6.9765
G01 X22.2424 Y6.9377
G01 X22.2444 Y6.8984
G00 X22.2444 Y6.8984
G01 F250.00
G01 Z-1.0000
G01 F1250.00
G01 X22.2424 Y6.8591
G01 X22.2367 Y6.8202
G01 X22.2271 Y6.7821
G01 X22.2139 Y6.7451
G01 X22.1971 Y6.7095
G01 X22.1769 Y6.6758
G01 X22.1534 Y6.6442
G01 X22.1270 Y6.6151
G01 X22.0979 Y6.5887
G01 X22.0663 Y6.5653
G01 X22.0326 Y6.5451
G01 X21.9971 Y6.5283
G01 X21.9600 Y6.5150
G01 X21.9219 Y6.5055
G01 X21.8830 Y6.4997
G01 X21.8438 Y6.4978
G01 X21.8045 Y6.4997
G01 X21.7656 Y6.5055
G01 X21.7275 Y6.5150
G01 X21.6904 Y6.5283
G01 X21.6549 Y6.5451
G01 X21.6212 Y6.5653
G01 X21.5896 Y6.5887
G01 X21.5605 Y6.6151
G01 X21.5341 Y6.6442
G01 X21.5107 Y6.6758
G01 X21.4904 Y6.7095
G01 X21.4736 Y6.7451
G01 X21.4604 Y6.7821
G01 X21.4508 Y6.8202
G01 X21.4451 Y6.8591
G01 X21.4431 Y6.8984
G01 X21.4451 Y6.9377
G01 X21.4508 Y6.9765
G01 X21.4604 Y7.0147
G01 X21.4736 Y7.0517
G01 X21.4904 Y7.0872
G01 X21.5107 Y7.1210
G01 X21.5341 Y7.1525
G01 X21.5605 Y7.1817
G01 X21.5896 Y7.2081
G01 X21.6212 Y7.2315
G01 X21.6549 Y7.2517
G01 X21.6904 Y7.2685
G01 X21.7275 Y7.2818
G01 X21.7656 Y7.2913
G01 X21.8045 Y7.2971
G01 X21.8438 Y7.2990
G01 X21.8830 Y7.2971
G01 X21.9219 Y7.2913
G01 X21.9600 Y7.2818
G01 X21.9971 Y7.2685
G01 X22.0326 Y7.2517
G01 X22.0663 Y7.2315
G01 X22.0979 Y7.2081
G01 X22.1270 Y7.1817
G01 X22.1534 Y7.1525
G01 X22.1769 Y7.1210
G01 X22.1971 Y7.0872
G01 X22.2139 Y7.0517
G01 X22.2271 Y7.0147
G01 X22.2367 Y6.9765
G01 X22.2424 Y6.9377
G01 X22.2444 Y6.8984
G00 X22.2444 Y6.8984
G01 F250.00
G01 Z-1.1000
G01 F1250.00
G01 X22.2424 Y6.8591
G01 X22.2367 Y6.8202
G01 X22.2271 Y6.7821
G01 X22.2139 Y6.7451
G01 X22.1971 Y6.7095
G01 X22.1769 Y6.6758
G01 X22.1534 Y6.6442
G01 X22.1270 Y6.6151
G01 X22.0979 Y6.5887
G01 X22.0663 Y6.5653
G01 X22.0326 Y6.5451
G01 X21.9971 Y6.5283
G01 X21.9600 Y6.5150
G01 X21.9219 Y6.5055
G01 X21.8830 Y6.4997
G01 X21.8438 Y6.4978
G01 X21.8045 Y6.4997
G01 X21.7656 Y6.5055
G01 X21.7275 Y6.5150
G01 X21.6904 Y6.5283
G01 X21.6549 Y6.5451
G01 X21.6212 Y6.5653
G01 X21.5896 Y6.5887
G01 X21.5605 Y6.6151
G01 X21.5341 Y6.6442
G01 X21.5107 Y6.6758
G01 X21.4904 Y6.7095
G01 X21.4736 Y6.7451
G01 X21.4604 Y6.7821
G01 X21.4508 Y6.8202
G01 X21.4451 Y6.8591
G01 X21.4431 Y6.8984
G01 X21.4451 Y6.9377
G01 X21.4508 Y6.9765
G01 X21.4604 Y7.0147
G01 X21.4736 Y7.0517
G01 X21.4904 Y7.0872
G01 X21.5107 Y7.1210
G01 X21.5341 Y7.1525
G01 X21.5605 Y7.1817
G01 X21.5896 Y7.2081
G01 X21.6212 Y7.2315
G01 X21.6549 Y7.2517
G01 X21.6904 Y7.2685
G01 X21.7275 Y7.2818
G01 X21.7656 Y7.2913
G01 X21.8045 Y7.2971
G01 X21.8438 Y7.2990
G01 X21.8830 Y7.2971
G01 X21.9219 Y7.2913
G01 X21.9600 Y7.2818
G01 X21.9971 Y7.2685
G01 X22.0326 Y7.2517
G01 X22.0663 Y7.2315
G01 X22.0979 Y7.2081
G01 X22.1270 Y7.1817
G01 X22.1534 Y7.1525
G01 X22.1769 Y7.1210
G01 X22.1971 Y7.0872
G01 X22.2139 Y7.0517
G01 X22.2271 Y7.0147
G01 X22.2367 Y6.9765
G01 X22.2424 Y6.9377
G01 X22.2444 Y6.8984
G00 X22.2444 Y6.8984
G01 F250.00
G01 Z-1.2000
G01 F1250.00
G01 X22.2424 Y6.8591
G01 X22.2367 Y6.8202
G01 X22.2271 Y6.7821
G01 X22.2139 Y6.7451
G01 X22.1971 Y6.7095
G01 X22.1769 Y6.6758
G01 X22.1534 Y6.6442
G01 X22.1270 Y6.6151
G01 X22.0979 Y6.5887
G01 X22.0663 Y6.5653
G01 X22.0326 Y6.5451
G01 X21.9971 Y6.5283
G01 X21.9600 Y6.5150
G01 X21.9219 Y6.5055
G01 X21.8830 Y6.4997
G01 X21.8438 Y6.4978
G01 X21.8045 Y6.4997
G01 X21.7656 Y6.5055
G01 X21.7275 Y6.5150
G01 X21.6904 Y6.5283
G01 X21.6549 Y6.5451
G01 X21.6212 Y6.5653
G01 X21.5896 Y6.5887
G01 X21.5605 Y6.6151
G01 X21.5341 Y6.6442
G01 X21.5107 Y6.6758
G01 X21.4904 Y6.7095
G01 X21.4736 Y6.7451
G01 X21.4604 Y6.7821
G01 X21.4508 Y6.8202
G01 X21.4451 Y6.8591
G01 X21.4431 Y6.8984
G01 X21.4451 Y6.9377
G01 X21.4508 Y6.9765
G01 X21.4604 Y7.0147
G01 X21.4736 Y7.0517
G01 X21.4904 Y7.0872
G01 X21.5107 Y7.1210
G01 X21.5341 Y7.1525
G01 X21.5605 Y7.1817
G01 X21.5896 Y7.2081
G01 X21.6212 Y7.2315
G01 X21.6549 Y7.2517
G01 X21.6904 Y7.2685
G01 X21.7275 Y7.2818
G01 X21.7656 Y7.2913
G01 X21.8045 Y7.2971
G01 X21.8438 Y7.2990
G01 X21.8830 Y7.2971
G01 X21.9219 Y7.2913
G01 X21.9600 Y7.2818
G01 X21.9971 Y7.2685
G01 X22.0326 Y7.2517
G01 X22.0663 Y7.2315
G01 X22.0979 Y7.2081
G01 X22.1270 Y7.1817
G01 X22.1534 Y7.1525
G01 X22.1769 Y7.1210
G01 X22.1971 Y7.0872
G01 X22.2139 Y7.0517
G01 X22.2271 Y7.0147
G01 X22.2367 Y6.9765
G01 X22.2424 Y6.9377
G01 X22.2444 Y6.8984
G00 X22.2444 Y6.8984
G01 F250.00
G01 Z-1.3000
G01 F1250.00
G01 X22.2424 Y6.8591
G01 X22.2367 Y6.8202
G01 X22.2271 Y6.7821
G01 X22.2139 Y6.7451
G01 X22.1971 Y6.7095
G01 X22.1769 Y6.6758
G01 X22.1534 Y6.6442
G01 X22.1270 Y6.6151
G01 X22.0979 Y6.5887
G01 X22.0663 Y6.5653
G01 X22.0326 Y6.5451
G01 X21.9971 Y6.5283
G01 X21.9600 Y6.5150
G01 X21.9219 Y6.5055
G01 X21.8830 Y6.4997
G01 X21.8438 Y6.4978
G01 X21.8045 Y6.4997
G01 X21.7656 Y6.5055
G01 X21.7275 Y6.5150
G01 X21.6904 Y6.5283
G01 X21.6549 Y6.5451
G01 X21.6212 Y6.5653
G01 X21.5896 Y6.5887
G01 X21.5605 Y6.6151
G01 X21.5341 Y6.6442
G01 X21.5107 Y6.6758
G01 X21.4904 Y6.7095
G01 X21.4736 Y6.7451
G01 X21.4604 Y6.7821
G01 X21.4508 Y6.8202
G01 X21.4451 Y6.8591
G01 X21.4431 Y6.8984
G01 X21.4451 Y6.9377
G01 X21.4508 Y6.9765
G01 X21.4604 Y7.0147
G01 X21.4736 Y7.0517
G01 X21.4904 Y7.0872
G01 X21.5107 Y7.1210
G01 X21.5341 Y7.1525
G01 X21.5605 Y7.1817
G01 X21.5896 Y7.2081
G01 X21.6212 Y7.2315
G01 X21.6549 Y7.2517
G01 X21.6904 Y7.2685
G01 X21.7275 Y7.2818
G01 X21.7656 Y7.2913
G01 X21.8045 Y7.2971
G01 X21.8438 Y7.2990
G01 X21.8830 Y7.2971
G01 X21.9219 Y7.2913
G01 X21.9600 Y7.2818
G01 X21.9971 Y7.2685
G01 X22.0326 Y7.2517
G01 X22.0663 Y7.2315
G01 X22.0979 Y7.2081
G01 X22.1270 Y7.1817
G01 X22.1534 Y7.1525
G01 X22.1769 Y7.1210
G01 X22.1971 Y7.0872
G01 X22.2139 Y7.0517
G01 X22.2271 Y7.0147
G01 X22.2367 Y6.9765
G01 X22.2424 Y6.9377
G01 X22.2444 Y6.8984
G00 X22.2444 Y6.8984
G01 F250.00
G01 Z-1.4000
G01 F1250.00
G01 X22.2424 Y6.8591
G01 X22.2367 Y6.8202
G01 X22.2271 Y6.7821
G01 X22.2139 Y6.7451
G01 X22.1971 Y6.7095
G01 X22.1769 Y6.6758
G01 X22.1534 Y6.6442
G01 X22.1270 Y6.6151
G01 X22.0979 Y6.5887
G01 X22.0663 Y6.5653
G01 X22.0326 Y6.5451
G01 X21.9971 Y6.5283
G01 X21.9600 Y6.5150
G01 X21.9219 Y6.5055
G01 X21.8830 Y6.4997
G01 X21.8438 Y6.4978
G01 X21.8045 Y6.4997
G01 X21.7656 Y6.5055
G01 X21.7275 Y6.5150
G01 X21.6904 Y6.5283
G01 X21.6549 Y6.5451
G01 X21.6212 Y6.5653
G01 X21.5896 Y6.5887
G01 X21.5605 Y6.6151
G01 X21.5341 Y6.6442
G01 X21.5107 Y6.6758
G01 X21.4904 Y6.7095
G01 X21.4736 Y6.7451
G01 X21.4604 Y6.7821
G01 X21.4508 Y6.8202
G01 X21.4451 Y6.8591
G01 X21.4431 Y6.8984
G01 X21.4451 Y6.9377
G01 X21.4508 Y6.9765
G01 X21.4604 Y7.0147
G01 X21.4736 Y7.0517
G01 X21.4904 Y7.0872
G01 X21.5107 Y7.1210
G01 X21.5341 Y7.1525
G01 X21.5605 Y7.1817
G01 X21.5896 Y7.2081
G01 X21.6212 Y7.2315
G01 X21.6549 Y7.2517
G01 X21.6904 Y7.2685
G01 X21.7275 Y7.2818
G01 X21.7656 Y7.2913
G01 X21.8045 Y7.2971
G01 X21.8438 Y7.2990
G01 X21.8830 Y7.2971
G01 X21.9219 Y7.2913
G01 X21.9600 Y7.2818
G01 X21.9971 Y7.2685
G01 X22.0326 Y7.2517
G01 X22.0663 Y7.2315
G01 X22.0979 Y7.2081
G01 X22.1270 Y7.1817
G01 X22.1534 Y7.1525
G01 X22.1769 Y7.1210
G01 X22.1971 Y7.0872
G01 X22.2139 Y7.0517
G01 X22.2271 Y7.0147
G01 X22.2367 Y6.9765
G01 X22.2424 Y6.9377
G01 X22.2444 Y6.8984
G00 X22.2444 Y6.8984
G01 F250.00
G01 Z-1.5000
G01 F1250.00
G01 X22.2424 Y6.8591
G01 X22.2367 Y6.8202
G01 X22.2271 Y6.7821
G01 X22.2139 Y6.7451
G01 X22.1971 Y6.7095
G01 X22.1769 Y6.6758
G01 X22.1534 Y6.6442
G01 X22.1270 Y6.6151
G01 X22.0979 Y6.5887
G01 X22.0663 Y6.5653
G01 X22.0326 Y6.5451
G01 X21.9971 Y6.5283
G01 X21.9600 Y6.5150
G01 X21.9219 Y6.5055
G01 X21.8830 Y6.4997
G01 X21.8438 Y6.4978
G01 X21.8045 Y6.4997
G01 X21.7656 Y6.5055
G01 X21.7275 Y6.5150
G01 X21.6904 Y6.5283
G01 X21.6549 Y6.5451
G01 X21.6212 Y6.5653
G01 X21.5896 Y6.5887
G01 X21.5605 Y6.6151
G01 X21.5341 Y6.6442
G01 X21.5107 Y6.6758
G01 X21.4904 Y6.7095
G01 X21.4736 Y6.7451
G01 X21.4604 Y6.7821
G01 X21.4508 Y6.8202
G01 X21.4451 Y6.8591
G01 X21.4431 Y6.8984
G01 X21.4451 Y6.9377
G01 X21.4508 Y6.9765
G01 X21.4604 Y7.0147
G01 X21.4736 Y7.0517
G01 X21.4904 Y7.0872
G01 X21.5107 Y7.1210
G01 X21.5341 Y7.1525
G01 X21.5605 Y7.1817
G01 X21.5896 Y7.2081
G01 X21.6212 Y7.2315
G01 X21.6549 Y7.2517
G01 X21.6904 Y7.2685
G01 X21.7275 Y7.2818
G01 X21.7656 Y7.2913
G01 X21.8045 Y7.2971
G01 X21.8438 Y7.2990
G01 X21.8830 Y7.2971
G01 X21.9219 Y7.2913
G01 X21.9600 Y7.2818
G01 X21.9971 Y7.2685
G01 X22.0326 Y7.2517
G01 X22.0663 Y7.2315
G01 X22.0979 Y7.2081
G01 X22.1270 Y7.1817
G01 X22.1534 Y7.1525
G01 X22.1769 Y7.1210
G01 X22.1971 Y7.0872
G01 X22.2139 Y7.0517
G01 X22.2271 Y7.0147
G01 X22.2367 Y6.9765
G01 X22.2424 Y6.9377
G01 X22.2444 Y6.8984
G00 X22.2444 Y6.8984
G01 F250.00
G01 Z-1.6000
G01 F1250.00
G01 X22.2424 Y6.8591
G01 X22.2367 Y6.8202
G01 X22.2271 Y6.7821
G01 X22.2139 Y6.7451
G01 X22.1971 Y6.7095
G01 X22.1769 Y6.6758
G01 X22.1534 Y6.6442
G01 X22.1270 Y6.6151
G01 X22.0979 Y6.5887
G01 X22.0663 Y6.5653
G01 X22.0326 Y6.5451
G01 X21.9971 Y6.5283
G01 X21.9600 Y6.5150
G01 X21.9219 Y6.5055
G01 X21.8830 Y6.4997
G01 X21.8438 Y6.4978
G01 X21.8045 Y6.4997
G01 X21.7656 Y6.5055
G01 X21.7275 Y6.5150
G01 X21.6904 Y6.5283
G01 X21.6549 Y6.5451
G01 X21.6212 Y6.5653
G01 X21.5896 Y6.5887
G01 X21.5605 Y6.6151
G01 X21.5341 Y6.6442
G01 X21.5107 Y6.6758
G01 X21.4904 Y6.7095
G01 X21.4736 Y6.7451
G01 X21.4604 Y6.7821
G01 X21.4508 Y6.8202
G01 X21.4451 Y6.8591
G01 X21.4431 Y6.8984
G01 X21.4451 Y6.9377
G01 X21.4508 Y6.9765
G01 X21.4604 Y7.0147
G01 X21.4736 Y7.0517
G01 X21.4904 Y7.0872
G01 X21.5107 Y7.1210
G01 X21.5341 Y7.1525
G01 X21.5605 Y7.1817
G01 X21.5896 Y7.2081
G01 X21.6212 Y7.2315
G01 X21.6549 Y7.2517
G01 X21.6904 Y7.2685
G01 X21.7275 Y7.2818
G01 X21.7656 Y7.2913
G01 X21.8045 Y7.2971
G01 X21.8438 Y7.2990
G01 X21.8830 Y7.2971
G01 X21.9219 Y7.2913
G01 X21.9600 Y7.2818
G01 X21.9971 Y7.2685
G01 X22.0326 Y7.2517
G01 X22.0663 Y7.2315
G01 X22.0979 Y7.2081
G01 X22.1270 Y7.1817
G01 X22.1534 Y7.1525
G01 X22.1769 Y7.1210
G01 X22.1971 Y7.0872
G01 X22.2139 Y7.0517
G01 X22.2271 Y7.0147
G01 X22.2367 Y6.9765
G01 X22.2424 Y6.9377
G01 X22.2444 Y6.8984
G00 X22.2444 Y6.8984
G01 F250.00
G01 Z-1.7000
G01 F1250.00
G01 X22.2424 Y6.8591
G01 X22.2367 Y6.8202
G01 X22.2271 Y6.7821
G01 X22.2139 Y6.7451
G01 X22.1971 Y6.7095
G01 X22.1769 Y6.6758
G01 X22.1534 Y6.6442
G01 X22.1270 Y6.6151
G01 X22.0979 Y6.5887
G01 X22.0663 Y6.5653
G01 X22.0326 Y6.5451
G01 X21.9971 Y6.5283
G01 X21.9600 Y6.5150
G01 X21.9219 Y6.5055
G01 X21.8830 Y6.4997
G01 X21.8438 Y6.4978
G01 X21.8045 Y6.4997
G01 X21.7656 Y6.5055
G01 X21.7275 Y6.5150
G01 X21.6904 Y6.5283
G01 X21.6549 Y6.5451
G01 X21.6212 Y6.5653
G01 X21.5896 Y6.5887
G01 X21.5605 Y6.6151
G01 X21.5341 Y6.6442
G01 X21.5107 Y6.6758
G01 X21.4904 Y6.7095
G01 X21.4736 Y6.7451
G01 X21.4604 Y6.7821
G01 X21.4508 Y6.8202
G01 X21.4451 Y6.8591
G01 X21.4431 Y6.8984
G01 X21.4451 Y6.9377
G01 X21.4508 Y6.9765
G01 X21.4604 Y7.0147
G01 X21.4736 Y7.0517
G01 X21.4904 Y7.0872
G01 X21.5107 Y7.1210
G01 X21.5341 Y7.1525
G01 X21.5605 Y7.1817
G01 X21.5896 Y7.2081
G01 X21.6212 Y7.2315
G01 X21.6549 Y7.2517
G01 X21.6904 Y7.2685
G01 X21.7275 Y7.2818
G01 X21.7656 Y7.2913
G01 X21.8045 Y7.2971
G01 X21.8438 Y7.2990
G01 X21.8830 Y7.2971
G01 X21.9219 Y7.2913
G01 X21.9600 Y7.2818
G01 X21.9971 Y7.2685
G01 X22.0326 Y7.2517
G01 X22.0663 Y7.2315
G01 X22.0979 Y7.2081
G01 X22.1270 Y7.1817
G01 X22.1534 Y7.1525
G01 X22.1769 Y7.1210
G01 X22.1971 Y7.0872
G01 X22.2139 Y7.0517
G01 X22.2271 Y7.0147
G01 X22.2367 Y6.9765
G01 X22.2424 Y6.9377
G01 X22.2444 Y6.8984
G00 Z0.5000
G00 X57.7841 Y58.2775
G01 F250.00
G01 Z-0.1000
G01 F1250.00
G01 X57.7800 Y58.1942
G01 X57.7677 Y58.1116
G01 X57.7474 Y58.0307
G01 X57.7193 Y57.9522
G01 X57.6837 Y57.8767
G01 X57.6408 Y57.8052
G01 X57.5911 Y57.7382
G01 X57.5350 Y57.6763
G01 X57.4732 Y57.6203
G01 X57.4062 Y57.5706
G01 X57.3346 Y57.5277
G01 X57.2592 Y57.4920
G01 X57.1807 Y57.4639
G01 X57.0997 Y57.4436
G01 X57.0172 Y57.4314
G01 X56.9339 Y57.4273
G01 X56.8505 Y57.4314
G01 X56.7680 Y57.4436
G01 X56.6871 Y57.4639
G01 X56.6085 Y57.4920
G01 X56.5331 Y57.5277
G01 X56.4615 Y57.5706
G01 X56.3945 Y57.6203
G01 X56.3327 Y57.6763
G01 X56.2766 Y57.7382
G01 X56.2269 Y57.8052
G01 X56.1840 Y57.8767
G01 X56.1484 Y57.9522
G01 X56.1203 Y58.0307
G01 X56.1000 Y58.1116
G01 X56.0877 Y58.1942
G01 X56.0837 Y58.2775
G01 X56.0877 Y58.3608
G01 X56.1000 Y58.4434
G01 X56.1203 Y58.5243
G01 X56.1484 Y58.6029
G01 X56.1840 Y58.6783
G01 X56.2269 Y58.7499
G01 X56.2766 Y58.8169
G01 X56.3327 Y58.8787
G01 X56.3945 Y58.9347
G01 X56.4615 Y58.9844
G01 X56.5331 Y59.0273
G01 X56.6085 Y59.0630
G01 X56.6871 Y59.0911
G01 X56.7680 Y59.1114
G01 X56.8505 Y59.1236
G01 X56.9339 Y59.1277
G01 X57.0172 Y59.1236
G01 X57.0997 Y59.1114
G01 X57.1807 Y59.0911
G01 X57.2592 Y59.0630
G01 X57.3346 Y59.0273
G01 X57.4062 Y58.9844
G01 X57.4732 Y58.9347
G01 X57.5350 Y58.8787
G01 X57.5911 Y58.8169
G01 X57.6408 Y58.7499
G01 X57.6837 Y58.6783
G01 X57.7193 Y58.6029
G01 X57.7474 Y58.5243
G01 X57.7677 Y58.4434
G01 X57.7800 Y58.3608
G01 X57.7841 Y58.2775
G00 X57.7841 Y58.2775
G01 F250.00
G01 Z-0.2000
G01 F1250.00
G01 X57.7800 Y58.1942
G01 X57.7677 Y58.1116
G01 X57.7474 Y58.0307
G01 X57.7193 Y57.9522
G01 X57.6837 Y57.8767
G01 X57.6408 Y57.8052
G01 X57.5911 Y57.7382
G01 X57.5350 Y57.6763
G01 X57.4732 Y57.6203
G01 X57.4062 Y57.5706
G01 X57.3346 Y57.5277
G01 X57.2592 Y57.4920
G01 X57.1807 Y57.4639
G01 X57.0997 Y57.4436
G01 X57.0172 Y57.4314
G01 X56.9339 Y57.4273
G01 X56.8505 Y57.4314
G01 X56.7680 Y57.4436
G01 X56.6871 Y57.4639
G01 X56.6085 Y57.4920
G01 X56.5331 Y57.5277
G01 X56.4615 Y57.5706
G01 X56.3945 Y57.6203
G01 X56.3327 Y57.6763
G01 X56.2766 Y57.7382
G01 X56.2269 Y57.8052
G01 X56.1840 Y57.8767
G01 X56.1484 Y57.9522
G01 X56.1203 Y58.0307
G01 X56.1000 Y58.1116
G01 X56.0877 Y58.1942
G01 X56.0837 Y58.2775
G01 X56.0877 Y58.3608
G01 X56.1000 Y58.4434
G01 X56.1203 Y58.5243
G01 X56.1484 Y58.6029
G01 X56.1840 Y58.6783
G01 X56.2269 Y58.7499
G01 X56.2766 Y58.8169
G01 X56.3327 Y58.8787
G01 X56.3945 Y58.9347
G01 X56.4615 Y58.9844
G01 X56.5331 Y59.0273
G01 X56.6085 Y59.0630
G01 X56.6871 Y59.0911
G01 X56.7680 Y59.1114
G01 X56.8505 Y59.1236
G01 X56.9339 Y59.1277
G01 X57.0172 Y59.1236
G01 X57.0997 Y59.1114
G01 X57.1807 Y59.0911
G01 X57.2592 Y59.0630
G01 X57.3346 Y59.0273
G01 X57.4062 Y58.9844
G01 X57.4732 Y58.9347
G01 X57.5350 Y58.8787
G01 X57.5911 Y58.8169
G01 X57.6408 Y58.7499
G01 X57.6837 Y58.6783
G01 X57.7193 Y58.6029
G01 X57.7474 Y58.5243
G01 X57.7677 Y58.4434
G01 X57.7800 Y58.3608
G01 X57.7841 Y58.2775
G00 X57.7841 Y58.2775
G01 F250.00
G01 Z-0.3000
G01 F1250.00
G01 X57.7800 Y58.1942
G01 X57.7677 Y58.1116
G01 X57.7474 Y58.0307
G01 X57.7193 Y57.9522
G01 X57.6837 Y57.8767
G01 X57.6408 Y57.8052
G01 X57.5911 Y57.7382
G01 X57.5350 Y57.6763
G01 X57.4732 Y57.6203
G01 X57.4062 Y57.5706
G01 X57.3346 Y57.5277
G01 X57.2592 Y57.4920
G01 X57.1807 Y57.4639
G01 X57.0997 Y57.4436
G01 X57.0172 Y57.4314
G01 X56.9339 Y57.4273
G01 X56.8505 Y57.4314
G01 X56.7680 Y57.4436
G01 X56.6871 Y57.4639
G01 X56.6085 Y57.4920
G01 X56.5331 Y57.5277
G01 X56.4615 Y57.5706
G01 X56.3945 Y57.6203
G01 X56.3327 Y57.6763
G01 X56.2766 Y57.7382
G01 X56.2269 Y57.8052
G01 X56.1840 Y57.8767
G01 X56.1484 Y57.9522
G01 X56.1203 Y58.0307
G01 X56.1000 Y58.1116
G01 X56.0877 Y58.1942
G01 X56.0837 Y58.2775
G01 X56.0877 Y58.3608
G01 X56.1000 Y58.4434
G01 X56.1203 Y58.5243
G01 X56.1484 Y58.6029
G01 X56.1840 Y58.6783
G01 X56.2269 Y58.7499
G01 X56.2766 Y58.8169
G01 X56.3327 Y58.8787
G01 X56.3945 Y58.9347
G01 X56.4615 Y58.9844
G01 X56.5331 Y59.0273
G01 X56.6085 Y59.0630
G01 X56.6871 Y59.0911
G01 X56.7680 Y59.1114
G01 X56.8505 Y59.1236
G01 X56.9339 Y59.1277
G01 X57.0172 Y59.1236
G01 X57.0997 Y59.1114
G01 X57.1807 Y59.0911
G01 X57.2592 Y59.0630
G01 X57.3346 Y59.0273
G01 X57.4062 Y58.9844
G01 X57.4732 Y58.9347
G01 X57.5350 Y58.8787
G01 X57.5911 Y58.8169
G01 X57.6408 Y58.7499
G01 X57.6837 Y58.6783
G01 X57.7193 Y58.6029
G01 X57.7474 Y58.5243
G01 X57.7677 Y58.4434
G01 X57.7800 Y58.3608
G01 X57.7841 Y58.2775
G00 X57.7841 Y58.2775
G01 F250.00
G01 Z-0.4000
G01 F1250.00
G01 X57.7800 Y58.1942
G01 X57.7677 Y58.1116
G01 X57.7474 Y58.0307
G01 X57.7193 Y57.9522
G01 X57.6837 Y57.8767
G01 X57.6408 Y57.8052
G01 X57.5911 Y57.7382
G01 X57.5350 Y57.6763
G01 X57.4732 Y57.6203
G01 X57.4062 Y57.5706
G01 X57.3346 Y57.5277
G01 X57.2592 Y57.4920
G01 X57.1807 Y57.4639
G01 X57.0997 Y57.4436
G01 X57.0172 Y57.4314
G01 X56.9339 Y57.4273
G01 X56.8505 Y57.4314
G01 X56.7680 Y57.4436
G01 X56.6871 Y57.4639
G01 X56.6085 Y57.4920
G01 X56.5331 Y57.5277
G01 X56.4615 Y57.5706
G01 X56.3945 Y57.6203
G01 X56.3327 Y57.6763
G01 X56.2766 Y57.7382
G01 X56.2269 Y57.8052
G01 X56.1840 Y57.8767
G01 X56.1484 Y57.9522
G01 X56.1203 Y58.0307
G01 X56.1000 Y58.1116
G01 X56.0877 Y58.1942
G01 X56.0837 Y58.2775
G01 X56.0877 Y58.3608
G01 X56.1000 Y58.4434
G01 X56.1203 Y58.5243
G01 X56.1484 Y58.6029
G01 X56.1840 Y58.6783
G01 X56.2269 Y58.7499
G01 X56.2766 Y58.8169
G01 X56.3327 Y58.8787
G01 X56.3945 Y58.9347
G01 X56.4615 Y58.9844
G01 X56.5331 Y59.0273
G01 X56.6085 Y59.0630
G01 X56.6871 Y59.0911
G01 X56.7680 Y59.1114
G01 X56.8505 Y59.1236
G01 X56.9339 Y59.1277
G01 X57.0172 Y59.1236
G01 X57.0997 Y59.1114
G01 X57.1807 Y59.0911
G01 X57.2592 Y59.0630
G01 X57.3346 Y59.0273
G01 X57.4062 Y58.9844
G01 X57.4732 Y58.9347
G01 X57.5350 Y58.8787
G01 X57.5911 Y58.8169
G01 X57.6408 Y58.7499
G01 X57.6837 Y58.6783
G01 X57.7193 Y58.6029
G01 X57.7474 Y58.5243
G01 X57.7677 Y58.4434
G01 X57.7800 Y58.3608
G01 X57.7841 Y58.2775
G00 X57.7841 Y58.2775
G01 F250.00
G01 Z-0.5000
G01 F1250.00
G01 X57.7800 Y58.1942
G01 X57.7677 Y58.1116
G01 X57.7474 Y58.0307
G01 X57.7193 Y57.9522
G01 X57.6837 Y57.8767
G01 X57.6408 Y57.8052
G01 X57.5911 Y57.7382
G01 X57.5350 Y57.6763
G01 X57.4732 Y57.6203
G01 X57.4062 Y57.5706
G01 X57.3346 Y57.5277
G01 X57.2592 Y57.4920
G01 X57.1807 Y57.4639
G01 X57.0997 Y57.4436
G01 X57.0172 Y57.4314
G01 X56.9339 Y57.4273
G01 X56.8505 Y57.4314
G01 X56.7680 Y57.4436
G01 X56.6871 Y57.4639
G01 X56.6085 Y57.4920
G01 X56.5331 Y57.5277
G01 X56.4615 Y57.5706
G01 X56.3945 Y57.6203
G01 X56.3327 Y57.6763
G01 X56.2766 Y57.7382
G01 X56.2269 Y57.8052
G01 X56.1840 Y57.8767
G01 X56.1484 Y57.9522
G01 X56.1203 Y58.0307
G01 X56.1000 Y58.1116
G01 X56.0877 Y58.1942
G01 X56.0837 Y58.2775
G01 X56.0877 Y58.3608
G01 X56.1000 Y58.4434
G01 X56.1203 Y58.5243
G01 X56.1484 Y58.6029
G01 X56.1840 Y58.6783
G01 X56.2269 Y58.7499
G01 X56.2766 Y58.8169
G01 X56.3327 Y58.8787
G01 X56.3945 Y58.9347
G01 X56.4615 Y58.9844
G01 X56.5331 Y59.0273
G01 X56.6085 Y59.0630
G01 X56.6871 Y59.0911
G01 X56.7680 Y59.1114
G01 X56.8505 Y59.1236
G01 X56.9339 Y59.1277
G01 X57.0172 Y59.1236
G01 X57.0997 Y59.1114
G01 X57.1807 Y59.0911
G01 X57.2592 Y59.0630
G01 X57.3346 Y59.0273
G01 X57.4062 Y58.9844
G01 X57.4732 Y58.9347
G01 X57.5350 Y58.8787
G01 X57.5911 Y58.8169
G01 X57.6408 Y58.7499
G01 X57.6837 Y58.6783
G01 X57.7193 Y58.6029
G01 X57.7474 Y58.5243
G01 X57.7677 Y58.4434
G01 X57.7800 Y58.3608
G01 X57.7841 Y58.2775
G00 X57.7841 Y58.2775
G01 F250.00
G01 Z-0.6000
G01 F1250.00
G01 X57.7800 Y58.1942
G01 X57.7677 Y58.1116
G01 X57.7474 Y58.0307
G01 X57.7193 Y57.9522
G01 X57.6837 Y57.8767
G01 X57.6408 Y57.8052
G01 X57.5911 Y57.7382
G01 X57.5350 Y57.6763
G01 X57.4732 Y57.6203
G01 X57.4062 Y57.5706
G01 X57.3346 Y57.5277
G01 X57.2592 Y57.4920
G01 X57.1807 Y57.4639
G01 X57.0997 Y57.4436
G01 X57.0172 Y57.4314
G01 X56.9339 Y57.4273
G01 X56.8505 Y57.4314
G01 X56.7680 Y57.4436
G01 X56.6871 Y57.4639
G01 X56.6085 Y57.4920
G01 X56.5331 Y57.5277
G01 X56.4615 Y57.5706
G01 X56.3945 Y57.6203
G01 X56.3327 Y57.6763
G01 X56.2766 Y57.7382
G01 X56.2269 Y57.8052
G01 X56.1840 Y57.8767
G01 X56.1484 Y57.9522
G01 X56.1203 Y58.0307
G01 X56.1000 Y58.1116
G01 X56.0877 Y58.1942
G01 X56.0837 Y58.2775
G01 X56.0877 Y58.3608
G01 X56.1000 Y58.4434
G01 X56.1203 Y58.5243
G01 X56.1484 Y58.6029
G01 X56.1840 Y58.6783
G01 X56.2269 Y58.7499
G01 X56.2766 Y58.8169
G01 X56.3327 Y58.8787
G01 X56.3945 Y58.9347
G01 X56.4615 Y58.9844
G01 X56.5331 Y59.0273
G01 X56.6085 Y59.0630
G01 X56.6871 Y59.0911
G01 X56.7680 Y59.1114
G01 X56.8505 Y59.1236
G01 X56.9339 Y59.1277
G01 X57.0172 Y59.1236
G01 X57.0997 Y59.1114
G01 X57.1807 Y59.0911
G01 X57.2592 Y59.0630
G01 X57.3346 Y59.0273
G01 X57.4062 Y58.9844
G01 X57.4732 Y58.9347
G01 X57.5350 Y58.8787
G01 X57.5911 Y58.8169
G01 X57.6408 Y58.7499
G01 X57.6837 Y58.6783
G01 X57.7193 Y58.6029
G01 X57.7474 Y58.5243
G01 X57.7677 Y58.4434
G01 X57.7800 Y58.3608
G01 X57.7841 Y58.2775
G00 X57.7841 Y58.2775
G01 F250.00
G01 Z-0.7000
G01 F1250.00
G01 X57.7800 Y58.1942
G01 X57.7677 Y58.1116
G01 X57.7474 Y58.0307
G01 X57.7193 Y57.9522
G01 X57.6837 Y57.8767
G01 X57.6408 Y57.8052
G01 X57.5911 Y57.7382
G01 X57.5350 Y57.6763
G01 X57.4732 Y57.6203
G01 X57.4062 Y57.5706
G01 X57.3346 Y57.5277
G01 X57.2592 Y57.4920
G01 X57.1807 Y57.4639
G01 X57.0997 Y57.4436
G01 X57.0172 Y57.4314
G01 X56.9339 Y57.4273
G01 X56.8505 Y57.4314
G01 X56.7680 Y57.4436
G01 X56.6871 Y57.4639
G01 X56.6085 Y57.4920
G01 X56.5331 Y57.5277
G01 X56.4615 Y57.5706
G01 X56.3945 Y57.6203
G01 X56.3327 Y57.6763
G01 X56.2766 Y57.7382
G01 X56.2269 Y57.8052
G01 X56.1840 Y57.8767
G01 X56.1484 Y57.9522
G01 X56.1203 Y58.0307
G01 X56.1000 Y58.1116
G01 X56.0877 Y58.1942
G01 X56.0837 Y58.2775
G01 X56.0877 Y58.3608
G01 X56.1000 Y58.4434
G01 X56.1203 Y58.5243
G01 X56.1484 Y58.6029
G01 X56.1840 Y58.6783
G01 X56.2269 Y58.7499
G01 X56.2766 Y58.8169
G01 X56.3327 Y58.8787
G01 X56.3945 Y58.9347
G01 X56.4615 Y58.9844
G01 X56.5331 Y59.0273
G01 X56.6085 Y59.0630
G01 X56.6871 Y59.0911
G01 X56.7680 Y59.1114
G01 X56.8505 Y59.1236
G01 X56.9339 Y59.1277
G01 X57.0172 Y59.1236
G01 X57.0997 Y59.1114
G01 X57.1807 Y59.0911
G01 X57.2592 Y59.0630
G01 X57.3346 Y59.0273
G01 X57.4062 Y58.9844
G01 X57.4732 Y58.9347
G01 X57.5350 Y58.8787
G01 X57.5911 Y58.8169
G01 X57.6408 Y58.7499
G01 X57.6837 Y58.6783
G01 X57.7193 Y58.6029
G01 X57.7474 Y58.5243
G01 X57.7677 Y58.4434
G01 X57.7800 Y58.3608
G01 X57.7841 Y58.2775
G00 X57.7841 Y58.2775
G01 F250.00
G01 Z-0.8000
G01 F1250.00
G01 X57.7800 Y58.1942
G01 X57.7677 Y58.1116
G01 X57.7474 Y58.0307
G01 X57.7193 Y57.9522
G01 X57.6837 Y57.8767
G01 X57.6408 Y57.8052
G01 X57.5911 Y57.7382
G01 X57.5350 Y57.6763
G01 X57.4732 Y57.6203
G01 X57.4062 Y57.5706
G01 X57.3346 Y57.5277
G01 X57.2592 Y57.4920
G01 X57.1807 Y57.4639
G01 X57.0997 Y57.4436
G01 X57.0172 Y57.4314
G01 X56.9339 Y57.4273
G01 X56.8505 Y57.4314
G01 X56.7680 Y57.4436
G01 X56.6871 Y57.4639
G01 X56.6085 Y57.4920
G01 X56.5331 Y57.5277
G01 X56.4615 Y57.5706
G01 X56.3945 Y57.6203
G01 X56.3327 Y57.6763
G01 X56.2766 Y57.7382
G01 X56.2269 Y57.8052
G01 X56.1840 Y57.8767
G01 X56.1484 Y57.9522
G01 X56.1203 Y58.0307
G01 X56.1000 Y58.1116
G01 X56.0877 Y58.1942
G01 X56.0837 Y58.2775
G01 X56.0877 Y58.3608
G01 X56.1000 Y58.4434
G01 X56.1203 Y58.5243
G01 X56.1484 Y58.6029
G01 X56.1840 Y58.6783
G01 X56.2269 Y58.7499
G01 X56.2766 Y58.8169
G01 X56.3327 Y58.8787
G01 X56.3945 Y58.9347
G01 X56.4615 Y58.9844
G01 X56.5331 Y59.0273
G01 X56.6085 Y59.0630
G01 X56.6871 Y59.0911
G01 X56.7680 Y59.1114
G01 X56.8505 Y59.1236
G01 X56.9339 Y59.1277
G01 X57.0172 Y59.1236
G01 X57.0997 Y59.1114
G01 X57.1807 Y59.0911
G01 X57.2592 Y59.0630
G01 X57.3346 Y59.0273
G01 X57.4062 Y58.9844
G01 X57.4732 Y58.9347
G01 X57.5350 Y58.8787
G01 X57.5911 Y58.8169
G01 X57.6408 Y58.7499
G01 X57.6837 Y58.6783
G01 X57.7193 Y58.6029
G01 X57.7474 Y58.5243
G01 X57.7677 Y58.4434
G01 X57.7800 Y58.3608
G01 X57.7841 Y58.2775
G00 X57.7841 Y58.2775
G01 F250.00
G01 Z-0.9000
G01 F1250.00
G01 X57.7800 Y58.1942
G01 X57.7677 Y58.1116
G01 X57.7474 Y58.0307
G01 X57.7193 Y57.9522
G01 X57.6837 Y57.8767
G01 X57.6408 Y57.8052
G01 X57.5911 Y57.7382
G01 X57.5350 Y57.6763
G01 X57.4732 Y57.6203
G01 X57.4062 Y57.5706
G01 X57.3346 Y57.5277
G01 X57.2592 Y57.4920
G01 X57.1807 Y57.4639
G01 X57.0997 Y57.4436
G01 X57.0172 Y57.4314
G01 X56.9339 Y57.4273
G01 X56.8505 Y57.4314
G01 X56.7680 Y57.4436
G01 X56.6871 Y57.4639
G01 X56.6085 Y57.4920
G01 X56.5331 Y57.5277
G01 X56.4615 Y57.5706
G01 X56.3945 Y57.6203
G01 X56.3327 Y57.6763
G01 X56.2766 Y57.7382
G01 X56.2269 Y57.8052
G01 X56.1840 Y57.8767
G01 X56.1484 Y57.9522
G01 X56.1203 Y58.0307
G01 X56.1000 Y58.1116
G01 X56.0877 Y58.1942
G01 X56.0837 Y58.2775
G01 X56.0877 Y58.3608
G01 X56.1000 Y58.4434
G01 X56.1203 Y58.5243
G01 X56.1484 Y58.6029
G01 X56.1840 Y58.6783
G01 X56.2269 Y58.7499
G01 X56.2766 Y58.8169
G01 X56.3327 Y58.8787
G01 X56.3945 Y58.9347
G01 X56.4615 Y58.9844
G01 X56.5331 Y59.0273
G01 X56.6085 Y59.0630
G01 X56.6871 Y59.0911
G01 X56.7680 Y59.1114
G01 X56.8505 Y59.1236
G01 X56.9339 Y59.1277
G01 X57.0172 Y59.1236
G01 X57.0997 Y59.1114
G01 X57.1807 Y59.0911
G01 X57.2592 Y59.0630
G01 X57.3346 Y59.0273
G01 X57.4062 Y58.9844
G01 X57.4732 Y58.9347
G01 X57.5350 Y58.8787
G01 X57.5911 Y58.8169
G01 X57.6408 Y58.7499
G01 X57.6837 Y58.6783
G01 X57.7193 Y58.6029
G01 X57.7474 Y58.5243
G01 X57.7677 Y58.4434
G01 X57.7800 Y58.3608
G01 X57.7841 Y58.2775
G00 X57.7841 Y58.2775
G01 F250.00
G01 Z-1.0000
G01 F1250.00
G01 X57.7800 Y58.1942
G01 X57.7677 Y58.1116
G01 X57.7474 Y58.0307
G01 X57.7193 Y57.9522
G01 X57.6837 Y57.8767
G01 X57.6408 Y57.8052
G01 X57.5911 Y57.7382
G01 X57.5350 Y57.6763
G01 X57.4732 Y57.6203
G01 X57.4062 Y57.5706
G01 X57.3346 Y57.5277
G01 X57.2592 Y57.4920
G01 X57.1807 Y57.4639
G01 X57.0997 Y57.4436
G01 X57.0172 Y57.4314
G01 X56.9339 Y57.4273
G01 X56.8505 Y57.4314
G01 X56.7680 Y57.4436
G01 X56.6871 Y57.4639
G01 X56.6085 Y57.4920
G01 X56.5331 Y57.5277
G01 X56.4615 Y57.5706
G01 X56.3945 Y57.6203
G01 X56.3327 Y57.6763
G01 X56.2766 Y57.7382
G01 X56.2269 Y57.8052
G01 X56.1840 Y57.8767
G01 X56.1484 Y57.9522
G01 X56.1203 Y58.0307
G01 X56.1000 Y58.1116
G01 X56.0877 Y58.1942
G01 X56.0837 Y58.2775
G01 X56.0877 Y58.3608
G01 X56.1000 Y58.4434
G01 X56.1203 Y58.5243
G01 X56.1484 Y58.6029
G01 X56.1840 Y58.6783
G01 X56.2269 Y58.7499
G01 X56.2766 Y58.8169
G01 X56.3327 Y58.8787
G01 X56.3945 Y58.9347
G01 X56.4615 Y58.9844
G01 X56.5331 Y59.0273
G01 X56.6085 Y59.0630
G01 X56.6871 Y59.0911
G01 X56.7680 Y59.1114
G01 X56.8505 Y59.1236
G01 X56.9339 Y59.1277
G01 X57.0172 Y59.1236
G01 X57.0997 Y59.1114
G01 X57.1807 Y59.0911
G01 X57.2592 Y59.0630
G01 X57.3346 Y59.0273
G01 X57.4062 Y58.9844
G01 X57.4732 Y58.9347
G01 X57.5350 Y58.8787
G01 X57.5911 Y58.8169
G01 X57.6408 Y58.7499
G01 X57.6837 Y58.6783
G01 X57.7193 Y58.6029
G01 X57.7474 Y58.5243
G01 X57.7677 Y58.4434
G01 X57.7800 Y58.3608
G01 X57.7841 Y58.2775
G00 X57.7841 Y58.2775
G01 F250.00
G01 Z-1.1000
G01 F1250.00
G01 X57.7800 Y58.1942
G01 X57.7677 Y58.1116
G01 X57.7474 Y58.0307
G01 X57.7193 Y57.9522
G01 X57.6837 Y57.8767
G01 X57.6408 Y57.8052
G01 X57.5911 Y57.7382
G01 X57.5350 Y57.6763
G01 X57.4732 Y57.6203
G01 X57.4062 Y57.5706
G01 X57.3346 Y57.5277
G01 X57.2592 Y57.4920
G01 X57.1807 Y57.4639
G01 X57.0997 Y57.4436
G01 X57.0172 Y57.4314
G01 X56.9339 Y57.4273
G01 X56.8505 Y57.4314
G01 X56.7680 Y57.4436
G01 X56.6871 Y57.4639
G01 X56.6085 Y57.4920
G01 X56.5331 Y57.5277
G01 X56.4615 Y57.5706
G01 X56.3945 Y57.6203
G01 X56.3327 Y57.6763
G01 X56.2766 Y57.7382
G01 X56.2269 Y57.8052
G01 X56.1840 Y57.8767
G01 X56.1484 Y57.9522
G01 X56.1203 Y58.0307
G01 X56.1000 Y58.1116
G01 X56.0877 Y58.1942
G01 X56.0837 Y58.2775
G01 X56.0877 Y58.3608
G01 X56.1000 Y58.4434
G01 X56.1203 Y58.5243
G01 X56.1484 Y58.6029
G01 X56.1840 Y58.6783
G01 X56.2269 Y58.7499
G01 X56.2766 Y58.8169
G01 X56.3327 Y58.8787
G01 X56.3945 Y58.9347
G01 X56.4615 Y58.9844
G01 X56.5331 Y59.0273
G01 X56.6085 Y59.0630
G01 X56.6871 Y59.0911
G01 X56.7680 Y59.1114
G01 X56.8505 Y59.1236
G01 X56.9339 Y59.1277
G01 X57.0172 Y59.1236
G01 X57.0997 Y59.1114
G01 X57.1807 Y59.0911
G01 X57.2592 Y59.0630
G01 X57.3346 Y59.0273
G01 X57.4062 Y58.9844
G01 X57.4732 Y58.9347
G01 X57.5350 Y58.8787
G01 X57.5911 Y58.8169
G01 X57.6408 Y58.7499
G01 X57.6837 Y58.6783
G01 X57.7193 Y58.6029
G01 X57.7474 Y58.5243
G01 X57.7677 Y58.4434
G01 X57.7800 Y58.3608
G01 X57.7841 Y58.2775
G00 X57.7841 Y58.2775
G01 F250.00
G01 Z-1.2000
G01 F1250.00
G01 X57.7800 Y58.1942
G01 X57.7677 Y58.1116
G01 X57.7474 Y58.0307
G01 X57.7193 Y57.9522
G01 X57.6837 Y57.8767
G01 X57.6408 Y57.8052
G01 X57.5911 Y57.7382
G01 X57.5350 Y57.6763
G01 X57.4732 Y57.6203
G01 X57.4062 Y57.5706
G01 X57.3346 Y57.5277
G01 X57.2592 Y57.4920
G01 X57.1807 Y57.4639
G01 X57.0997 Y57.4436
G01 X57.0172 Y57.4314
G01 X56.9339 Y57.4273
G01 X56.8505 Y57.4314
G01 X56.7680 Y57.4436
G01 X56.6871 Y57.4639
G01 X56.6085 Y57.4920
G01 X56.5331 Y57.5277
G01 X56.4615 Y57.5706
G01 X56.3945 Y57.6203
G01 X56.3327 Y57.6763
G01 X56.2766 Y57.7382
G01 X56.2269 Y57.8052
G01 X56.1840 Y57.8767
G01 X56.1484 Y57.9522
G01 X56.1203 Y58.0307
G01 X56.1000 Y58.1116
G01 X56.0877 Y58.1942
G01 X56.0837 Y58.2775
G01 X56.0877 Y58.3608
G01 X56.1000 Y58.4434
G01 X56.1203 Y58.5243
G01 X56.1484 Y58.6029
G01 X56.1840 Y58.6783
G01 X56.2269 Y58.7499
G01 X56.2766 Y58.8169
G01 X56.3327 Y58.8787
G01 X56.3945 Y58.9347
G01 X56.4615 Y58.9844
G01 X56.5331 Y59.0273
G01 X56.6085 Y59.0630
G01 X56.6871 Y59.0911
G01 X56.7680 Y59.1114
G01 X56.8505 Y59.1236
G01 X56.9339 Y59.1277
G01 X57.0172 Y59.1236
G01 X57.0997 Y59.1114
G01 X57.1807 Y59.0911
G01 X57.2592 Y59.0630
G01 X57.3346 Y59.0273
G01 X57.4062 Y58.9844
G01 X57.4732 Y58.9347
G01 X57.5350 Y58.8787
G01 X57.5911 Y58.8169
G01 X57.6408 Y58.7499
G01 X57.6837 Y58.6783
G01 X57.7193 Y58.6029
G01 X57.7474 Y58.5243
G01 X57.7677 Y58.4434
G01 X57.7800 Y58.3608
G01 X57.7841 Y58.2775
G00 X57.7841 Y58.2775
G01 F250.00
G01 Z-1.3000
G01 F1250.00
G01 X57.7800 Y58.1942
G01 X57.7677 Y58.1116
G01 X57.7474 Y58.0307
G01 X57.7193 Y57.9522
G01 X57.6837 Y57.8767
G01 X57.6408 Y57.8052
G01 X57.5911 Y57.7382
G01 X57.5350 Y57.6763
G01 X57.4732 Y57.6203
G01 X57.4062 Y57.5706
G01 X57.3346 Y57.5277
G01 X57.2592 Y57.4920
G01 X57.1807 Y57.4639
G01 X57.0997 Y57.4436
G01 X57.0172 Y57.4314
G01 X56.9339 Y57.4273
G01 X56.8505 Y57.4314
G01 X56.7680 Y57.4436
G01 X56.6871 Y57.4639
G01 X56.6085 Y57.4920
G01 X56.5331 Y57.5277
G01 X56.4615 Y57.5706
G01 X56.3945 Y57.6203
G01 X56.3327 Y57.6763
G01 X56.2766 Y57.7382
G01 X56.2269 Y57.8052
G01 X56.1840 Y57.8767
G01 X56.1484 Y57.9522
G01 X56.1203 Y58.0307
G01 X56.1000 Y58.1116
G01 X56.0877 Y58.1942
G01 X56.0837 Y58.2775
G01 X56.0877 Y58.3608
G01 X56.1000 Y58.4434
G01 X56.1203 Y58.5243
G01 X56.1484 Y58.6029
G01 X56.1840 Y58.6783
G01 X56.2269 Y58.7499
G01 X56.2766 Y58.8169
G01 X56.3327 Y58.8787
G01 X56.3945 Y58.9347
G01 X56.4615 Y58.9844
G01 X56.5331 Y59.0273
G01 X56.6085 Y59.0630
G01 X56.6871 Y59.0911
G01 X56.7680 Y59.1114
G01 X56.8505 Y59.1236
G01 X56.9339 Y59.1277
G01 X57.0172 Y59.1236
G01 X57.0997 Y59.1114
G01 X57.1807 Y59.0911
G01 X57.2592 Y59.0630
G01 X57.3346 Y59.0273
G01 X57.4062 Y58.9844
G01 X57.4732 Y58.9347
G01 X57.5350 Y58.8787
G01 X57.5911 Y58.8169
G01 X57.6408 Y58.7499
G01 X57.6837 Y58.6783
G01 X57.7193 Y58.6029
G01 X57.7474 Y58.5243
G01 X57.7677 Y58.4434
G01 X57.7800 Y58.3608
G01 X57.7841 Y58.2775
G00 X57.7841 Y58.2775
G01 F250.00
G01 Z-1.4000
G01 F1250.00
G01 X57.7800 Y58.1942
G01 X57.7677 Y58.1116
G01 X57.7474 Y58.0307
G01 X57.7193 Y57.9522
G01 X57.6837 Y57.8767
G01 X57.6408 Y57.8052
G01 X57.5911 Y57.7382
G01 X57.5350 Y57.6763
G01 X57.4732 Y57.6203
G01 X57.4062 Y57.5706
G01 X57.3346 Y57.5277
G01 X57.2592 Y57.4920
G01 X57.1807 Y57.4639
G01 X57.0997 Y57.4436
G01 X57.0172 Y57.4314
G01 X56.9339 Y57.4273
G01 X56.8505 Y57.4314
G01 X56.7680 Y57.4436
G01 X56.6871 Y57.4639
G01 X56.6085 Y57.4920
G01 X56.5331 Y57.5277
G01 X56.4615 Y57.5706
G01 X56.3945 Y57.6203
G01 X56.3327 Y57.6763
G01 X56.2766 Y57.7382
G01 X56.2269 Y57.8052
G01 X56.1840 Y57.8767
G01 X56.1484 Y57.9522
G01 X56.1203 Y58.0307
G01 X56.1000 Y58.1116
G01 X56.0877 Y58.1942
G01 X56.0837 Y58.2775
G01 X56.0877 Y58.3608
G01 X56.1000 Y58.4434
G01 X56.1203 Y58.5243
G01 X56.1484 Y58.6029
G01 X56.1840 Y58.6783
G01 X56.2269 Y58.7499
G01 X56.2766 Y58.8169
G01 X56.3327 Y58.8787
G01 X56.3945 Y58.9347
G01 X56.4615 Y58.9844
G01 X56.5331 Y59.0273
G01 X56.6085 Y59.0630
G01 X56.6871 Y59.0911
G01 X56.7680 Y59.1114
G01 X56.8505 Y59.1236
G01 X56.9339 Y59.1277
G01 X57.0172 Y59.1236
G01 X57.0997 Y59.1114
G01 X57.1807 Y59.0911
G01 X57.2592 Y59.0630
G01 X57.3346 Y59.0273
G01 X57.4062 Y58.9844
G01 X57.4732 Y58.9347
G01 X57.5350 Y58.8787
G01 X57.5911 Y58.8169
G01 X57.6408 Y58.7499
G01 X57.6837 Y58.6783
G01 X57.7193 Y58.6029
G01 X57.7474 Y58.5243
G01 X57.7677 Y58.4434
G01 X57.7800 Y58.3608
G01 X57.7841 Y58.2775
G00 X57.7841 Y58.2775
G01 F250.00
G01 Z-1.5000
G01 F1250.00
G01 X57.7800 Y58.1942
G01 X57.7677 Y58.1116
G01 X57.7474 Y58.0307
G01 X57.7193 Y57.9522
G01 X57.6837 Y57.8767
G01 X57.6408 Y57.8052
G01 X57.5911 Y57.7382
G01 X57.5350 Y57.6763
G01 X57.4732 Y57.6203
G01 X57.4062 Y57.5706
G01 X57.3346 Y57.5277
G01 X57.2592 Y57.4920
G01 X57.1807 Y57.4639
G01 X57.0997 Y57.4436
G01 X57.0172 Y57.4314
G01 X56.9339 Y57.4273
G01 X56.8505 Y57.4314
G01 X56.7680 Y57.4436
G01 X56.6871 Y57.4639
G01 X56.6085 Y57.4920
G01 X56.5331 Y57.5277
G01 X56.4615 Y57.5706
G01 X56.3945 Y57.6203
G01 X56.3327 Y57.6763
G01 X56.2766 Y57.7382
G01 X56.2269 Y57.8052
G01 X56.1840 Y57.8767
G01 X56.1484 Y57.9522
G01 X56.1203 Y58.0307
G01 X56.1000 Y58.1116
G01 X56.0877 Y58.1942
G01 X56.0837 Y58.2775
G01 X56.0877 Y58.3608
G01 X56.1000 Y58.4434
G01 X56.1203 Y58.5243
G01 X56.1484 Y58.6029
G01 X56.1840 Y58.6783
G01 X56.2269 Y58.7499
G01 X56.2766 Y58.8169
G01 X56.3327 Y58.8787
G01 X56.3945 Y58.9347
G01 X56.4615 Y58.9844
G01 X56.5331 Y59.0273
G01 X56.6085 Y59.0630
G01 X56.6871 Y59.0911
G01 X56.7680 Y59.1114
G01 X56.8505 Y59.1236
G01 X56.9339 Y59.1277
G01 X57.0172 Y59.1236
G01 X57.0997 Y59.1114
G01 X57.1807 Y59.0911
G01 X57.2592 Y59.0630
G01 X57.3346 Y59.0273
G01 X57.4062 Y58.9844
G01 X57.4732 Y58.9347
G01 X57.5350 Y58.8787
G01 X57.5911 Y58.8169
G01 X57.6408 Y58.7499
G01 X57.6837 Y58.6783
G01 X57.7193 Y58.6029
G01 X57.7474 Y58.5243
G01 X57.7677 Y58.4434
G01 X57.7800 Y58.3608
G01 X57.7841 Y58.2775
G00 X57.7841 Y58.2775
G01 F250.00
G01 Z-1.6000
G01 F1250.00
G01 X57.7800 Y58.1942
G01 X57.7677 Y58.1116
G01 X57.7474 Y58.0307
G01 X57.7193 Y57.9522
G01 X57.6837 Y57.8767
G01 X57.6408 Y57.8052
G01 X57.5911 Y57.7382
G01 X57.5350 Y57.6763
G01 X57.4732 Y57.6203
G01 X57.4062 Y57.5706
G01 X57.3346 Y57.5277
G01 X57.2592 Y57.4920
G01 X57.1807 Y57.4639
G01 X57.0997 Y57.4436
G01 X57.0172 Y57.4314
G01 X56.9339 Y57.4273
G01 X56.8505 Y57.4314
G01 X56.7680 Y57.4436
G01 X56.6871 Y57.4639
G01 X56.6085 Y57.4920
G01 X56.5331 Y57.5277
G01 X56.4615 Y57.5706
G01 X56.3945 Y57.6203
G01 X56.3327 Y57.6763
G01 X56.2766 Y57.7382
G01 X56.2269 Y57.8052
G01 X56.1840 Y57.8767
G01 X56.1484 Y57.9522
G01 X56.1203 Y58.0307
G01 X56.1000 Y58.1116
G01 X56.0877 Y58.1942
G01 X56.0837 Y58.2775
G01 X56.0877 Y58.3608
G01 X56.1000 Y58.4434
G01 X56.1203 Y58.5243
G01 X56.1484 Y58.6029
G01 X56.1840 Y58.6783
G01 X56.2269 Y58.7499
G01 X56.2766 Y58.8169
G01 X56.3327 Y58.8787
G01 X56.3945 Y58.9347
G01 X56.4615 Y58.9844
G01 X56.5331 Y59.0273
G01 X56.6085 Y59.0630
G01 X56.6871 Y59.0911
G01 X56.7680 Y59.1114
G01 X56.8505 Y59.1236
G01 X56.9339 Y59.1277
G01 X57.0172 Y59.1236
G01 X57.0997 Y59.1114
G01 X57.1807 Y59.0911
G01 X57.2592 Y59.0630
G01 X57.3346 Y59.0273
G01 X57.4062 Y58.9844
G01 X57.4732 Y58.9347
G01 X57.5350 Y58.8787
G01 X57.5911 Y58.8169
G01 X57.6408 Y58.7499
G01 X57.6837 Y58.6783
G01 X57.7193 Y58.6029
G01 X57.7474 Y58.5243
G01 X57.7677 Y58.4434
G01 X57.7800 Y58.3608
G01 X57.7841 Y58.2775
G00 X57.7841 Y58.2775
G01 F250.00
G01 Z-1.7000
G01 F1250.00
G01 X57.7800 Y58.1942
G01 X57.7677 Y58.1116
G01 X57.7474 Y58.0307
G01 X57.7193 Y57.9522
G01 X57.6837 Y57.8767
G01 X57.6408 Y57.8052
G01 X57.5911 Y57.7382
G01 X57.5350 Y57.6763
G01 X57.4732 Y57.6203
G01 X57.4062 Y57.5706
G01 X57.3346 Y57.5277
G01 X57.2592 Y57.4920
G01 X57.1807 Y57.4639
G01 X57.0997 Y57.4436
G01 X57.0172 Y57.4314
G01 X56.9339 Y57.4273
G01 X56.8505 Y57.4314
G01 X56.7680 Y57.4436
G01 X56.6871 Y57.4639
G01 X56.6085 Y57.4920
G01 X56.5331 Y57.5277
G01 X56.4615 Y57.5706
G01 X56.3945 Y57.6203
G01 X56.3327 Y57.6763
G01 X56.2766 Y57.7382
G01 X56.2269 Y57.8052
G01 X56.1840 Y57.8767
G01 X56.1484 Y57.9522
G01 X56.1203 Y58.0307
G01 X56.1000 Y58.1116
G01 X56.0877 Y58.1942
G01 X56.0837 Y58.2775
G01 X56.0877 Y58.3608
G01 X56.1000 Y58.4434
G01 X56.1203 Y58.5243
G01 X56.1484 Y58.6029
G01 X56.1840 Y58.6783
G01 X56.2269 Y58.7499
G01 X56.2766 Y58.8169
G01 X56.3327 Y58.8787
G01 X56.3945 Y58.9347
G01 X56.4615 Y58.9844
G01 X56.5331 Y59.0273
G01 X56.6085 Y59.0630
G01 X56.6871 Y59.0911
G01 X56.7680 Y59.1114
G01 X56.8505 Y59.1236
G01 X56.9339 Y59.1277
G01 X57.0172 Y59.1236
G01 X57.0997 Y59.1114
G01 X57.1807 Y59.0911
G01 X57.2592 Y59.0630
G01 X57.3346 Y59.0273
G01 X57.4062 Y58.9844
G01 X57.4732 Y58.9347
G01 X57.5350 Y58.8787
G01 X57.5911 Y58.8169
G01 X57.6408 Y58.7499
G01 X57.6837 Y58.6783
G01 X57.7193 Y58.6029
G01 X57.7474 Y58.5243
G01 X57.7677 Y58.4434
G01 X57.7800 Y58.3608
G01 X57.7841 Y58.2775
G00 Z0.5000
G00 X57.7841 Y73.7715
G01 F250.00
G01 Z-0.1000
G01 F1250.00
G01 X57.7800 Y73.6882
G01 X57.7677 Y73.6056
G01 X57.7474 Y73.5247
G01 X57.7193 Y73.4462
G01 X57.6837 Y73.3707
G01 X57.6408 Y73.2992
G01 X57.5911 Y73.2322
G01 X57.5350 Y73.1703
G01 X57.4732 Y73.1143
G01 X57.4062 Y73.0646
G01 X57.3346 Y73.0217
G01 X57.2592 Y72.9860
G01 X57.1807 Y72.9579
G01 X57.0997 Y72.9376
G01 X57.0172 Y72.9254
G01 X56.9339 Y72.9213
G01 X56.8505 Y72.9254
G01 X56.7680 Y72.9376
G01 X56.6871 Y72.9579
G01 X56.6085 Y72.9860
G01 X56.5331 Y73.0217
G01 X56.4615 Y73.0646
G01 X56.3945 Y73.1143
G01 X56.3327 Y73.1703
G01 X56.2766 Y73.2322
G01 X56.2269 Y73.2992
G01 X56.1840 Y73.3707
G01 X56.1484 Y73.4462
G01 X56.1203 Y73.5247
G01 X56.1000 Y73.6056
G01 X56.0877 Y73.6882
G01 X56.0837 Y73.7715
G01 X56.0877 Y73.8548
G01 X56.1000 Y73.9374
G01 X56.1203 Y74.0183
G01 X56.1484 Y74.0969
G01 X56.1840 Y74.1723
G01 X56.2269 Y74.2439
G01 X56.2766 Y74.3109
G01 X56.3327 Y74.3727
G01 X56.3945 Y74.4287
G01 X56.4615 Y74.4784
G01 X56.5331 Y74.5213
G01 X56.6085 Y74.5570
G01 X56.6871 Y74.5851
G01 X56.7680 Y74.6054
G01 X56.8505 Y74.6176
G01 X56.9339 Y74.6217
G01 X57.0172 Y74.6176
G01 X57.0997 Y74.6054
G01 X57.1807 Y74.5851
G01 X57.2592 Y74.5570
G01 X57.3346 Y74.5213
G01 X57.4062 Y74.4784
G01 X57.4732 Y74.4287
G01 X57.5350 Y74.3727
G01 X57.5911 Y74.3109
G01 X57.6408 Y74.2439
G01 X57.6837 Y74.1723
G01 X57.7193 Y74.0969
G01 X57.7474 Y74.0183
G01 X57.7677 Y73.9374
G01 X57.7800 Y73.8548
G01 X57.7841 Y73.7715
G00 X57.7841 Y73.7715
G01 F250.00
G01 Z-0.2000
G01 F1250.00
G01 X57.7800 Y73.6882
G01 X57.7677 Y73.6056
G01 X57.7474 Y73.5247
G01 X57.7193 Y73.4462
G01 X57.6837 Y73.3707
G01 X57.6408 Y73.2992
G01 X57.5911 Y73.2322
G01 X57.5350 Y73.1703
G01 X57.4732 Y73.1143
G01 X57.4062 Y73.0646
G01 X57.3346 Y73.0217
G01 X57.2592 Y72.9860
G01 X57.1807 Y72.9579
G01 X57.0997 Y72.9376
G01 X57.0172 Y72.9254
G01 X56.9339 Y72.9213
G01 X56.8505 Y72.9254
G01 X56.7680 Y72.9376
G01 X56.6871 Y72.9579
G01 X56.6085 Y72.9860
G01 X56.5331 Y73.0217
G01 X56.4615 Y73.0646
G01 X56.3945 Y73.1143
G01 X56.3327 Y73.1703
G01 X56.2766 Y73.2322
G01 X56.2269 Y73.2992
G01 X56.1840 Y73.3707
G01 X56.1484 Y73.4462
G01 X56.1203 Y73.5247
G01 X56.1000 Y73.6056
G01 X56.0877 Y73.6882
G01 X56.0837 Y73.7715
G01 X56.0877 Y73.8548
G01 X56.1000 Y73.9374
G01 X56.1203 Y74.0183
G01 X56.1484 Y74.0969
G01 X56.1840 Y74.1723
G01 X56.2269 Y74.2439
G01 X56.2766 Y74.3109
G01 X56.3327 Y74.3727
G01 X56.3945 Y74.4287
G01 X56.4615 Y74.4784
G01 X56.5331 Y74.5213
G01 X56.6085 Y74.5570
G01 X56.6871 Y74.5851
G01 X56.7680 Y74.6054
G01 X56.8505 Y74.6176
G01 X56.9339 Y74.6217
G01 X57.0172 Y74.6176
G01 X57.0997 Y74.6054
G01 X57.1807 Y74.5851
G01 X57.2592 Y74.5570
G01 X57.3346 Y74.5213
G01 X57.4062 Y74.4784
G01 X57.4732 Y74.4287
G01 X57.5350 Y74.3727
G01 X57.5911 Y74.3109
G01 X57.6408 Y74.2439
G01 X57.6837 Y74.1723
G01 X57.7193 Y74.0969
G01 X57.7474 Y74.0183
G01 X57.7677 Y73.9374
G01 X57.7800 Y73.8548
G01 X57.7841 Y73.7715
G00 X57.7841 Y73.7715
G01 F250.00
G01 Z-0.3000
G01 F1250.00
G01 X57.7800 Y73.6882
G01 X57.7677 Y73.6056
G01 X57.7474 Y73.5247
G01 X57.7193 Y73.4462
G01 X57.6837 Y73.3707
G01 X57.6408 Y73.2992
G01 X57.5911 Y73.2322
G01 X57.5350 Y73.1703
G01 X57.4732 Y73.1143
G01 X57.4062 Y73.0646
G01 X57.3346 Y73.0217
G01 X57.2592 Y72.9860
G01 X57.1807 Y72.9579
G01 X57.0997 Y72.9376
G01 X57.0172 Y72.9254
G01 X56.9339 Y72.9213
G01 X56.8505 Y72.9254
G01 X56.7680 Y72.9376
G01 X56.6871 Y72.9579
G01 X56.6085 Y72.9860
G01 X56.5331 Y73.0217
G01 X56.4615 Y73.0646
G01 X56.3945 Y73.1143
G01 X56.3327 Y73.1703
G01 X56.2766 Y73.2322
G01 X56.2269 Y73.2992
G01 X56.1840 Y73.3707
G01 X56.1484 Y73.4462
G01 X56.1203 Y73.5247
G01 X56.1000 Y73.6056
G01 X56.0877 Y73.6882
G01 X56.0837 Y73.7715
G01 X56.0877 Y73.8548
G01 X56.1000 Y73.9374
G01 X56.1203 Y74.0183
G01 X56.1484 Y74.0969
G01 X56.1840 Y74.1723
G01 X56.2269 Y74.2439
G01 X56.2766 Y74.3109
G01 X56.3327 Y74.3727
G01 X56.3945 Y74.4287
G01 X56.4615 Y74.4784
G01 X56.5331 Y74.5213
G01 X56.6085 Y74.5570
G01 X56.6871 Y74.5851
G01 X56.7680 Y74.6054
G01 X56.8505 Y74.6176
G01 X56.9339 Y74.6217
G01 X57.0172 Y74.6176
G01 X57.0997 Y74.6054
G01 X57.1807 Y74.5851
G01 X57.2592 Y74.5570
G01 X57.3346 Y74.5213
G01 X57.4062 Y74.4784
G01 X57.4732 Y74.4287
G01 X57.5350 Y74.3727
G01 X57.5911 Y74.3109
G01 X57.6408 Y74.2439
G01 X57.6837 Y74.1723
G01 X57.7193 Y74.0969
G01 X57.7474 Y74.0183
G01 X57.7677 Y73.9374
G01 X57.7800 Y73.8548
G01 X57.7841 Y73.7715
G00 X57.7841 Y73.7715
G01 F250.00
G01 Z-0.4000
G01 F1250.00
G01 X57.7800 Y73.6882
G01 X57.7677 Y73.6056
G01 X57.7474 Y73.5247
G01 X57.7193 Y73.4462
G01 X57.6837 Y73.3707
G01 X57.6408 Y73.2992
G01 X57.5911 Y73.2322
G01 X57.5350 Y73.1703
G01 X57.4732 Y73.1143
G01 X57.4062 Y73.0646
G01 X57.3346 Y73.0217
G01 X57.2592 Y72.9860
G01 X57.1807 Y72.9579
G01 X57.0997 Y72.9376
G01 X57.0172 Y72.9254
G01 X56.9339 Y72.9213
G01 X56.8505 Y72.9254
G01 X56.7680 Y72.9376
G01 X56.6871 Y72.9579
G01 X56.6085 Y72.9860
G01 X56.5331 Y73.0217
G01 X56.4615 Y73.0646
G01 X56.3945 Y73.1143
G01 X56.3327 Y73.1703
G01 X56.2766 Y73.2322
G01 X56.2269 Y73.2992
G01 X56.1840 Y73.3707
G01 X56.1484 Y73.4462
G01 X56.1203 Y73.5247
G01 X56.1000 Y73.6056
G01 X56.0877 Y73.6882
G01 X56.0837 Y73.7715
G01 X56.0877 Y73.8548
G01 X56.1000 Y73.9374
G01 X56.1203 Y74.0183
G01 X56.1484 Y74.0969
G01 X56.1840 Y74.1723
G01 X56.2269 Y74.2439
G01 X56.2766 Y74.3109
G01 X56.3327 Y74.3727
G01 X56.3945 Y74.4287
G01 X56.4615 Y74.4784
G01 X56.5331 Y74.5213
G01 X56.6085 Y74.5570
G01 X56.6871 Y74.5851
G01 X56.7680 Y74.6054
G01 X56.8505 Y74.6176
G01 X56.9339 Y74.6217
G01 X57.0172 Y74.6176
G01 X57.0997 Y74.6054
G01 X57.1807 Y74.5851
G01 X57.2592 Y74.5570
G01 X57.3346 Y74.5213
G01 X57.4062 Y74.4784
G01 X57.4732 Y74.4287
G01 X57.5350 Y74.3727
G01 X57.5911 Y74.3109
G01 X57.6408 Y74.2439
G01 X57.6837 Y74.1723
G01 X57.7193 Y74.0969
G01 X57.7474 Y74.0183
G01 X57.7677 Y73.9374
G01 X57.7800 Y73.8548
G01 X57.7841 Y73.7715
G00 X57.7841 Y73.7715
G01 F250.00
G01 Z-0.5000
G01 F1250.00
G01 X57.7800 Y73.6882
G01 X57.7677 Y73.6056
G01 X57.7474 Y73.5247
G01 X57.7193 Y73.4462
G01 X57.6837 Y73.3707
G01 X57.6408 Y73.2992
G01 X57.5911 Y73.2322
G01 X57.5350 Y73.1703
G01 X57.4732 Y73.1143
G01 X57.4062 Y73.0646
G01 X57.3346 Y73.0217
G01 X57.2592 Y72.9860
G01 X57.1807 Y72.9579
G01 X57.0997 Y72.9376
G01 X57.0172 Y72.9254
G01 X56.9339 Y72.9213
G01 X56.8505 Y72.9254
G01 X56.7680 Y72.9376
G01 X56.6871 Y72.9579
G01 X56.6085 Y72.9860
G01 X56.5331 Y73.0217
G01 X56.4615 Y73.0646
G01 X56.3945 Y73.1143
G01 X56.3327 Y73.1703
G01 X56.2766 Y73.2322
G01 X56.2269 Y73.2992
G01 X56.1840 Y73.3707
G01 X56.1484 Y73.4462
G01 X56.1203 Y73.5247
G01 X56.1000 Y73.6056
G01 X56.0877 Y73.6882
G01 X56.0837 Y73.7715
G01 X56.0877 Y73.8548
G01 X56.1000 Y73.9374
G01 X56.1203 Y74.0183
G01 X56.1484 Y74.0969
G01 X56.1840 Y74.1723
G01 X56.2269 Y74.2439
G01 X56.2766 Y74.3109
G01 X56.3327 Y74.3727
G01 X56.3945 Y74.4287
G01 X56.4615 Y74.4784
G01 X56.5331 Y74.5213
G01 X56.6085 Y74.5570
G01 X56.6871 Y74.5851
G01 X56.7680 Y74.6054
G01 X56.8505 Y74.6176
G01 X56.9339 Y74.6217
G01 X57.0172 Y74.6176
G01 X57.0997 Y74.6054
G01 X57.1807 Y74.5851
G01 X57.2592 Y74.5570
G01 X57.3346 Y74.5213
G01 X57.4062 Y74.4784
G01 X57.4732 Y74.4287
G01 X57.5350 Y74.3727
G01 X57.5911 Y74.3109
G01 X57.6408 Y74.2439
G01 X57.6837 Y74.1723
G01 X57.7193 Y74.0969
G01 X57.7474 Y74.0183
G01 X57.7677 Y73.9374
G01 X57.7800 Y73.8548
G01 X57.7841 Y73.7715
G00 X57.7841 Y73.7715
G01 F250.00
G01 Z-0.6000
G01 F1250.00
G01 X57.7800 Y73.6882
G01 X57.7677 Y73.6056
G01 X57.7474 Y73.5247
G01 X57.7193 Y73.4462
G01 X57.6837 Y73.3707
G01 X57.6408 Y73.2992
G01 X57.5911 Y73.2322
G01 X57.5350 Y73.1703
G01 X57.4732 Y73.1143
G01 X57.4062 Y73.0646
G01 X57.3346 Y73.0217
G01 X57.2592 Y72.9860
G01 X57.1807 Y72.9579
G01 X57.0997 Y72.9376
G01 X57.0172 Y72.9254
G01 X56.9339 Y72.9213
G01 X56.8505 Y72.9254
G01 X56.7680 Y72.9376
G01 X56.6871 Y72.9579
G01 X56.6085 Y72.9860
G01 X56.5331 Y73.0217
G01 X56.4615 Y73.0646
G01 X56.3945 Y73.1143
G01 X56.3327 Y73.1703
G01 X56.2766 Y73.2322
G01 X56.2269 Y73.2992
G01 X56.1840 Y73.3707
G01 X56.1484 Y73.4462
G01 X56.1203 Y73.5247
G01 X56.1000 Y73.6056
G01 X56.0877 Y73.6882
G01 X56.0837 Y73.7715
G01 X56.0877 Y73.8548
G01 X56.1000 Y73.9374
G01 X56.1203 Y74.0183
G01 X56.1484 Y74.0969
G01 X56.1840 Y74.1723
G01 X56.2269 Y74.2439
G01 X56.2766 Y74.3109
G01 X56.3327 Y74.3727
G01 X56.3945 Y74.4287
G01 X56.4615 Y74.4784
G01 X56.5331 Y74.5213
G01 X56.6085 Y74.5570
G01 X56.6871 Y74.5851
G01 X56.7680 Y74.6054
G01 X56.8505 Y74.6176
G01 X56.9339 Y74.6217
G01 X57.0172 Y74.6176
G01 X57.0997 Y74.6054
G01 X57.1807 Y74.5851
G01 X57.2592 Y74.5570
G01 X57.3346 Y74.5213
G01 X57.4062 Y74.4784
G01 X57.4732 Y74.4287
G01 X57.5350 Y74.3727
G01 X57.5911 Y74.3109
G01 X57.6408 Y74.2439
G01 X57.6837 Y74.1723
G01 X57.7193 Y74.0969
G01 X57.7474 Y74.0183
G01 X57.7677 Y73.9374
G01 X57.7800 Y73.8548
G01 X57.7841 Y73.7715
G00 X57.7841 Y73.7715
G01 F250.00
G01 Z-0.7000
G01 F1250.00
G01 X57.7800 Y73.6882
G01 X57.7677 Y73.6056
G01 X57.7474 Y73.5247
G01 X57.7193 Y73.4462
G01 X57.6837 Y73.3707
G01 X57.6408 Y73.2992
G01 X57.5911 Y73.2322
G01 X57.5350 Y73.1703
G01 X57.4732 Y73.1143
G01 X57.4062 Y73.0646
G01 X57.3346 Y73.0217
G01 X57.2592 Y72.9860
G01 X57.1807 Y72.9579
G01 X57.0997 Y72.9376
G01 X57.0172 Y72.9254
G01 X56.9339 Y72.9213
G01 X56.8505 Y72.9254
G01 X56.7680 Y72.9376
G01 X56.6871 Y72.9579
G01 X56.6085 Y72.9860
G01 X56.5331 Y73.0217
G01 X56.4615 Y73.0646
G01 X56.3945 Y73.1143
G01 X56.3327 Y73.1703
G01 X56.2766 Y73.2322
G01 X56.2269 Y73.2992
G01 X56.1840 Y73.3707
G01 X56.1484 Y73.4462
G01 X56.1203 Y73.5247
G01 X56.1000 Y73.6056
G01 X56.0877 Y73.6882
G01 X56.0837 Y73.7715
G01 X56.0877 Y73.8548
G01 X56.1000 Y73.9374
G01 X56.1203 Y74.0183
G01 X56.1484 Y74.0969
G01 X56.1840 Y74.1723
G01 X56.2269 Y74.2439
G01 X56.2766 Y74.3109
G01 X56.3327 Y74.3727
G01 X56.3945 Y74.4287
G01 X56.4615 Y74.4784
G01 X56.5331 Y74.5213
G01 X56.6085 Y74.5570
G01 X56.6871 Y74.5851
G01 X56.7680 Y74.6054
G01 X56.8505 Y74.6176
G01 X56.9339 Y74.6217
G01 X57.0172 Y74.6176
G01 X57.0997 Y74.6054
G01 X57.1807 Y74.5851
G01 X57.2592 Y74.5570
G01 X57.3346 Y74.5213
G01 X57.4062 Y74.4784
G01 X57.4732 Y74.4287
G01 X57.5350 Y74.3727
G01 X57.5911 Y74.3109
G01 X57.6408 Y74.2439
G01 X57.6837 Y74.1723
G01 X57.7193 Y74.0969
G01 X57.7474 Y74.0183
G01 X57.7677 Y73.9374
G01 X57.7800 Y73.8548
G01 X57.7841 Y73.7715
G00 X57.7841 Y73.7715
G01 F250.00
G01 Z-0.8000
G01 F1250.00
G01 X57.7800 Y73.6882
G01 X57.7677 Y73.6056
G01 X57.7474 Y73.5247
G01 X57.7193 Y73.4462
G01 X57.6837 Y73.3707
G01 X57.6408 Y73.2992
G01 X57.5911 Y73.2322
G01 X57.5350 Y73.1703
G01 X57.4732 Y73.1143
G01 X57.4062 Y73.0646
G01 X57.3346 Y73.0217
G01 X57.2592 Y72.9860
G01 X57.1807 Y72.9579
G01 X57.0997 Y72.9376
G01 X57.0172 Y72.9254
G01 X56.9339 Y72.9213
G01 X56.8505 Y72.9254
G01 X56.7680 Y72.9376
G01 X56.6871 Y72.9579
G01 X56.6085 Y72.9860
G01 X56.5331 Y73.0217
G01 X56.4615 Y73.0646
G01 X56.3945 Y73.1143
G01 X56.3327 Y73.1703
G01 X56.2766 Y73.2322
G01 X56.2269 Y73.2992
G01 X56.1840 Y73.3707
G01 X56.1484 Y73.4462
G01 X56.1203 Y73.5247
G01 X56.1000 Y73.6056
G01 X56.0877 Y73.6882
G01 X56.0837 Y73.7715
G01 X56.0877 Y73.8548
G01 X56.1000 Y73.9374
G01 X56.1203 Y74.0183
G01 X56.1484 Y74.0969
G01 X56.1840 Y74.1723
G01 X56.2269 Y74.2439
G01 X56.2766 Y74.3109
G01 X56.3327 Y74.3727
G01 X56.3945 Y74.4287
G01 X56.4615 Y74.4784
G01 X56.5331 Y74.5213
G01 X56.6085 Y74.5570
G01 X56.6871 Y74.5851
G01 X56.7680 Y74.6054
G01 X56.8505 Y74.6176
G01 X56.9339 Y74.6217
G01 X57.0172 Y74.6176
G01 X57.0997 Y74.6054
G01 X57.1807 Y74.5851
G01 X57.2592 Y74.5570
G01 X57.3346 Y74.5213
G01 X57.4062 Y74.4784
G01 X57.4732 Y74.4287
G01 X57.5350 Y74.3727
G01 X57.5911 Y74.3109
G01 X57.6408 Y74.2439
G01 X57.6837 Y74.1723
G01 X57.7193 Y74.0969
G01 X57.7474 Y74.0183
G01 X57.7677 Y73.9374
G01 X57.7800 Y73.8548
G01 X57.7841 Y73.7715
G00 X57.7841 Y73.7715
G01 F250.00
G01 Z-0.9000
G01 F1250.00
G01 X57.7800 Y73.6882
G01 X57.7677 Y73.6056
G01 X57.7474 Y73.5247
G01 X57.7193 Y73.4462
G01 X57.6837 Y73.3707
G01 X57.6408 Y73.2992
G01 X57.5911 Y73.2322
G01 X57.5350 Y73.1703
G01 X57.4732 Y73.1143
G01 X57.4062 Y73.0646
G01 X57.3346 Y73.0217
G01 X57.2592 Y72.9860
G01 X57.1807 Y72.9579
G01 X57.0997 Y72.9376
G01 X57.0172 Y72.9254
G01 X56.9339 Y72.9213
G01 X56.8505 Y72.9254
G01 X56.7680 Y72.9376
G01 X56.6871 Y72.9579
G01 X56.6085 Y72.9860
G01 X56.5331 Y73.0217
G01 X56.4615 Y73.0646
G01 X56.3945 Y73.1143
G01 X56.3327 Y73.1703
G01 X56.2766 Y73.2322
G01 X56.2269 Y73.2992
G01 X56.1840 Y73.3707
G01 X56.1484 Y73.4462
G01 X56.1203 Y73.5247
G01 X56.1000 Y73.6056
G01 X56.0877 Y73.6882
G01 X56.0837 Y73.7715
G01 X56.0877 Y73.8548
G01 X56.1000 Y73.9374
G01 X56.1203 Y74.0183
G01 X56.1484 Y74.0969
G01 X56.1840 Y74.1723
G01 X56.2269 Y74.2439
G01 X56.2766 Y74.3109
G01 X56.3327 Y74.3727
G01 X56.3945 Y74.4287
G01 X56.4615 Y74.4784
G01 X56.5331 Y74.5213
G01 X56.6085 Y74.5570
G01 X56.6871 Y74.5851
G01 X56.7680 Y74.6054
G01 X56.8505 Y74.6176
G01 X56.9339 Y74.6217
G01 X57.0172 Y74.6176
G01 X57.0997 Y74.6054
G01 X57.1807 Y74.5851
G01 X57.2592 Y74.5570
G01 X57.3346 Y74.5213
G01 X57.4062 Y74.4784
G01 X57.4732 Y74.4287
G01 X57.5350 Y74.3727
G01 X57.5911 Y74.3109
G01 X57.6408 Y74.2439
G01 X57.6837 Y74.1723
G01 X57.7193 Y74.0969
G01 X57.7474 Y74.0183
G01 X57.7677 Y73.9374
G01 X57.7800 Y73.8548
G01 X57.7841 Y73.7715
G00 X57.7841 Y73.7715
G01 F250.00
G01 Z-1.0000
G01 F1250.00
G01 X57.7800 Y73.6882
G01 X57.7677 Y73.6056
G01 X57.7474 Y73.5247
G01 X57.7193 Y73.4462
G01 X57.6837 Y73.3707
G01 X57.6408 Y73.2992
G01 X57.5911 Y73.2322
G01 X57.5350 Y73.1703
G01 X57.4732 Y73.1143
G01 X57.4062 Y73.0646
G01 X57.3346 Y73.0217
G01 X57.2592 Y72.9860
G01 X57.1807 Y72.9579
G01 X57.0997 Y72.9376
G01 X57.0172 Y72.9254
G01 X56.9339 Y72.9213
G01 X56.8505 Y72.9254
G01 X56.7680 Y72.9376
G01 X56.6871 Y72.9579
G01 X56.6085 Y72.9860
G01 X56.5331 Y73.0217
G01 X56.4615 Y73.0646
G01 X56.3945 Y73.1143
G01 X56.3327 Y73.1703
G01 X56.2766 Y73.2322
G01 X56.2269 Y73.2992
G01 X56.1840 Y73.3707
G01 X56.1484 Y73.4462
G01 X56.1203 Y73.5247
G01 X56.1000 Y73.6056
G01 X56.0877 Y73.6882
G01 X56.0837 Y73.7715
G01 X56.0877 Y73.8548
G01 X56.1000 Y73.9374
G01 X56.1203 Y74.0183
G01 X56.1484 Y74.0969
G01 X56.1840 Y74.1723
G01 X56.2269 Y74.2439
G01 X56.2766 Y74.3109
G01 X56.3327 Y74.3727
G01 X56.3945 Y74.4287
G01 X56.4615 Y74.4784
G01 X56.5331 Y74.5213
G01 X56.6085 Y74.5570
G01 X56.6871 Y74.5851
G01 X56.7680 Y74.6054
G01 X56.8505 Y74.6176
G01 X56.9339 Y74.6217
G01 X57.0172 Y74.6176
G01 X57.0997 Y74.6054
G01 X57.1807 Y74.5851
G01 X57.2592 Y74.5570
G01 X57.3346 Y74.5213
G01 X57.4062 Y74.4784
G01 X57.4732 Y74.4287
G01 X57.5350 Y74.3727
G01 X57.5911 Y74.3109
G01 X57.6408 Y74.2439
G01 X57.6837 Y74.1723
G01 X57.7193 Y74.0969
G01 X57.7474 Y74.0183
G01 X57.7677 Y73.9374
G01 X57.7800 Y73.8548
G01 X57.7841 Y73.7715
G00 X57.7841 Y73.7715
G01 F250.00
G01 Z-1.1000
G01 F1250.00
G01 X57.7800 Y73.6882
G01 X57.7677 Y73.6056
G01 X57.7474 Y73.5247
G01 X57.7193 Y73.4462
G01 X57.6837 Y73.3707
G01 X57.6408 Y73.2992
G01 X57.5911 Y73.2322
G01 X57.5350 Y73.1703
G01 X57.4732 Y73.1143
G01 X57.4062 Y73.0646
G01 X57.3346 Y73.0217
G01 X57.2592 Y72.9860
G01 X57.1807 Y72.9579
G01 X57.0997 Y72.9376
G01 X57.0172 Y72.9254
G01 X56.9339 Y72.9213
G01 X56.8505 Y72.9254
G01 X56.7680 Y72.9376
G01 X56.6871 Y72.9579
G01 X56.6085 Y72.9860
G01 X56.5331 Y73.0217
G01 X56.4615 Y73.0646
G01 X56.3945 Y73.1143
G01 X56.3327 Y73.1703
G01 X56.2766 Y73.2322
G01 X56.2269 Y73.2992
G01 X56.1840 Y73.3707
G01 X56.1484 Y73.4462
G01 X56.1203 Y73.5247
G01 X56.1000 Y73.6056
G01 X56.0877 Y73.6882
G01 X56.0837 Y73.7715
G01 X56.0877 Y73.8548
G01 X56.1000 Y73.9374
G01 X56.1203 Y74.0183
G01 X56.1484 Y74.0969
G01 X56.1840 Y74.1723
G01 X56.2269 Y74.2439
G01 X56.2766 Y74.3109
G01 X56.3327 Y74.3727
G01 X56.3945 Y74.4287
G01 X56.4615 Y74.4784
G01 X56.5331 Y74.5213
G01 X56.6085 Y74.5570
G01 X56.6871 Y74.5851
G01 X56.7680 Y74.6054
G01 X56.8505 Y74.6176
G01 X56.9339 Y74.6217
G01 X57.0172 Y74.6176
G01 X57.0997 Y74.6054
G01 X57.1807 Y74.5851
G01 X57.2592 Y74.5570
G01 X57.3346 Y74.5213
G01 X57.4062 Y74.4784
G01 X57.4732 Y74.4287
G01 X57.5350 Y74.3727
G01 X57.5911 Y74.3109
G01 X57.6408 Y74.2439
G01 X57.6837 Y74.1723
G01 X57.7193 Y74.0969
G01 X57.7474 Y74.0183
G01 X57.7677 Y73.9374
G01 X57.7800 Y73.8548
G01 X57.7841 Y73.7715
G00 X57.7841 Y73.7715
G01 F250.00
G01 Z-1.2000
G01 F1250.00
G01 X57.7800 Y73.6882
G01 X57.7677 Y73.6056
G01 X57.7474 Y73.5247
G01 X57.7193 Y73.4462
G01 X57.6837 Y73.3707
G01 X57.6408 Y73.2992
G01 X57.5911 Y73.2322
G01 X57.5350 Y73.1703
G01 X57.4732 Y73.1143
G01 X57.4062 Y73.0646
G01 X57.3346 Y73.0217
G01 X57.2592 Y72.9860
G01 X57.1807 Y72.9579
G01 X57.0997 Y72.9376
G01 X57.0172 Y72.9254
G01 X56.9339 Y72.9213
G01 X56.8505 Y72.9254
G01 X56.7680 Y72.9376
G01 X56.6871 Y72.9579
G01 X56.6085 Y72.9860
G01 X56.5331 Y73.0217
G01 X56.4615 Y73.0646
G01 X56.3945 Y73.1143
G01 X56.3327 Y73.1703
G01 X56.2766 Y73.2322
G01 X56.2269 Y73.2992
G01 X56.1840 Y73.3707
G01 X56.1484 Y73.4462
G01 X56.1203 Y73.5247
G01 X56.1000 Y73.6056
G01 X56.0877 Y73.6882
G01 X56.0837 Y73.7715
G01 X56.0877 Y73.8548
G01 X56.1000 Y73.9374
G01 X56.1203 Y74.0183
G01 X56.1484 Y74.0969
G01 X56.1840 Y74.1723
G01 X56.2269 Y74.2439
G01 X56.2766 Y74.3109
G01 X56.3327 Y74.3727
G01 X56.3945 Y74.4287
G01 X56.4615 Y74.4784
G01 X56.5331 Y74.5213
G01 X56.6085 Y74.5570
G01 X56.6871 Y74.5851
G01 X56.7680 Y74.6054
G01 X56.8505 Y74.6176
G01 X56.9339 Y74.6217
G01 X57.0172 Y74.6176
G01 X57.0997 Y74.6054
G01 X57.1807 Y74.5851
G01 X57.2592 Y74.5570
G01 X57.3346 Y74.5213
G01 X57.4062 Y74.4784
G01 X57.4732 Y74.4287
G01 X57.5350 Y74.3727
G01 X57.5911 Y74.3109
G01 X57.6408 Y74.2439
G01 X57.6837 Y74.1723
G01 X57.7193 Y74.0969
G01 X57.7474 Y74.0183
G01 X57.7677 Y73.9374
G01 X57.7800 Y73.8548
G01 X57.7841 Y73.7715
G00 X57.7841 Y73.7715
G01 F250.00
G01 Z-1.3000
G01 F1250.00
G01 X57.7800 Y73.6882
G01 X57.7677 Y73.6056
G01 X57.7474 Y73.5247
G01 X57.7193 Y73.4462
G01 X57.6837 Y73.3707
G01 X57.6408 Y73.2992
G01 X57.5911 Y73.2322
G01 X57.5350 Y73.1703
G01 X57.4732 Y73.1143
G01 X57.4062 Y73.0646
G01 X57.3346 Y73.0217
G01 X57.2592 Y72.9860
G01 X57.1807 Y72.9579
G01 X57.0997 Y72.9376
G01 X57.0172 Y72.9254
G01 X56.9339 Y72.9213
G01 X56.8505 Y72.9254
G01 X56.7680 Y72.9376
G01 X56.6871 Y72.9579
G01 X56.6085 Y72.9860
G01 X56.5331 Y73.0217
G01 X56.4615 Y73.0646
G01 X56.3945 Y73.1143
G01 X56.3327 Y73.1703
G01 X56.2766 Y73.2322
G01 X56.2269 Y73.2992
G01 X56.1840 Y73.3707
G01 X56.1484 Y73.4462
G01 X56.1203 Y73.5247
G01 X56.1000 Y73.6056
G01 X56.0877 Y73.6882
G01 X56.0837 Y73.7715
G01 X56.0877 Y73.8548
G01 X56.1000 Y73.9374
G01 X56.1203 Y74.0183
G01 X56.1484 Y74.0969
G01 X56.1840 Y74.1723
G01 X56.2269 Y74.2439
G01 X56.2766 Y74.3109
G01 X56.3327 Y74.3727
G01 X56.3945 Y74.4287
G01 X56.4615 Y74.4784
G01 X56.5331 Y74.5213
G01 X56.6085 Y74.5570
G01 X56.6871 Y74.5851
G01 X56.7680 Y74.6054
G01 X56.8505 Y74.6176
G01 X56.9339 Y74.6217
G01 X57.0172 Y74.6176
G01 X57.0997 Y74.6054
G01 X57.1807 Y74.5851
G01 X57.2592 Y74.5570
G01 X57.3346 Y74.5213
G01 X57.4062 Y74.4784
G01 X57.4732 Y74.4287
G01 X57.5350 Y74.3727
G01 X57.5911 Y74.3109
G01 X57.6408 Y74.2439
G01 X57.6837 Y74.1723
G01 X57.7193 Y74.0969
G01 X57.7474 Y74.0183
G01 X57.7677 Y73.9374
G01 X57.7800 Y73.8548
G01 X57.7841 Y73.7715
G00 X57.7841 Y73.7715
G01 F250.00
G01 Z-1.4000
G01 F1250.00
G01 X57.7800 Y73.6882
G01 X57.7677 Y73.6056
G01 X57.7474 Y73.5247
G01 X57.7193 Y73.4462
G01 X57.6837 Y73.3707
G01 X57.6408 Y73.2992
G01 X57.5911 Y73.2322
G01 X57.5350 Y73.1703
G01 X57.4732 Y73.1143
G01 X57.4062 Y73.0646
G01 X57.3346 Y73.0217
G01 X57.2592 Y72.9860
G01 X57.1807 Y72.9579
G01 X57.0997 Y72.9376
G01 X57.0172 Y72.9254
G01 X56.9339 Y72.9213
G01 X56.8505 Y72.9254
G01 X56.7680 Y72.9376
G01 X56.6871 Y72.9579
G01 X56.6085 Y72.9860
G01 X56.5331 Y73.0217
G01 X56.4615 Y73.0646
G01 X56.3945 Y73.1143
G01 X56.3327 Y73.1703
G01 X56.2766 Y73.2322
G01 X56.2269 Y73.2992
G01 X56.1840 Y73.3707
G01 X56.1484 Y73.4462
G01 X56.1203 Y73.5247
G01 X56.1000 Y73.6056
G01 X56.0877 Y73.6882
G01 X56.0837 Y73.7715
G01 X56.0877 Y73.8548
G01 X56.1000 Y73.9374
G01 X56.1203 Y74.0183
G01 X56.1484 Y74.0969
G01 X56.1840 Y74.1723
G01 X56.2269 Y74.2439
G01 X56.2766 Y74.3109
G01 X56.3327 Y74.3727
G01 X56.3945 Y74.4287
G01 X56.4615 Y74.4784
G01 X56.5331 Y74.5213
G01 X56.6085 Y74.5570
G01 X56.6871 Y74.5851
G01 X56.7680 Y74.6054
G01 X56.8505 Y74.6176
G01 X56.9339 Y74.6217
G01 X57.0172 Y74.6176
G01 X57.0997 Y74.6054
G01 X57.1807 Y74.5851
G01 X57.2592 Y74.5570
G01 X57.3346 Y74.5213
G01 X57.4062 Y74.4784
G01 X57.4732 Y74.4287
G01 X57.5350 Y74.3727
G01 X57.5911 Y74.3109
G01 X57.6408 Y74.2439
G01 X57.6837 Y74.1723
G01 X57.7193 Y74.0969
G01 X57.7474 Y74.0183
G01 X57.7677 Y73.9374
G01 X57.7800 Y73.8548
G01 X57.7841 Y73.7715
G00 X57.7841 Y73.7715
G01 F250.00
G01 Z-1.5000
G01 F1250.00
G01 X57.7800 Y73.6882
G01 X57.7677 Y73.6056
G01 X57.7474 Y73.5247
G01 X57.7193 Y73.4462
G01 X57.6837 Y73.3707
G01 X57.6408 Y73.2992
G01 X57.5911 Y73.2322
G01 X57.5350 Y73.1703
G01 X57.4732 Y73.1143
G01 X57.4062 Y73.0646
G01 X57.3346 Y73.0217
G01 X57.2592 Y72.9860
G01 X57.1807 Y72.9579
G01 X57.0997 Y72.9376
G01 X57.0172 Y72.9254
G01 X56.9339 Y72.9213
G01 X56.8505 Y72.9254
G01 X56.7680 Y72.9376
G01 X56.6871 Y72.9579
G01 X56.6085 Y72.9860
G01 X56.5331 Y73.0217
G01 X56.4615 Y73.0646
G01 X56.3945 Y73.1143
G01 X56.3327 Y73.1703
G01 X56.2766 Y73.2322
G01 X56.2269 Y73.2992
G01 X56.1840 Y73.3707
G01 X56.1484 Y73.4462
G01 X56.1203 Y73.5247
G01 X56.1000 Y73.6056
G01 X56.0877 Y73.6882
G01 X56.0837 Y73.7715
G01 X56.0877 Y73.8548
G01 X56.1000 Y73.9374
G01 X56.1203 Y74.0183
G01 X56.1484 Y74.0969
G01 X56.1840 Y74.1723
G01 X56.2269 Y74.2439
G01 X56.2766 Y74.3109
G01 X56.3327 Y74.3727
G01 X56.3945 Y74.4287
G01 X56.4615 Y74.4784
G01 X56.5331 Y74.5213
G01 X56.6085 Y74.5570
G01 X56.6871 Y74.5851
G01 X56.7680 Y74.6054
G01 X56.8505 Y74.6176
G01 X56.9339 Y74.6217
G01 X57.0172 Y74.6176
G01 X57.0997 Y74.6054
G01 X57.1807 Y74.5851
G01 X57.2592 Y74.5570
G01 X57.3346 Y74.5213
G01 X57.4062 Y74.4784
G01 X57.4732 Y74.4287
G01 X57.5350 Y74.3727
G01 X57.5911 Y74.3109
G01 X57.6408 Y74.2439
G01 X57.6837 Y74.1723
G01 X57.7193 Y74.0969
G01 X57.7474 Y74.0183
G01 X57.7677 Y73.9374
G01 X57.7800 Y73.8548
G01 X57.7841 Y73.7715
G00 X57.7841 Y73.7715
G01 F250.00
G01 Z-1.6000
G01 F1250.00
G01 X57.7800 Y73.6882
G01 X57.7677 Y73.6056
G01 X57.7474 Y73.5247
G01 X57.7193 Y73.4462
G01 X57.6837 Y73.3707
G01 X57.6408 Y73.2992
G01 X57.5911 Y73.2322
G01 X57.5350 Y73.1703
G01 X57.4732 Y73.1143
G01 X57.4062 Y73.0646
G01 X57.3346 Y73.0217
G01 X57.2592 Y72.9860
G01 X57.1807 Y72.9579
G01 X57.0997 Y72.9376
G01 X57.0172 Y72.9254
G01 X56.9339 Y72.9213
G01 X56.8505 Y72.9254
G01 X56.7680 Y72.9376
G01 X56.6871 Y72.9579
G01 X56.6085 Y72.9860
G01 X56.5331 Y73.0217
G01 X56.4615 Y73.0646
G01 X56.3945 Y73.1143
G01 X56.3327 Y73.1703
G01 X56.2766 Y73.2322
G01 X56.2269 Y73.2992
G01 X56.1840 Y73.3707
G01 X56.1484 Y73.4462
G01 X56.1203 Y73.5247
G01 X56.1000 Y73.6056
G01 X56.0877 Y73.6882
G01 X56.0837 Y73.7715
G01 X56.0877 Y73.8548
G01 X56.1000 Y73.9374
G01 X56.1203 Y74.0183
G01 X56.1484 Y74.0969
G01 X56.1840 Y74.1723
G01 X56.2269 Y74.2439
G01 X56.2766 Y74.3109
G01 X56.3327 Y74.3727
G01 X56.3945 Y74.4287
G01 X56.4615 Y74.4784
G01 X56.5331 Y74.5213
G01 X56.6085 Y74.5570
G01 X56.6871 Y74.5851
G01 X56.7680 Y74.6054
G01 X56.8505 Y74.6176
G01 X56.9339 Y74.6217
G01 X57.0172 Y74.6176
G01 X57.0997 Y74.6054
G01 X57.1807 Y74.5851
G01 X57.2592 Y74.5570
G01 X57.3346 Y74.5213
G01 X57.4062 Y74.4784
G01 X57.4732 Y74.4287
G01 X57.5350 Y74.3727
G01 X57.5911 Y74.3109
G01 X57.6408 Y74.2439
G01 X57.6837 Y74.1723
G01 X57.7193 Y74.0969
G01 X57.7474 Y74.0183
G01 X57.7677 Y73.9374
G01 X57.7800 Y73.8548
G01 X57.7841 Y73.7715
G00 X57.7841 Y73.7715
G01 F250.00
G01 Z-1.7000
G01 F1250.00
G01 X57.7800 Y73.6882
G01 X57.7677 Y73.6056
G01 X57.7474 Y73.5247
G01 X57.7193 Y73.4462
G01 X57.6837 Y73.3707
G01 X57.6408 Y73.2992
G01 X57.5911 Y73.2322
G01 X57.5350 Y73.1703
G01 X57.4732 Y73.1143
G01 X57.4062 Y73.0646
G01 X57.3346 Y73.0217
G01 X57.2592 Y72.9860
G01 X57.1807 Y72.9579
G01 X57.0997 Y72.9376
G01 X57.0172 Y72.9254
G01 X56.9339 Y72.9213
G01 X56.8505 Y72.9254
G01 X56.7680 Y72.9376
G01 X56.6871 Y72.9579
G01 X56.6085 Y72.9860
G01 X56.5331 Y73.0217
G01 X56.4615 Y73.0646
G01 X56.3945 Y73.1143
G01 X56.3327 Y73.1703
G01 X56.2766 Y73.2322
G01 X56.2269 Y73.2992
G01 X56.1840 Y73.3707
G01 X56.1484 Y73.4462
G01 X56.1203 Y73.5247
G01 X56.1000 Y73.6056
G01 X56.0877 Y73.6882
G01 X56.0837 Y73.7715
G01 X56.0877 Y73.8548
G01 X56.1000 Y73.9374
G01 X56.1203 Y74.0183
G01 X56.1484 Y74.0969
G01 X56.1840 Y74.1723
G01 X56.2269 Y74.2439
G01 X56.2766 Y74.3109
G01 X56.3327 Y74.3727
G01 X56.3945 Y74.4287
G01 X56.4615 Y74.4784
G01 X56.5331 Y74.5213
G01 X56.6085 Y74.5570
G01 X56.6871 Y74.5851
G01 X56.7680 Y74.6054
G01 X56.8505 Y74.6176
G01 X56.9339 Y74.6217
G01 X57.0172 Y74.6176
G01 X57.0997 Y74.6054
G01 X57.1807 Y74.5851
G01 X57.2592 Y74.5570
G01 X57.3346 Y74.5213
G01 X57.4062 Y74.4784
G01 X57.4732 Y74.4287
G01 X57.5350 Y74.3727
G01 X57.5911 Y74.3109
G01 X57.6408 Y74.2439
G01 X57.6837 Y74.1723
G01 X57.7193 Y74.0969
G01 X57.7474 Y74.0183
G01 X57.7677 Y73.9374
G01 X57.7800 Y73.8548
G01 X57.7841 Y73.7715
G00 Z0.5000
G00 X108.2742 Y74.5056
G01 F250.00
G01 Z-0.1000
G01 F1250.00
G01 X108.2722 Y74.4663
G01 X108.2665 Y74.4274
G01 X108.2569 Y74.3893
G01 X108.2437 Y74.3523
G01 X108.2269 Y74.3167
G01 X108.2067 Y74.2830
G01 X108.1832 Y74.2514
G01 X108.1568 Y74.2223
G01 X108.1277 Y74.1959
G01 X108.0961 Y74.1725
G01 X108.0624 Y74.1523
G01 X108.0269 Y74.1354
G01 X107.9898 Y74.1222
G01 X107.9517 Y74.1127
G01 X107.9128 Y74.1069
G01 X107.8736 Y74.1050
G01 X107.8343 Y74.1069
G01 X107.7954 Y74.1127
G01 X107.7573 Y74.1222
G01 X107.7202 Y74.1354
G01 X107.6847 Y74.1523
G01 X107.6510 Y74.1725
G01 X107.6194 Y74.1959
G01 X107.5903 Y74.2223
G01 X107.5639 Y74.2514
G01 X107.5405 Y74.2830
G01 X107.5202 Y74.3167
G01 X107.5034 Y74.3523
G01 X107.4902 Y74.3893
G01 X107.4806 Y74.4274
G01 X107.4749 Y74.4663
G01 X107.4729 Y74.5056
G01 X107.4749 Y74.5448
G01 X107.4806 Y74.5837
G01 X107.4902 Y74.6219
G01 X107.5034 Y74.6589
G01 X107.5202 Y74.6944
G01 X107.5405 Y74.7281
G01 X107.5639 Y74.7597
G01 X107.5903 Y74.7889
G01 X107.6194 Y74.8153
G01 X107.6510 Y74.8387
G01 X107.6847 Y74.8589
G01 X107.7202 Y74.8757
G01 X107.7573 Y74.8889
G01 X107.7954 Y74.8985
G01 X107.8343 Y74.9043
G01 X107.8736 Y74.9062
G01 X107.9128 Y74.9043
G01 X107.9517 Y74.8985
G01 X107.9898 Y74.8889
G01 X108.0269 Y74.8757
G01 X108.0624 Y74.8589
G01 X108.0961 Y74.8387
G01 X108.1277 Y74.8153
G01 X108.1568 Y74.7889
G01 X108.1832 Y74.7597
G01 X108.2067 Y74.7281
G01 X108.2269 Y74.6944
G01 X108.2437 Y74.6589
G01 X108.2569 Y74.6219
G01 X108.2665 Y74.5837
G01 X108.2722 Y74.5448
G01 X108.2742 Y74.5056
G00 X108.2742 Y74.5056
G01 F250.00
G01 Z-0.2000
G01 F1250.00
G01 X108.2722 Y74.4663
G01 X108.2665 Y74.4274
G01 X108.2569 Y74.3893
