(G-CODE GENERATED BY FLATCAM v8.991 - www.flatcam.org - Version Date: 2019/12/30)

(Name: Cncjob_Board_Edge)
(Type: G-code from Geometry)
(Units: MM)

(Created on Monday, 13 November 2023 at 17:34)

(TOOL DIAMETER: 1.5 mm)
(Feedrate: 2500.0 mm/min)
(Feedrate_Z: 250.0 mm/min)
(Feedrate rapids 1500.0 mm/min)

(Z_Cut: -1.7 mm)
(Z_Move: 0.5 mm)
(Z Toolchange: 15.0 mm)
(X,Y Toolchange: 0.0000, 0.0000 mm)
(Z Start: 0.5 mm)
(Z End: 15.0 mm)
(Steps per circle: 64)
(Preprocessor Geometry: default)

(X range:    1.2500 ...  112.8819  mm)
(Y range:    1.2500 ...  129.8745  mm)

(Spindle Speed: None RPM)
G21
G90
G94




G01 F2500.00
G00 Z0.5000
G00 Z0.5000
M03
G4 P1.0
G00 X1.2500 Y117.7034
G01 F250.00
G01 Z-0.1000
G01 F2500.00
G01 X1.2504 Y117.7283
G01 X1.2517 Y117.7536
G01 X1.2536 Y117.7775
G01 X1.2565 Y117.8023
G01 X1.2602 Y117.8274
G01 X1.2645 Y117.8509
G01 X1.2698 Y117.8753
G01 X1.2760 Y117.8999
G01 X1.2826 Y117.9229
G01 X1.2903 Y117.9471
G01 X1.2988 Y117.9705
G01 X1.3076 Y117.9928
G01 X1.3177 Y118.0161
G01 X1.3284 Y118.0386
G01 X1.3393 Y118.0599
G01 X1.3516 Y118.0821
G01 X1.3645 Y118.1034
G01 X1.3775 Y118.1236
G01 X1.3919 Y118.1444
G01 X1.4068 Y118.1644
G01 X1.4217 Y118.1832
G01 X1.4381 Y118.2025
G01 X1.4549 Y118.2210
G01 X1.4715 Y118.2382
G01 X1.4898 Y118.2558
G01 X1.5083 Y118.2725
G01 X1.5265 Y118.2880
G01 X1.5464 Y118.3038
G01 X1.5664 Y118.3186
G01 X1.5861 Y118.3322
G01 X1.6075 Y118.3460
G01 X1.6289 Y118.3588
G01 X21.4565 Y129.7781
G01 X21.4750 Y129.7881
G01 X21.5029 Y129.8020
G01 X21.5146 Y129.8074
G01 X21.5424 Y129.8193
G01 X21.5595 Y129.8260
G01 X21.5836 Y129.8346
G01 X21.6125 Y129.8437
G01 X21.6425 Y129.8519
G01 X21.6550 Y129.8549
G01 X21.6846 Y129.8611
G01 X21.7028 Y129.8644
G01 X21.7281 Y129.8681
G01 X21.7524 Y129.8709
G01 X21.7765 Y129.8728
G01 X21.8020 Y129.8741
G01 X21.8323 Y129.8744
G01 X21.8507 Y129.8741
G01 X21.8762 Y129.8728
G01 X21.9003 Y129.8708
G01 X21.9247 Y129.8680
G01 X21.9500 Y129.8642
G01 X21.9737 Y129.8599
G01 X21.9977 Y129.8547
G01 X22.0225 Y129.8485
G01 X22.0457 Y129.8418
G01 X22.0691 Y129.8343
G01 X22.0932 Y129.8257
G01 X22.1156 Y129.8168
G01 X22.1381 Y129.8071
G01 X22.1612 Y129.7961
G01 X22.1830 Y129.7849
G01 X22.2041 Y129.7731
G01 X112.5037 Y77.6396
G01 X112.5303 Y77.6235
G01 X112.5560 Y77.6065
G01 X112.5861 Y77.5845
G01 X112.6148 Y77.5614
G01 X112.6424 Y77.5368
G01 X112.6691 Y77.5105
G01 X112.6900 Y77.4881
G01 X112.6983 Y77.4785
G01 X112.7102 Y77.4644
G01 X112.7256 Y77.4451
G01 X112.7440 Y77.4200
G01 X112.7544 Y77.4048
G01 X112.7678 Y77.3840
G01 X112.7804 Y77.3630
G01 X112.7926 Y77.3412
G01 X112.8039 Y77.3191
G01 X112.8118 Y77.3025
G01 X112.8170 Y77.2910
G01 X112.8289 Y77.2627
G01 X112.8418 Y77.2275
G01 X112.8528 Y77.1922
G01 X112.8606 Y77.1625
G01 X112.8635 Y77.1502
G01 X112.8673 Y77.1322
G01 X112.8718 Y77.1078
G01 X112.8762 Y77.0770
G01 X112.8782 Y77.0587
G01 X112.8803 Y77.0341
G01 X112.8812 Y77.0157
G01 X112.8818 Y76.9938
G01 X112.8819 Y54.1399
G01 X112.8809 Y54.1024
G01 X112.8782 Y54.0657
G01 X112.8762 Y54.0474
G01 X112.8736 Y54.0286
G01 X112.8673 Y53.9923
G01 X112.8591 Y53.9558
G01 X112.8493 Y53.9203
G01 X112.8437 Y53.9027
G01 X112.8375 Y53.8848
G01 X112.8243 Y53.8504
G01 X112.8091 Y53.8162
G01 X112.8010 Y53.7996
G01 X112.7837 Y53.7672
G01 X112.7741 Y53.7507
G01 X112.7544 Y53.7196
G01 X112.7332 Y53.6895
G01 X112.7217 Y53.6744
G01 X112.6983 Y53.6459
G01 X112.6857 Y53.6317
G01 X112.6603 Y53.6050
G01 X112.6337 Y53.5796
G01 X112.6194 Y53.5670
G01 X112.5910 Y53.5437
G01 X112.5758 Y53.5322
G01 X112.5457 Y53.5110
G01 X112.5141 Y53.4910
G01 X112.4821 Y53.4728
G01 X112.4492 Y53.4563
G01 X112.4319 Y53.4483
G01 X112.3979 Y53.4342
G01 X112.3800 Y53.4276
G01 X112.3451 Y53.4161
G01 X112.3096 Y53.4062
G01 X112.2911 Y53.4018
G01 X112.2550 Y53.3947
G01 X112.2362 Y53.3916
G01 X112.1997 Y53.3871
G01 X112.1629 Y53.3844
G01 X112.1439 Y53.3837
G01 X112.1071 Y53.3837
G01 X112.0881 Y53.3844
G01 X112.0514 Y53.3871
G01 X112.0148 Y53.3916
G01 X111.9961 Y53.3947
G01 X111.9599 Y53.4018
G01 X111.9414 Y53.4062
G01 X111.9060 Y53.4161
G01 X111.8710 Y53.4276
G01 X111.8532 Y53.4342
G01 X111.8192 Y53.4483
G01 X111.8019 Y53.4563
G01 X111.7690 Y53.4728
G01 X111.7369 Y53.4910
G01 X111.7207 Y53.5009
G01 X111.6901 Y53.5214
G01 X111.6747 Y53.5325
G01 X111.6457 Y53.5552
G01 X111.6178 Y53.5792
G01 X111.5907 Y53.6050
G01 X111.5653 Y53.6317
G01 X111.5527 Y53.6459
G01 X111.5293 Y53.6744
G01 X111.5178 Y53.6895
G01 X111.4966 Y53.7196
G01 X111.4769 Y53.7507
G01 X111.4673 Y53.7672
G01 X111.4500 Y53.7996
G01 X111.4417 Y53.8168
G01 X111.4267 Y53.8504
G01 X111.4135 Y53.8848
G01 X111.4073 Y53.9027
G01 X111.3966 Y53.9380
G01 X111.3918 Y53.9564
G01 X111.3837 Y53.9923
G01 X111.3774 Y54.0286
G01 X111.3748 Y54.0474
G01 X111.3712 Y54.0841
G01 X111.3697 Y54.1122
G01 X111.3692 Y54.1399
G01 X111.3692 Y76.5479
G01 X21.8255 Y128.2450
G01 X2.7627 Y117.2661
G01 X2.7627 Y13.8708
G01 X22.2038 Y2.6616
G01 X22.2274 Y2.6474
G01 X22.2511 Y2.6319
G01 X22.2810 Y2.6105
G01 X22.3103 Y2.5873
G01 X22.3380 Y2.5630
G01 X22.3650 Y2.5370
G01 X22.3901 Y2.5101
G01 X22.4144 Y2.4816
G01 X22.4368 Y2.4524
G01 X22.4581 Y2.4216
G01 X22.4776 Y2.3904
G01 X22.4958 Y2.3577
G01 X22.5121 Y2.3247
G01 X22.5270 Y2.2903
G01 X22.5400 Y2.2559
G01 X22.5515 Y2.2203
G01 X22.5610 Y2.1847
G01 X22.5652 Y2.1662
G01 X22.5722 Y2.1300
G01 X22.5774 Y2.0929
G01 X22.5807 Y2.0563
G01 X22.5822 Y2.0189
G01 X22.5819 Y1.9820
G01 X22.5798 Y1.9447
G01 X22.5759 Y1.9081
G01 X22.5701 Y1.8711
G01 X22.5627 Y1.8350
G01 X22.5535 Y1.7994
G01 X22.5423 Y1.7636
G01 X22.5297 Y1.7291
G01 X22.5151 Y1.6946
G01 X22.4991 Y1.6614
G01 X22.4812 Y1.6286
G01 X22.4621 Y1.5971
G01 X22.4516 Y1.5812
G01 X22.4301 Y1.5513
G01 X22.4069 Y1.5220
G01 X22.3826 Y1.4943
G01 X22.3566 Y1.4674
G01 X22.3298 Y1.4422
G01 X22.3012 Y1.4180
G01 X22.2720 Y1.3955
G01 X22.2413 Y1.3742
G01 X22.2100 Y1.3547
G01 X22.1773 Y1.3365
G01 X22.1443 Y1.3202
G01 X22.1100 Y1.3053
G01 X22.0755 Y1.2923
G01 X22.0399 Y1.2809
G01 X22.0043 Y1.2713
G01 X21.9858 Y1.2671
G01 X21.9496 Y1.2602
G01 X21.9125 Y1.2550
G01 X21.8759 Y1.2516
G01 X21.8391 Y1.2501
G01 X21.8017 Y1.2504
G01 X21.7649 Y1.2525
G01 X21.7277 Y1.2564
G01 X21.6913 Y1.2621
G01 X21.6547 Y1.2697
G01 X21.6190 Y1.2789
G01 X21.5833 Y1.2900
G01 X21.5487 Y1.3027
G01 X21.5142 Y1.3172
G01 X21.4811 Y1.3332
G01 X21.4482 Y1.3511
G01 X1.6206 Y12.7832
G01 X1.6016 Y12.7949
G01 X1.5861 Y12.8049
G01 X1.5662 Y12.8188
G01 X1.5513 Y12.8297
G01 X1.5409 Y12.8376
G01 X1.5171 Y12.8570
G01 X1.4943 Y12.8772
G01 X1.4847 Y12.8861
G01 X1.4715 Y12.8990
G01 X1.4546 Y12.9165
G01 X1.4377 Y12.9351
G01 X1.4217 Y12.9540
G01 X1.4066 Y12.9730
G01 X1.3955 Y12.9878
G01 X1.3775 Y13.0136
G01 X1.3643 Y13.0340
G01 X1.3548 Y13.0498
G01 X1.3393 Y13.0773
G01 X1.3282 Y13.0989
G01 X1.3202 Y13.1155
G01 X1.3148 Y13.1274
G01 X1.3031 Y13.1555
G01 X1.2901 Y13.1907
G01 X1.2791 Y13.2260
G01 X1.2713 Y13.2555
G01 X1.2683 Y13.2682
G01 X1.2645 Y13.2863
G01 X1.2602 Y13.3102
G01 X1.2557 Y13.3414
G01 X1.2526 Y13.3717
G01 X1.2507 Y13.4023
G01 X1.2500 Y13.4338
G01 X1.2500 Y117.7034
G00 X1.2500 Y117.7034
G01 F250.00
G01 Z-0.2000
G01 F2500.00
G01 X1.2504 Y117.7283
G01 X1.2517 Y117.7536
G01 X1.2536 Y117.7775
G01 X1.2565 Y117.8023
G01 X1.2602 Y117.8274
G01 X1.2645 Y117.8509
G01 X1.2698 Y117.8753
G01 X1.2760 Y117.8999
G01 X1.2826 Y117.9229
G01 X1.2903 Y117.9471
G01 X1.2988 Y117.9705
G01 X1.3076 Y117.9928
G01 X1.3177 Y118.0161
G01 X1.3284 Y118.0386
G01 X1.3393 Y118.0599
G01 X1.3516 Y118.0821
G01 X1.3645 Y118.1034
G01 X1.3775 Y118.1236
G01 X1.3919 Y118.1444
G01 X1.4068 Y118.1644
G01 X1.4217 Y118.1832
G01 X1.4381 Y118.2025
G01 X1.4549 Y118.2210
G01 X1.4715 Y118.2382
G01 X1.4898 Y118.2558
G01 X1.5083 Y118.2725
G01 X1.5265 Y118.2880
G01 X1.5464 Y118.3038
G01 X1.5664 Y118.3186
G01 X1.5861 Y118.3322
G01 X1.6075 Y118.3460
G01 X1.6289 Y118.3588
G01 X21.4565 Y129.7781
G01 X21.4750 Y129.7881
G01 X21.5029 Y129.8020
G01 X21.5146 Y129.8074
G01 X21.5424 Y129.8193
G01 X21.5595 Y129.8260
G01 X21.5836 Y129.8346
G01 X21.6125 Y129.8437
G01 X21.6425 Y129.8519
G01 X21.6550 Y129.8549
G01 X21.6846 Y129.8611
G01 X21.7028 Y129.8644
G01 X21.7281 Y129.8681
G01 X21.7524 Y129.8709
G01 X21.7765 Y129.8728
G01 X21.8020 Y129.8741
G01 X21.8323 Y129.8744
G01 X21.8507 Y129.8741
G01 X21.8762 Y129.8728
G01 X21.9003 Y129.8708
G01 X21.9247 Y129.8680
G01 X21.9500 Y129.8642
G01 X21.9737 Y129.8599
G01 X21.9977 Y129.8547
G01 X22.0225 Y129.8485
G01 X22.0457 Y129.8418
G01 X22.0691 Y129.8343
G01 X22.0932 Y129.8257
G01 X22.1156 Y129.8168
G01 X22.1381 Y129.8071
G01 X22.1612 Y129.7961
G01 X22.1830 Y129.7849
G01 X22.2041 Y129.7731
G01 X112.5037 Y77.6396
G01 X112.5303 Y77.6235
G01 X112.5560 Y77.6065
G01 X112.5861 Y77.5845
G01 X112.6148 Y77.5614
G01 X112.6424 Y77.5368
G01 X112.6691 Y77.5105
G01 X112.6900 Y77.4881
G01 X112.6983 Y77.4785
G01 X112.7102 Y77.4644
G01 X112.7256 Y77.4451
G01 X112.7440 Y77.4200
G01 X112.7544 Y77.4048
G01 X112.7678 Y77.3840
G01 X112.7804 Y77.3630
G01 X112.7926 Y77.3412
G01 X112.8039 Y77.3191
G01 X112.8118 Y77.3025
G01 X112.8170 Y77.2910
G01 X112.8289 Y77.2627
G01 X112.8418 Y77.2275
G01 X112.8528 Y77.1922
G01 X112.8606 Y77.1625
G01 X112.8635 Y77.1502
G01 X112.8673 Y77.1322
G01 X112.8718 Y77.1078
G01 X112.8762 Y77.0770
G01 X112.8782 Y77.0587
G01 X112.8803 Y77.0341
G01 X112.8812 Y77.0157
G01 X112.8818 Y76.9938
G01 X112.8819 Y54.1399
G01 X112.8809 Y54.1024
G01 X112.8782 Y54.0657
G01 X112.8762 Y54.0474
G01 X112.8736 Y54.0286
G01 X112.8673 Y53.9923
G01 X112.8591 Y53.9558
G01 X112.8493 Y53.9203
G01 X112.8437 Y53.9027
G01 X112.8375 Y53.8848
G01 X112.8243 Y53.8504
G01 X112.8091 Y53.8162
G01 X112.8010 Y53.7996
G01 X112.7837 Y53.7672
G01 X112.7741 Y53.7507
G01 X112.7544 Y53.7196
G01 X112.7332 Y53.6895
G01 X112.7217 Y53.6744
G01 X112.6983 Y53.6459
G01 X112.6857 Y53.6317
G01 X112.6603 Y53.6050
G01 X112.6337 Y53.5796
G01 X112.6194 Y53.5670
G01 X112.5910 Y53.5437
G01 X112.5758 Y53.5322
G01 X112.5457 Y53.5110
G01 X112.5141 Y53.4910
G01 X112.4821 Y53.4728
G01 X112.4492 Y53.4563
G01 X112.4319 Y53.4483
G01 X112.3979 Y53.4342
G01 X112.3800 Y53.4276
G01 X112.3451 Y53.4161
G01 X112.3096 Y53.4062
G01 X112.2911 Y53.4018
G01 X112.2550 Y53.3947
G01 X112.2362 Y53.3916
G01 X112.1997 Y53.3871
G01 X112.1629 Y53.3844
G01 X112.1439 Y53.3837
G01 X112.1071 Y53.3837
G01 X112.0881 Y53.3844
G01 X112.0514 Y53.3871
G01 X112.0148 Y53.3916
G01 X111.9961 Y53.3947
G01 X111.9599 Y53.4018
G01 X111.9414 Y53.4062
G01 X111.9060 Y53.4161
G01 X111.8710 Y53.4276
G01 X111.8532 Y53.4342
G01 X111.8192 Y53.4483
G01 X111.8019 Y53.4563
G01 X111.7690 Y53.4728
G01 X111.7369 Y53.4910
G01 X111.7207 Y53.5009
G01 X111.6901 Y53.5214
G01 X111.6747 Y53.5325
G01 X111.6457 Y53.5552
G01 X111.6178 Y53.5792
G01 X111.5907 Y53.6050
G01 X111.5653 Y53.6317
G01 X111.5527 Y53.6459
G01 X111.5293 Y53.6744
G01 X111.5178 Y53.6895
G01 X111.4966 Y53.7196
G01 X111.4769 Y53.7507
G01 X111.4673 Y53.7672
G01 X111.4500 Y53.7996
G01 X111.4417 Y53.8168
G01 X111.4267 Y53.8504
G01 X111.4135 Y53.8848
G01 X111.4073 Y53.9027
G01 X111.3966 Y53.9380
G01 X111.3918 Y53.9564
G01 X111.3837 Y53.9923
G01 X111.3774 Y54.0286
G01 X111.3748 Y54.0474
G01 X111.3712 Y54.0841
G01 X111.3697 Y54.1122
G01 X111.3692 Y54.1399
G01 X111.3692 Y76.5479
G01 X21.8255 Y128.2450
G01 X2.7627 Y117.2661
G01 X2.7627 Y13.8708
G01 X22.2038 Y2.6616
G01 X22.2274 Y2.6474
G01 X22.2511 Y2.6319
G01 X22.2810 Y2.6105
G01 X22.3103 Y2.5873
G01 X22.3380 Y2.5630
G01 X22.3650 Y2.5370
G01 X22.3901 Y2.5101
G01 X22.4144 Y2.4816
G01 X22.4368 Y2.4524
G01 X22.4581 Y2.4216
G01 X22.4776 Y2.3904
G01 X22.4958 Y2.3577
G01 X22.5121 Y2.3247
G01 X22.5270 Y2.2903
G01 X22.5400 Y2.2559
G01 X22.5515 Y2.2203
G01 X22.5610 Y2.1847
G01 X22.5652 Y2.1662
G01 X22.5722 Y2.1300
G01 X22.5774 Y2.0929
G01 X22.5807 Y2.0563
G01 X22.5822 Y2.0189
G01 X22.5819 Y1.9820
G01 X22.5798 Y1.9447
G01 X22.5759 Y1.9081
G01 X22.5701 Y1.8711
G01 X22.5627 Y1.8350
G01 X22.5535 Y1.7994
G01 X22.5423 Y1.7636
G01 X22.5297 Y1.7291
G01 X22.5151 Y1.6946
G01 X22.4991 Y1.6614
G01 X22.4812 Y1.6286
G01 X22.4621 Y1.5971
G01 X22.4516 Y1.5812
G01 X22.4301 Y1.5513
G01 X22.4069 Y1.5220
G01 X22.3826 Y1.4943
G01 X22.3566 Y1.4674
G01 X22.3298 Y1.4422
G01 X22.3012 Y1.4180
G01 X22.2720 Y1.3955
G01 X22.2413 Y1.3742
G01 X22.2100 Y1.3547
G01 X22.1773 Y1.3365
G01 X22.1443 Y1.3202
G01 X22.1100 Y1.3053
G01 X22.0755 Y1.2923
G01 X22.0399 Y1.2809
G01 X22.0043 Y1.2713
G01 X21.9858 Y1.2671
G01 X21.9496 Y1.2602
G01 X21.9125 Y1.2550
G01 X21.8759 Y1.2516
G01 X21.8391 Y1.2501
G01 X21.8017 Y1.2504
G01 X21.7649 Y1.2525
G01 X21.7277 Y1.2564
G01 X21.6913 Y1.2621
G01 X21.6547 Y1.2697
G01 X21.6190 Y1.2789
G01 X21.5833 Y1.2900
G01 X21.5487 Y1.3027
G01 X21.5142 Y1.3172
G01 X21.4811 Y1.3332
G01 X21.4482 Y1.3511
G01 X1.6206 Y12.7832
G01 X1.6016 Y12.7949
G01 X1.5861 Y12.8049
G01 X1.5662 Y12.8188
G01 X1.5513 Y12.8297
G01 X1.5409 Y12.8376
G01 X1.5171 Y12.8570
G01 X1.4943 Y12.8772
G01 X1.4847 Y12.8861
G01 X1.4715 Y12.8990
G01 X1.4546 Y12.9165
G01 X1.4377 Y12.9351
G01 X1.4217 Y12.9540
G01 X1.4066 Y12.9730
G01 X1.3955 Y12.9878
G01 X1.3775 Y13.0136
G01 X1.3643 Y13.0340
G01 X1.3548 Y13.0498
G01 X1.3393 Y13.0773
G01 X1.3282 Y13.0989
G01 X1.3202 Y13.1155
G01 X1.3148 Y13.1274
G01 X1.3031 Y13.1555
G01 X1.2901 Y13.1907
G01 X1.2791 Y13.2260
G01 X1.2713 Y13.2555
G01 X1.2683 Y13.2682
G01 X1.2645 Y13.2863
G01 X1.2602 Y13.3102
G01 X1.2557 Y13.3414
G01 X1.2526 Y13.3717
G01 X1.2507 Y13.4023
G01 X1.2500 Y13.4338
G01 X1.2500 Y117.7034
G00 X1.2500 Y117.7034
G01 F250.00
G01 Z-0.3000
G01 F2500.00
G01 X1.2504 Y117.7283
G01 X1.2517 Y117.7536
G01 X1.2536 Y117.7775
G01 X1.2565 Y117.8023
G01 X1.2602 Y117.8274
G01 X1.2645 Y117.8509
G01 X1.2698 Y117.8753
G01 X1.2760 Y117.8999
G01 X1.2826 Y117.9229
G01 X1.2903 Y117.9471
G01 X1.2988 Y117.9705
G01 X1.3076 Y117.9928
G01 X1.3177 Y118.0161
G01 X1.3284 Y118.0386
G01 X1.3393 Y118.0599
G01 X1.3516 Y118.0821
G01 X1.3645 Y118.1034
G01 X1.3775 Y118.1236
G01 X1.3919 Y118.1444
G01 X1.4068 Y118.1644
G01 X1.4217 Y118.1832
G01 X1.4381 Y118.2025
G01 X1.4549 Y118.2210
G01 X1.4715 Y118.2382
G01 X1.4898 Y118.2558
G01 X1.5083 Y118.2725
G01 X1.5265 Y118.2880
G01 X1.5464 Y118.3038
G01 X1.5664 Y118.3186
G01 X1.5861 Y118.3322
G01 X1.6075 Y118.3460
G01 X1.6289 Y118.3588
G01 X21.4565 Y129.7781
G01 X21.4750 Y129.7881
G01 X21.5029 Y129.8020
G01 X21.5146 Y129.8074
G01 X21.5424 Y129.8193
G01 X21.5595 Y129.8260
G01 X21.5836 Y129.8346
G01 X21.6125 Y129.8437
G01 X21.6425 Y129.8519
G01 X21.6550 Y129.8549
G01 X21.6846 Y129.8611
G01 X21.7028 Y129.8644
G01 X21.7281 Y129.8681
G01 X21.7524 Y129.8709
G01 X21.7765 Y129.8728
G01 X21.8020 Y129.8741
G01 X21.8323 Y129.8744
G01 X21.8507 Y129.8741
G01 X21.8762 Y129.8728
G01 X21.9003 Y129.8708
G01 X21.9247 Y129.8680
G01 X21.9500 Y129.8642
G01 X21.9737 Y129.8599
G01 X21.9977 Y129.8547
G01 X22.0225 Y129.8485
G01 X22.0457 Y129.8418
G01 X22.0691 Y129.8343
G01 X22.0932 Y129.8257
G01 X22.1156 Y129.8168
G01 X22.1381 Y129.8071
G01 X22.1612 Y129.7961
G01 X22.1830 Y129.7849
G01 X22.2041 Y129.7731
G01 X112.5037 Y77.6396
G01 X112.5303 Y77.6235
G01 X112.5560 Y77.6065
G01 X112.5861 Y77.5845
G01 X112.6148 Y77.5614
G01 X112.6424 Y77.5368
G01 X112.6691 Y77.5105
G01 X112.6900 Y77.4881
G01 X112.6983 Y77.4785
G01 X112.7102 Y77.4644
G01 X112.7256 Y77.4451
G01 X112.7440 Y77.4200
G01 X112.7544 Y77.4048
G01 X112.7678 Y77.3840
G01 X112.7804 Y77.3630
G01 X112.7926 Y77.3412
G01 X112.8039 Y77.3191
G01 X112.8118 Y77.3025
G01 X112.8170 Y77.2910
G01 X112.8289 Y77.2627
G01 X112.8418 Y77.2275
G01 X112.8528 Y77.1922
G01 X112.8606 Y77.1625
G01 X112.8635 Y77.1502
G01 X112.8673 Y77.1322
G01 X112.8718 Y77.1078
G01 X112.8762 Y77.0770
G01 X112.8782 Y77.0587
G01 X112.8803 Y77.0341
G01 X112.8812 Y77.0157
G01 X112.8818 Y76.9938
G01 X112.8819 Y54.1399
G01 X112.8809 Y54.1024
G01 X112.8782 Y54.0657
G01 X112.8762 Y54.0474
G01 X112.8736 Y54.0286
G01 X112.8673 Y53.9923
G01 X112.8591 Y53.9558
G01 X112.8493 Y53.9203
G01 X112.8437 Y53.9027
G01 X112.8375 Y53.8848
G01 X112.8243 Y53.8504
G01 X112.8091 Y53.8162
G01 X112.8010 Y53.7996
G01 X112.7837 Y53.7672
G01 X112.7741 Y53.7507
G01 X112.7544 Y53.7196
G01 X112.7332 Y53.6895
G01 X112.7217 Y53.6744
G01 X112.6983 Y53.6459
G01 X112.6857 Y53.6317
G01 X112.6603 Y53.6050
G01 X112.6337 Y53.5796
G01 X112.6194 Y53.5670
G01 X112.5910 Y53.5437
G01 X112.5758 Y53.5322
G01 X112.5457 Y53.5110
G01 X112.5141 Y53.4910
G01 X112.4821 Y53.4728
G01 X112.4492 Y53.4563
G01 X112.4319 Y53.4483
G01 X112.3979 Y53.4342
G01 X112.3800 Y53.4276
G01 X112.3451 Y53.4161
G01 X112.3096 Y53.4062
G01 X112.2911 Y53.4018
G01 X112.2550 Y53.3947
G01 X112.2362 Y53.3916
G01 X112.1997 Y53.3871
G01 X112.1629 Y53.3844
G01 X112.1439 Y53.3837
G01 X112.1071 Y53.3837
G01 X112.0881 Y53.3844
G01 X112.0514 Y53.3871
G01 X112.0148 Y53.3916
G01 X111.9961 Y53.3947
G01 X111.9599 Y53.4018
G01 X111.9414 Y53.4062
G01 X111.9060 Y53.4161
G01 X111.8710 Y53.4276
G01 X111.8532 Y53.4342
G01 X111.8192 Y53.4483
G01 X111.8019 Y53.4563
G01 X111.7690 Y53.4728
G01 X111.7369 Y53.4910
G01 X111.7207 Y53.5009
G01 X111.6901 Y53.5214
G01 X111.6747 Y53.5325
G01 X111.6457 Y53.5552
G01 X111.6178 Y53.5792
G01 X111.5907 Y53.6050
G01 X111.5653 Y53.6317
G01 X111.5527 Y53.6459
G01 X111.5293 Y53.6744
G01 X111.5178 Y53.6895
G01 X111.4966 Y53.7196
G01 X111.4769 Y53.7507
G01 X111.4673 Y53.7672
G01 X111.4500 Y53.7996
G01 X111.4417 Y53.8168
G01 X111.4267 Y53.8504
G01 X111.4135 Y53.8848
G01 X111.4073 Y53.9027
G01 X111.3966 Y53.9380
G01 X111.3918 Y53.9564
G01 X111.3837 Y53.9923
G01 X111.3774 Y54.0286
G01 X111.3748 Y54.0474
G01 X111.3712 Y54.0841
G01 X111.3697 Y54.1122
G01 X111.3692 Y54.1399
G01 X111.3692 Y76.5479
G01 X21.8255 Y128.2450
G01 X2.7627 Y117.2661
G01 X2.7627 Y13.8708
G01 X22.2038 Y2.6616
G01 X22.2274 Y2.6474
G01 X22.2511 Y2.6319
G01 X22.2810 Y2.6105
G01 X22.3103 Y2.5873
G01 X22.3380 Y2.5630
G01 X22.3650 Y2.5370
G01 X22.3901 Y2.5101
G01 X22.4144 Y2.4816
G01 X22.4368 Y2.4524
G01 X22.4581 Y2.4216
G01 X22.4776 Y2.3904
G01 X22.4958 Y2.3577
G01 X22.5121 Y2.3247
G01 X22.5270 Y2.2903
G01 X22.5400 Y2.2559
G01 X22.5515 Y2.2203
G01 X22.5610 Y2.1847
G01 X22.5652 Y2.1662
G01 X22.5722 Y2.1300
G01 X22.5774 Y2.0929
G01 X22.5807 Y2.0563
G01 X22.5822 Y2.0189
G01 X22.5819 Y1.9820
G01 X22.5798 Y1.9447
G01 X22.5759 Y1.9081
G01 X22.5701 Y1.8711
G01 X22.5627 Y1.8350
G01 X22.5535 Y1.7994
G01 X22.5423 Y1.7636
G01 X22.5297 Y1.7291
G01 X22.5151 Y1.6946
G01 X22.4991 Y1.6614
G01 X22.4812 Y1.6286
G01 X22.4621 Y1.5971
G01 X22.4516 Y1.5812
G01 X22.4301 Y1.5513
G01 X22.4069 Y1.5220
G01 X22.3826 Y1.4943
G01 X22.3566 Y1.4674
G01 X22.3298 Y1.4422
G01 X22.3012 Y1.4180
G01 X22.2720 Y1.3955
G01 X22.2413 Y1.3742
G01 X22.2100 Y1.3547
G01 X22.1773 Y1.3365
G01 X22.1443 Y1.3202
G01 X22.1100 Y1.3053
G01 X22.0755 Y1.2923
G01 X22.0399 Y1.2809
G01 X22.0043 Y1.2713
G01 X21.9858 Y1.2671
G01 X21.9496 Y1.2602
G01 X21.9125 Y1.2550
G01 X21.8759 Y1.2516
G01 X21.8391 Y1.2501
G01 X21.8017 Y1.2504
G01 X21.7649 Y1.2525
G01 X21.7277 Y1.2564
G01 X21.6913 Y1.2621
G01 X21.6547 Y1.2697
G01 X21.6190 Y1.2789
G01 X21.5833 Y1.2900
G01 X21.5487 Y1.3027
G01 X21.5142 Y1.3172
G01 X21.4811 Y1.3332
G01 X21.4482 Y1.3511
G01 X1.6206 Y12.7832
G01 X1.6016 Y12.7949
G01 X1.5861 Y12.8049
G01 X1.5662 Y12.8188
G01 X1.5513 Y12.8297
G01 X1.5409 Y12.8376
G01 X1.5171 Y12.8570
G01 X1.4943 Y12.8772
G01 X1.4847 Y12.8861
G01 X1.4715 Y12.8990
G01 X1.4546 Y12.9165
G01 X1.4377 Y12.9351
G01 X1.4217 Y12.9540
G01 X1.4066 Y12.9730
G01 X1.3955 Y12.9878
G01 X1.3775 Y13.0136
G01 X1.3643 Y13.0340
G01 X1.3548 Y13.0498
G01 X1.3393 Y13.0773
G01 X1.3282 Y13.0989
G01 X1.3202 Y13.1155
G01 X1.3148 Y13.1274
G01 X1.3031 Y13.1555
G01 X1.2901 Y13.1907
G01 X1.2791 Y13.2260
G01 X1.2713 Y13.2555
G01 X1.2683 Y13.2682
G01 X1.2645 Y13.2863
G01 X1.2602 Y13.3102
G01 X1.2557 Y13.3414
G01 X1.2526 Y13.3717
G01 X1.2507 Y13.4023
G01 X1.2500 Y13.4338
G01 X1.2500 Y117.7034
G00 X1.2500 Y117.7034
G01 F250.00
G01 Z-0.4000
G01 F2500.00
G01 X1.2504 Y117.7283
G01 X1.2517 Y117.7536
G01 X1.2536 Y117.7775
G01 X1.2565 Y117.8023
G01 X1.2602 Y117.8274
G01 X1.2645 Y117.8509
G01 X1.2698 Y117.8753
G01 X1.2760 Y117.8999
G01 X1.2826 Y117.9229
G01 X1.2903 Y117.9471
G01 X1.2988 Y117.9705
G01 X1.3076 Y117.9928
G01 X1.3177 Y118.0161
G01 X1.3284 Y118.0386
G01 X1.3393 Y118.0599
G01 X1.3516 Y118.0821
G01 X1.3645 Y118.1034
G01 X1.3775 Y118.1236
G01 X1.3919 Y118.1444
G01 X1.4068 Y118.1644
G01 X1.4217 Y118.1832
G01 X1.4381 Y118.2025
G01 X1.4549 Y118.2210
G01 X1.4715 Y118.2382
G01 X1.4898 Y118.2558
G01 X1.5083 Y118.2725
G01 X1.5265 Y118.2880
G01 X1.5464 Y118.3038
G01 X1.5664 Y118.3186
G01 X1.5861 Y118.3322
G01 X1.6075 Y118.3460
G01 X1.6289 Y118.3588
G01 X21.4565 Y129.7781
G01 X21.4750 Y129.7881
G01 X21.5029 Y129.8020
G01 X21.5146 Y129.8074
G01 X21.5424 Y129.8193
G01 X21.5595 Y129.8260
G01 X21.5836 Y129.8346
G01 X21.6125 Y129.8437
G01 X21.6425 Y129.8519
G01 X21.6550 Y129.8549
G01 X21.6846 Y129.8611
G01 X21.7028 Y129.8644
G01 X21.7281 Y129.8681
G01 X21.7524 Y129.8709
G01 X21.7765 Y129.8728
G01 X21.8020 Y129.8741
G01 X21.8323 Y129.8744
G01 X21.8507 Y129.8741
G01 X21.8762 Y129.8728
G01 X21.9003 Y129.8708
G01 X21.9247 Y129.8680
G01 X21.9500 Y129.8642
G01 X21.9737 Y129.8599
G01 X21.9977 Y129.8547
G01 X22.0225 Y129.8485
G01 X22.0457 Y129.8418
G01 X22.0691 Y129.8343
G01 X22.0932 Y129.8257
G01 X22.1156 Y129.8168
G01 X22.1381 Y129.8071
G01 X22.1612 Y129.7961
G01 X22.1830 Y129.7849
G01 X22.2041 Y129.7731
G01 X112.5037 Y77.6396
G01 X112.5303 Y77.6235
G01 X112.5560 Y77.6065
G01 X112.5861 Y77.5845
G01 X112.6148 Y77.5614
G01 X112.6424 Y77.5368
G01 X112.6691 Y77.5105
G01 X112.6900 Y77.4881
G01 X112.6983 Y77.4785
G01 X112.7102 Y77.4644
G01 X112.7256 Y77.4451
G01 X112.7440 Y77.4200
G01 X112.7544 Y77.4048
G01 X112.7678 Y77.3840
G01 X112.7804 Y77.3630
G01 X112.7926 Y77.3412
G01 X112.8039 Y77.3191
G01 X112.8118 Y77.3025
G01 X112.8170 Y77.2910
G01 X112.8289 Y77.2627
G01 X112.8418 Y77.2275
G01 X112.8528 Y77.1922
G01 X112.8606 Y77.1625
G01 X112.8635 Y77.1502
G01 X112.8673 Y77.1322
G01 X112.8718 Y77.1078
G01 X112.8762 Y77.0770
G01 X112.8782 Y77.0587
G01 X112.8803 Y77.0341
G01 X112.8812 Y77.0157
G01 X112.8818 Y76.9938
G01 X112.8819 Y54.1399
G01 X112.8809 Y54.1024
G01 X112.8782 Y54.0657
G01 X112.8762 Y54.0474
G01 X112.8736 Y54.0286
G01 X112.8673 Y53.9923
G01 X112.8591 Y53.9558
G01 X112.8493 Y53.9203
G01 X112.8437 Y53.9027
G01 X112.8375 Y53.8848
G01 X112.8243 Y53.8504
G01 X112.8091 Y53.8162
G01 X112.8010 Y53.7996
G01 X112.7837 Y53.7672
G01 X112.7741 Y53.7507
G01 X112.7544 Y53.7196
G01 X112.7332 Y53.6895
G01 X112.7217 Y53.6744
G01 X112.6983 Y53.6459
G01 X112.6857 Y53.6317
G01 X112.6603 Y53.6050
G01 X112.6337 Y53.5796
G01 X112.6194 Y53.5670
G01 X112.5910 Y53.5437
G01 X112.5758 Y53.5322
G01 X112.5457 Y53.5110
G01 X112.5141 Y53.4910
G01 X112.4821 Y53.4728
G01 X112.4492 Y53.4563
G01 X112.4319 Y53.4483
G01 X112.3979 Y53.4342
G01 X112.3800 Y53.4276
G01 X112.3451 Y53.4161
G01 X112.3096 Y53.4062
G01 X112.2911 Y53.4018
G01 X112.2550 Y53.3947
G01 X112.2362 Y53.3916
G01 X112.1997 Y53.3871
G01 X112.1629 Y53.3844
G01 X112.1439 Y53.3837
G01 X112.1071 Y53.3837
G01 X112.0881 Y53.3844
G01 X112.0514 Y53.3871
G01 X112.0148 Y53.3916
G01 X111.9961 Y53.3947
G01 X111.9599 Y53.4018
G01 X111.9414 Y53.4062
G01 X111.9060 Y53.4161
G01 X111.8710 Y53.4276
G01 X111.8532 Y53.4342
G01 X111.8192 Y53.4483
G01 X111.8019 Y53.4563
G01 X111.7690 Y53.4728
G01 X111.7369 Y53.4910
G01 X111.7207 Y53.5009
G01 X111.6901 Y53.5214
G01 X111.6747 Y53.5325
G01 X111.6457 Y53.5552
G01 X111.6178 Y53.5792
G01 X111.5907 Y53.6050
G01 X111.5653 Y53.6317
G01 X111.5527 Y53.6459
G01 X111.5293 Y53.6744
G01 X111.5178 Y53.6895
G01 X111.4966 Y53.7196
G01 X111.4769 Y53.7507
G01 X111.4673 Y53.7672
G01 X111.4500 Y53.7996
G01 X111.4417 Y53.8168
G01 X111.4267 Y53.8504
G01 X111.4135 Y53.8848
G01 X111.4073 Y53.9027
G01 X111.3966 Y53.9380
G01 X111.3918 Y53.9564
G01 X111.3837 Y53.9923
G01 X111.3774 Y54.0286
G01 X111.3748 Y54.0474
G01 X111.3712 Y54.0841
G01 X111.3697 Y54.1122
G01 X111.3692 Y54.1399
G01 X111.3692 Y76.5479
G01 X21.8255 Y128.2450
G01 X2.7627 Y117.2661
G01 X2.7627 Y13.8708
G01 X22.2038 Y2.6616
G01 X22.2274 Y2.6474
G01 X22.2511 Y2.6319
G01 X22.2810 Y2.6105
G01 X22.3103 Y2.5873
G01 X22.3380 Y2.5630
G01 X22.3650 Y2.5370
G01 X22.3901 Y2.5101
G01 X22.4144 Y2.4816
G01 X22.4368 Y2.4524
G01 X22.4581 Y2.4216
G01 X22.4776 Y2.3904
G01 X22.4958 Y2.3577
G01 X22.5121 Y2.3247
G01 X22.5270 Y2.2903
G01 X22.5400 Y2.2559
G01 X22.5515 Y2.2203
G01 X22.5610 Y2.1847
G01 X22.5652 Y2.1662
G01 X22.5722 Y2.1300
G01 X22.5774 Y2.0929
G01 X22.5807 Y2.0563
G01 X22.5822 Y2.0189
G01 X22.5819 Y1.9820
G01 X22.5798 Y1.9447
G01 X22.5759 Y1.9081
G01 X22.5701 Y1.8711
G01 X22.5627 Y1.8350
G01 X22.5535 Y1.7994
G01 X22.5423 Y1.7636
G01 X22.5297 Y1.7291
G01 X22.5151 Y1.6946
G01 X22.4991 Y1.6614
G01 X22.4812 Y1.6286
G01 X22.4621 Y1.5971
G01 X22.4516 Y1.5812
G01 X22.4301 Y1.5513
G01 X22.4069 Y1.5220
G01 X22.3826 Y1.4943
G01 X22.3566 Y1.4674
G01 X22.3298 Y1.4422
G01 X22.3012 Y1.4180
G01 X22.2720 Y1.3955
G01 X22.2413 Y1.3742
G01 X22.2100 Y1.3547
G01 X22.1773 Y1.3365
G01 X22.1443 Y1.3202
G01 X22.1100 Y1.3053
G01 X22.0755 Y1.2923
G01 X22.0399 Y1.2809
G01 X22.0043 Y1.2713
G01 X21.9858 Y1.2671
G01 X21.9496 Y1.2602
G01 X21.9125 Y1.2550
G01 X21.8759 Y1.2516
G01 X21.8391 Y1.2501
G01 X21.8017 Y1.2504
G01 X21.7649 Y1.2525
G01 X21.7277 Y1.2564
G01 X21.6913 Y1.2621
G01 X21.6547 Y1.2697
G01 X21.6190 Y1.2789
G01 X21.5833 Y1.2900
G01 X21.5487 Y1.3027
G01 X21.5142 Y1.3172
G01 X21.4811 Y1.3332
G01 X21.4482 Y1.3511
G01 X1.6206 Y12.7832
G01 X1.6016 Y12.7949
G01 X1.5861 Y12.8049
G01 X1.5662 Y12.8188
G01 X1.5513 Y12.8297
G01 X1.5409 Y12.8376
G01 X1.5171 Y12.8570
G01 X1.4943 Y12.8772
G01 X1.4847 Y12.8861
G01 X1.4715 Y12.8990
G01 X1.4546 Y12.9165
G01 X1.4377 Y12.9351
G01 X1.4217 Y12.9540
G01 X1.4066 Y12.9730
G01 X1.3955 Y12.9878
G01 X1.3775 Y13.0136
G01 X1.3643 Y13.0340
G01 X1.3548 Y13.0498
G01 X1.3393 Y13.0773
G01 X1.3282 Y13.0989
G01 X1.3202 Y13.1155
G01 X1.3148 Y13.1274
G01 X1.3031 Y13.1555
G01 X1.2901 Y13.1907
G01 X1.2791 Y13.2260
G01 X1.2713 Y13.2555
G01 X1.2683 Y13.2682
G01 X1.2645 Y13.2863
G01 X1.2602 Y13.3102
G01 X1.2557 Y13.3414
G01 X1.2526 Y13.3717
G01 X1.2507 Y13.4023
G01 X1.2500 Y13.4338
G01 X1.2500 Y117.7034
G00 X1.2500 Y117.7034
G01 F250.00
G01 Z-0.5000
G01 F2500.00
G01 X1.2504 Y117.7283
G01 X1.2517 Y117.7536
G01 X1.2536 Y117.7775
G01 X1.2565 Y117.8023
G01 X1.2602 Y117.8274
G01 X1.2645 Y117.8509
G01 X1.2698 Y117.8753
G01 X1.2760 Y117.8999
G01 X1.2826 Y117.9229
G01 X1.2903 Y117.9471
G01 X1.2988 Y117.9705
G01 X1.3076 Y117.9928
G01 X1.3177 Y118.0161
G01 X1.3284 Y118.0386
G01 X1.3393 Y118.0599
G01 X1.3516 Y118.0821
G01 X1.3645 Y118.1034
G01 X1.3775 Y118.1236
G01 X1.3919 Y118.1444
G01 X1.4068 Y118.1644
G01 X1.4217 Y118.1832
G01 X1.4381 Y118.2025
G01 X1.4549 Y118.2210
G01 X1.4715 Y118.2382
G01 X1.4898 Y118.2558
G01 X1.5083 Y118.2725
G01 X1.5265 Y118.2880
G01 X1.5464 Y118.3038
G01 X1.5664 Y118.3186
G01 X1.5861 Y118.3322
G01 X1.6075 Y118.3460
G01 X1.6289 Y118.3588
G01 X21.4565 Y129.7781
G01 X21.4750 Y129.7881
G01 X21.5029 Y129.8020
G01 X21.5146 Y129.8074
G01 X21.5424 Y129.8193
G01 X21.5595 Y129.8260
G01 X21.5836 Y129.8346
G01 X21.6125 Y129.8437
G01 X21.6425 Y129.8519
G01 X21.6550 Y129.8549
G01 X21.6846 Y129.8611
G01 X21.7028 Y129.8644
G01 X21.7281 Y129.8681
G01 X21.7524 Y129.8709
G01 X21.7765 Y129.8728
G01 X21.8020 Y129.8741
G01 X21.8323 Y129.8744
G01 X21.8507 Y129.8741
G01 X21.8762 Y129.8728
G01 X21.9003 Y129.8708
G01 X21.9247 Y129.8680
G01 X21.9500 Y129.8642
G01 X21.9737 Y129.8599
G01 X21.9977 Y129.8547
G01 X22.0225 Y129.8485
G01 X22.0457 Y129.8418
G01 X22.0691 Y129.8343
G01 X22.0932 Y129.8257
G01 X22.1156 Y129.8168
G01 X22.1381 Y129.8071
G01 X22.1612 Y129.7961
G01 X22.1830 Y129.7849
G01 X22.2041 Y129.7731
G01 X112.5037 Y77.6396
G01 X112.5303 Y77.6235
G01 X112.5560 Y77.6065
G01 X112.5861 Y77.5845
G01 X112.6148 Y77.5614
G01 X112.6424 Y77.5368
G01 X112.6691 Y77.5105
G01 X112.6900 Y77.4881
G01 X112.6983 Y77.4785
G01 X112.7102 Y77.4644
G01 X112.7256 Y77.4451
G01 X112.7440 Y77.4200
G01 X112.7544 Y77.4048
G01 X112.7678 Y77.3840
G01 X112.7804 Y77.3630
G01 X112.7926 Y77.3412
G01 X112.8039 Y77.3191
G01 X112.8118 Y77.3025
G01 X112.8170 Y77.2910
G01 X112.8289 Y77.2627
G01 X112.8418 Y77.2275
G01 X112.8528 Y77.1922
G01 X112.8606 Y77.1625
G01 X112.8635 Y77.1502
G01 X112.8673 Y77.1322
G01 X112.8718 Y77.1078
G01 X112.8762 Y77.0770
G01 X112.8782 Y77.0587
G01 X112.8803 Y77.0341
G01 X112.8812 Y77.0157
G01 X112.8818 Y76.9938
G01 X112.8819 Y54.1399
G01 X112.8809 Y54.1024
G01 X112.8782 Y54.0657
G01 X112.8762 Y54.0474
G01 X112.8736 Y54.0286
G01 X112.8673 Y53.9923
G01 X112.8591 Y53.9558
G01 X112.8493 Y53.9203
G01 X112.8437 Y53.9027
G01 X112.8375 Y53.8848
G01 X112.8243 Y53.8504
G01 X112.8091 Y53.8162
G01 X112.8010 Y53.7996
G01 X112.7837 Y53.7672
G01 X112.7741 Y53.7507
G01 X112.7544 Y53.7196
G01 X112.7332 Y53.6895
G01 X112.7217 Y53.6744
G01 X112.6983 Y53.6459
G01 X112.6857 Y53.6317
G01 X112.6603 Y53.6050
G01 X112.6337 Y53.5796
G01 X112.6194 Y53.5670
G01 X112.5910 Y53.5437
G01 X112.5758 Y53.5322
G01 X112.5457 Y53.5110
G01 X112.5141 Y53.4910
G01 X112.4821 Y53.4728
G01 X112.4492 Y53.4563
G01 X112.4319 Y53.4483
G01 X112.3979 Y53.4342
G01 X112.3800 Y53.4276
G01 X112.3451 Y53.4161
G01 X112.3096 Y53.4062
G01 X112.2911 Y53.4018
G01 X112.2550 Y53.3947
G01 X112.2362 Y53.3916
G01 X112.1997 Y53.3871
G01 X112.1629 Y53.3844
G01 X112.1439 Y53.3837
G01 X112.1071 Y53.3837
G01 X112.0881 Y53.3844
G01 X112.0514 Y53.3871
G01 X112.0148 Y53.3916
G01 X111.9961 Y53.3947
G01 X111.9599 Y53.4018
G01 X111.9414 Y53.4062
G01 X111.9060 Y53.4161
G01 X111.8710 Y53.4276
G01 X111.8532 Y53.4342
G01 X111.8192 Y53.4483
G01 X111.8019 Y53.4563
G01 X111.7690 Y53.4728
G01 X111.7369 Y53.4910
G01 X111.7207 Y53.5009
G01 X111.6901 Y53.5214
G01 X111.6747 Y53.5325
G01 X111.6457 Y53.5552
G01 X111.6178 Y53.5792
G01 X111.5907 Y53.6050
G01 X111.5653 Y53.6317
G01 X111.5527 Y53.6459
G01 X111.5293 Y53.6744
G01 X111.5178 Y53.6895
G01 X111.4966 Y53.7196
G01 X111.4769 Y53.7507
G01 X111.4673 Y53.7672
G01 X111.4500 Y53.7996
G01 X111.4417 Y53.8168
G01 X111.4267 Y53.8504
G01 X111.4135 Y53.8848
G01 X111.4073 Y53.9027
G01 X111.3966 Y53.9380
G01 X111.3918 Y53.9564
G01 X111.3837 Y53.9923
G01 X111.3774 Y54.0286
G01 X111.3748 Y54.0474
G01 X111.3712 Y54.0841
G01 X111.3697 Y54.1122
G01 X111.3692 Y54.1399
G01 X111.3692 Y76.5479
G01 X21.8255 Y128.2450
G01 X2.7627 Y117.2661
G01 X2.7627 Y13.8708
G01 X22.2038 Y2.6616
G01 X22.2274 Y2.6474
G01 X22.2511 Y2.6319
G01 X22.2810 Y2.6105
G01 X22.3103 Y2.5873
G01 X22.3380 Y2.5630
G01 X22.3650 Y2.5370
G01 X22.3901 Y2.5101
G01 X22.4144 Y2.4816
G01 X22.4368 Y2.4524
G01 X22.4581 Y2.4216
G01 X22.4776 Y2.3904
G01 X22.4958 Y2.3577
G01 X22.5121 Y2.3247
G01 X22.5270 Y2.2903
G01 X22.5400 Y2.2559
G01 X22.5515 Y2.2203
G01 X22.5610 Y2.1847
G01 X22.5652 Y2.1662
G01 X22.5722 Y2.1300
G01 X22.5774 Y2.0929
G01 X22.5807 Y2.0563
G01 X22.5822 Y2.0189
G01 X22.5819 Y1.9820
G01 X22.5798 Y1.9447
G01 X22.5759 Y1.9081
G01 X22.5701 Y1.8711
G01 X22.5627 Y1.8350
G01 X22.5535 Y1.7994
G01 X22.5423 Y1.7636
G01 X22.5297 Y1.7291
G01 X22.5151 Y1.6946
G01 X22.4991 Y1.6614
G01 X22.4812 Y1.6286
G01 X22.4621 Y1.5971
G01 X22.4516 Y1.5812
G01 X22.4301 Y1.5513
G01 X22.4069 Y1.5220
G01 X22.3826 Y1.4943
G01 X22.3566 Y1.4674
G01 X22.3298 Y1.4422
G01 X22.3012 Y1.4180
G01 X22.2720 Y1.3955
G01 X22.2413 Y1.3742
G01 X22.2100 Y1.3547
G01 X22.1773 Y1.3365
G01 X22.1443 Y1.3202
G01 X22.1100 Y1.3053
G01 X22.0755 Y1.2923
G01 X22.0399 Y1.2809
G01 X22.0043 Y1.2713
G01 X21.9858 Y1.2671
G01 X21.9496 Y1.2602
G01 X21.9125 Y1.2550
G01 X21.8759 Y1.2516
G01 X21.8391 Y1.2501
G01 X21.8017 Y1.2504
G01 X21.7649 Y1.2525
G01 X21.7277 Y1.2564
G01 X21.6913 Y1.2621
G01 X21.6547 Y1.2697
G01 X21.6190 Y1.2789
G01 X21.5833 Y1.2900
G01 X21.5487 Y1.3027
G01 X21.5142 Y1.3172
G01 X21.4811 Y1.3332
G01 X21.4482 Y1.3511
G01 X1.6206 Y12.7832
G01 X1.6016 Y12.7949
G01 X1.5861 Y12.8049
G01 X1.5662 Y12.8188
G01 X1.5513 Y12.8297
G01 X1.5409 Y12.8376
G01 X1.5171 Y12.8570
G01 X1.4943 Y12.8772
G01 X1.4847 Y12.8861
G01 X1.4715 Y12.8990
G01 X1.4546 Y12.9165
G01 X1.4377 Y12.9351
G01 X1.4217 Y12.9540
G01 X1.4066 Y12.9730
G01 X1.3955 Y12.9878
G01 X1.3775 Y13.0136
G01 X1.3643 Y13.0340
G01 X1.3548 Y13.0498
G01 X1.3393 Y13.0773
G01 X1.3282 Y13.0989
G01 X1.3202 Y13.1155
G01 X1.3148 Y13.1274
G01 X1.3031 Y13.1555
G01 X1.2901 Y13.1907
G01 X1.2791 Y13.2260
G01 X1.2713 Y13.2555
G01 X1.2683 Y13.2682
G01 X1.2645 Y13.2863
G01 X1.2602 Y13.3102
G01 X1.2557 Y13.3414
G01 X1.2526 Y13.3717
G01 X1.2507 Y13.4023
G01 X1.2500 Y13.4338
G01 X1.2500 Y117.7034
G00 X1.2500 Y117.7034
G01 F250.00
G01 Z-0.6000
G01 F2500.00
G01 X1.2504 Y117.7283
G01 X1.2517 Y117.7536
G01 X1.2536 Y117.7775
G01 X1.2565 Y117.8023
G01 X1.2602 Y117.8274
G01 X1.2645 Y117.8509
G01 X1.2698 Y117.8753
G01 X1.2760 Y117.8999
G01 X1.2826 Y117.9229
G01 X1.2903 Y117.9471
G01 X1.2988 Y117.9705
G01 X1.3076 Y117.9928
G01 X1.3177 Y118.0161
G01 X1.3284 Y118.0386
G01 X1.3393 Y118.0599
G01 X1.3516 Y118.0821
G01 X1.3645 Y118.1034
G01 X1.3775 Y118.1236
G01 X1.3919 Y118.1444
G01 X1.4068 Y118.1644
G01 X1.4217 Y118.1832
G01 X1.4381 Y118.2025
G01 X1.4549 Y118.2210
G01 X1.4715 Y118.2382
G01 X1.4898 Y118.2558
G01 X1.5083 Y118.2725
G01 X1.5265 Y118.2880
G01 X1.5464 Y118.3038
G01 X1.5664 Y118.3186
G01 X1.5861 Y118.3322
G01 X1.6075 Y118.3460
G01 X1.6289 Y118.3588
G01 X21.4565 Y129.7781
G01 X21.4750 Y129.7881
G01 X21.5029 Y129.8020
G01 X21.5146 Y129.8074
G01 X21.5424 Y129.8193
G01 X21.5595 Y129.8260
G01 X21.5836 Y129.8346
G01 X21.6125 Y129.8437
G01 X21.6425 Y129.8519
G01 X21.6550 Y129.8549
G01 X21.6846 Y129.8611
G01 X21.7028 Y129.8644
G01 X21.7281 Y129.8681
G01 X21.7524 Y129.8709
G01 X21.7765 Y129.8728
G01 X21.8020 Y129.8741
G01 X21.8323 Y129.8744
G01 X21.8507 Y129.8741
G01 X21.8762 Y129.8728
G01 X21.9003 Y129.8708
G01 X21.9247 Y129.8680
G01 X21.9500 Y129.8642
G01 X21.9737 Y129.8599
G01 X21.9977 Y129.8547
G01 X22.0225 Y129.8485
G01 X22.0457 Y129.8418
G01 X22.0691 Y129.8343
G01 X22.0932 Y129.8257
G01 X22.1156 Y129.8168
G01 X22.1381 Y129.8071
G01 X22.1612 Y129.7961
G01 X22.1830 Y129.7849
G01 X22.2041 Y129.7731
G01 X112.5037 Y77.6396
G01 X112.5303 Y77.6235
G01 X112.5560 Y77.6065
G01 X112.5861 Y77.5845
G01 X112.6148 Y77.5614
G01 X112.6424 Y77.5368
G01 X112.6691 Y77.5105
G01 X112.6900 Y77.4881
G01 X112.6983 Y77.4785
G01 X112.7102 Y77.4644
G01 X112.7256 Y77.4451
G01 X112.7440 Y77.4200
G01 X112.7544 Y77.4048
G01 X112.7678 Y77.3840
G01 X112.7804 Y77.3630
G01 X112.7926 Y77.3412
G01 X112.8039 Y77.3191
G01 X112.8118 Y77.3025
G01 X112.8170 Y77.2910
G01 X112.8289 Y77.2627
G01 X112.8418 Y77.2275
G01 X112.8528 Y77.1922
G01 X112.8606 Y77.1625
G01 X112.8635 Y77.1502
G01 X112.8673 Y77.1322
G01 X112.8718 Y77.1078
G01 X112.8762 Y77.0770
G01 X112.8782 Y77.0587
G01 X112.8803 Y77.0341
G01 X112.8812 Y77.0157
G01 X112.8818 Y76.9938
G01 X112.8819 Y54.1399
G01 X112.8809 Y54.1024
G01 X112.8782 Y54.0657
G01 X112.8762 Y54.0474
G01 X112.8736 Y54.0286
G01 X112.8673 Y53.9923
G01 X112.8591 Y53.9558
G01 X112.8493 Y53.9203
G01 X112.8437 Y53.9027
G01 X112.8375 Y53.8848
G01 X112.8243 Y53.8504
G01 X112.8091 Y53.8162
G01 X112.8010 Y53.7996
G01 X112.7837 Y53.7672
G01 X112.7741 Y53.7507
G01 X112.7544 Y53.7196
G01 X112.7332 Y53.6895
G01 X112.7217 Y53.6744
G01 X112.6983 Y53.6459
G01 X112.6857 Y53.6317
G01 X112.6603 Y53.6050
G01 X112.6337 Y53.5796
G01 X112.6194 Y53.5670
G01 X112.5910 Y53.5437
G01 X112.5758 Y53.5322
G01 X112.5457 Y53.5110
G01 X112.5141 Y53.4910
G01 X112.4821 Y53.4728
G01 X112.4492 Y53.4563
G01 X112.4319 Y53.4483
G01 X112.3979 Y53.4342
G01 X112.3800 Y53.4276
G01 X112.3451 Y53.4161
G01 X112.3096 Y53.4062
G01 X112.2911 Y53.4018
G01 X112.2550 Y53.3947
G01 X112.2362 Y53.3916
G01 X112.1997 Y53.3871
G01 X112.1629 Y53.3844
G01 X112.1439 Y53.3837
G01 X112.1071 Y53.3837
G01 X112.0881 Y53.3844
G01 X112.0514 Y53.3871
G01 X112.0148 Y53.3916
G01 X111.9961 Y53.3947
G01 X111.9599 Y53.4018
G01 X111.9414 Y53.4062
G01 X111.9060 Y53.4161
G01 X111.8710 Y53.4276
G01 X111.8532 Y53.4342
G01 X111.8192 Y53.4483
G01 X111.8019 Y53.4563
G01 X111.7690 Y53.4728
G01 X111.7369 Y53.4910
G01 X111.7207 Y53.5009
G01 X111.6901 Y53.5214
G01 X111.6747 Y53.5325
G01 X111.6457 Y53.5552
G01 X111.6178 Y53.5792
G01 X111.5907 Y53.6050
G01 X111.5653 Y53.6317
G01 X111.5527 Y53.6459
G01 X111.5293 Y53.6744
G01 X111.5178 Y53.6895
G01 X111.4966 Y53.7196
G01 X111.4769 Y53.7507
G01 X111.4673 Y53.7672
G01 X111.4500 Y53.7996
G01 X111.4417 Y53.8168
G01 X111.4267 Y53.8504
G01 X111.4135 Y53.8848
G01 X111.4073 Y53.9027
G01 X111.3966 Y53.9380
G01 X111.3918 Y53.9564
G01 X111.3837 Y53.9923
G01 X111.3774 Y54.0286
G01 X111.3748 Y54.0474
G01 X111.3712 Y54.0841
G01 X111.3697 Y54.1122
G01 X111.3692 Y54.1399
G01 X111.3692 Y76.5479
G01 X21.8255 Y128.2450
G01 X2.7627 Y117.2661
G01 X2.7627 Y13.8708
G01 X22.2038 Y2.6616
G01 X22.2274 Y2.6474
G01 X22.2511 Y2.6319
G01 X22.2810 Y2.6105
G01 X22.3103 Y2.5873
G01 X22.3380 Y2.5630
G01 X22.3650 Y2.5370
G01 X22.3901 Y2.5101
G01 X22.4144 Y2.4816
G01 X22.4368 Y2.4524
G01 X22.4581 Y2.4216
G01 X22.4776 Y2.3904
G01 X22.4958 Y2.3577
G01 X22.5121 Y2.3247
G01 X22.5270 Y2.2903
G01 X22.5400 Y2.2559
G01 X22.5515 Y2.2203
G01 X22.5610 Y2.1847
G01 X22.5652 Y2.1662
G01 X22.5722 Y2.1300
G01 X22.5774 Y2.0929
G01 X22.5807 Y2.0563
G01 X22.5822 Y2.0189
G01 X22.5819 Y1.9820
G01 X22.5798 Y1.9447
G01 X22.5759 Y1.9081
G01 X22.5701 Y1.8711
G01 X22.5627 Y1.8350
G01 X22.5535 Y1.7994
G01 X22.5423 Y1.7636
G01 X22.5297 Y1.7291
G01 X22.5151 Y1.6946
G01 X22.4991 Y1.6614
G01 X22.4812 Y1.6286
G01 X22.4621 Y1.5971
G01 X22.4516 Y1.5812
G01 X22.4301 Y1.5513
G01 X22.4069 Y1.5220
G01 X22.3826 Y1.4943
G01 X22.3566 Y1.4674
G01 X22.3298 Y1.4422
G01 X22.3012 Y1.4180
G01 X22.2720 Y1.3955
G01 X22.2413 Y1.3742
G01 X22.2100 Y1.3547
G01 X22.1773 Y1.3365
G01 X22.1443 Y1.3202
G01 X22.1100 Y1.3053
G01 X22.0755 Y1.2923
G01 X22.0399 Y1.2809
G01 X22.0043 Y1.2713
G01 X21.9858 Y1.2671
G01 X21.9496 Y1.2602
G01 X21.9125 Y1.2550
G01 X21.8759 Y1.2516
G01 X21.8391 Y1.2501
G01 X21.8017 Y1.2504
G01 X21.7649 Y1.2525
G01 X21.7277 Y1.2564
G01 X21.6913 Y1.2621
G01 X21.6547 Y1.2697
G01 X21.6190 Y1.2789
G01 X21.5833 Y1.2900
G01 X21.5487 Y1.3027
G01 X21.5142 Y1.3172
G01 X21.4811 Y1.3332
G01 X21.4482 Y1.3511
G01 X1.6206 Y12.7832
G01 X1.6016 Y12.7949
G01 X1.5861 Y12.8049
G01 X1.5662 Y12.8188
G01 X1.5513 Y12.8297
G01 X1.5409 Y12.8376
G01 X1.5171 Y12.8570
G01 X1.4943 Y12.8772
G01 X1.4847 Y12.8861
G01 X1.4715 Y12.8990
G01 X1.4546 Y12.9165
G01 X1.4377 Y12.9351
G01 X1.4217 Y12.9540
G01 X1.4066 Y12.9730
G01 X1.3955 Y12.9878
G01 X1.3775 Y13.0136
G01 X1.3643 Y13.0340
G01 X1.3548 Y13.0498
G01 X1.3393 Y13.0773
G01 X1.3282 Y13.0989
G01 X1.3202 Y13.1155
G01 X1.3148 Y13.1274
G01 X1.3031 Y13.1555
G01 X1.2901 Y13.1907
G01 X1.2791 Y13.2260
G01 X1.2713 Y13.2555
G01 X1.2683 Y13.2682
G01 X1.2645 Y13.2863
G01 X1.2602 Y13.3102
G01 X1.2557 Y13.3414
G01 X1.2526 Y13.3717
G01 X1.2507 Y13.4023
G01 X1.2500 Y13.4338
G01 X1.2500 Y117.7034
G00 X1.2500 Y117.7034
G01 F250.00
G01 Z-0.7000
G01 F2500.00
G01 X1.2504 Y117.7283
G01 X1.2517 Y117.7536
G01 X1.2536 Y117.7775
G01 X1.2565 Y117.8023
G01 X1.2602 Y117.8274
G01 X1.2645 Y117.8509
G01 X1.2698 Y117.8753
G01 X1.2760 Y117.8999
G01 X1.2826 Y117.9229
G01 X1.2903 Y117.9471
G01 X1.2988 Y117.9705
G01 X1.3076 Y117.9928
G01 X1.3177 Y118.0161
G01 X1.3284 Y118.0386
G01 X1.3393 Y118.0599
G01 X1.3516 Y118.0821
G01 X1.3645 Y118.1034
G01 X1.3775 Y118.1236
G01 X1.3919 Y118.1444
G01 X1.4068 Y118.1644
G01 X1.4217 Y118.1832
G01 X1.4381 Y118.2025
G01 X1.4549 Y118.2210
G01 X1.4715 Y118.2382
G01 X1.4898 Y118.2558
G01 X1.5083 Y118.2725
G01 X1.5265 Y118.2880
G01 X1.5464 Y118.3038
G01 X1.5664 Y118.3186
G01 X1.5861 Y118.3322
G01 X1.6075 Y118.3460
G01 X1.6289 Y118.3588
G01 X21.4565 Y129.7781
G01 X21.4750 Y129.7881
G01 X21.5029 Y129.8020
G01 X21.5146 Y129.8074
G01 X21.5424 Y129.8193
G01 X21.5595 Y129.8260
G01 X21.5836 Y129.8346
G01 X21.6125 Y129.8437
G01 X21.6425 Y129.8519
G01 X21.6550 Y129.8549
G01 X21.6846 Y129.8611
G01 X21.7028 Y129.8644
G01 X21.7281 Y129.8681
G01 X21.7524 Y129.8709
G01 X21.7765 Y129.8728
G01 X21.8020 Y129.8741
G01 X21.8323 Y129.8744
G01 X21.8507 Y129.8741
G01 X21.8762 Y129.8728
G01 X21.9003 Y129.8708
G01 X21.9247 Y129.8680
G01 X21.9500 Y129.8642
G01 X21.9737 Y129.8599
G01 X21.9977 Y129.8547
G01 X22.0225 Y129.8485
G01 X22.0457 Y129.8418
G01 X22.0691 Y129.8343
G01 X22.0932 Y129.8257
G01 X22.1156 Y129.8168
G01 X22.1381 Y129.8071
G01 X22.1612 Y129.7961
G01 X22.1830 Y129.7849
G01 X22.2041 Y129.7731
G01 X112.5037 Y77.6396
G01 X112.5303 Y77.6235
G01 X112.5560 Y77.6065
G01 X112.5861 Y77.5845
G01 X112.6148 Y77.5614
G01 X112.6424 Y77.5368
G01 X112.6691 Y77.5105
G01 X112.6900 Y77.4881
G01 X112.6983 Y77.4785
G01 X112.7102 Y77.4644
G01 X112.7256 Y77.4451
G01 X112.7440 Y77.4200
G01 X112.7544 Y77.4048
G01 X112.7678 Y77.3840
G01 X112.7804 Y77.3630
G01 X112.7926 Y77.3412
G01 X112.8039 Y77.3191
G01 X112.8118 Y77.3025
G01 X112.8170 Y77.2910
G01 X112.8289 Y77.2627
G01 X112.8418 Y77.2275
G01 X112.8528 Y77.1922
G01 X112.8606 Y77.1625
G01 X112.8635 Y77.1502
G01 X112.8673 Y77.1322
G01 X112.8718 Y77.1078
G01 X112.8762 Y77.0770
G01 X112.8782 Y77.0587
G01 X112.8803 Y77.0341
G01 X112.8812 Y77.0157
G01 X112.8818 Y76.9938
G01 X112.8819 Y54.1399
G01 X112.8809 Y54.1024
G01 X112.8782 Y54.0657
G01 X112.8762 Y54.0474
G01 X112.8736 Y54.0286
G01 X112.8673 Y53.9923
G01 X112.8591 Y53.9558
G01 X112.8493 Y53.9203
G01 X112.8437 Y53.9027
G01 X112.8375 Y53.8848
G01 X112.8243 Y53.8504
G01 X112.8091 Y53.8162
G01 X112.8010 Y53.7996
G01 X112.7837 Y53.7672
G01 X112.7741 Y53.7507
G01 X112.7544 Y53.7196
G01 X112.7332 Y53.6895
G01 X112.7217 Y53.6744
G01 X112.6983 Y53.6459
G01 X112.6857 Y53.6317
G01 X112.6603 Y53.6050
G01 X112.6337 Y53.5796
G01 X112.6194 Y53.5670
G01 X112.5910 Y53.5437
G01 X112.5758 Y53.5322
G01 X112.5457 Y53.5110
G01 X112.5141 Y53.4910
G01 X112.4821 Y53.4728
G01 X112.4492 Y53.4563
G01 X112.4319 Y53.4483
G01 X112.3979 Y53.4342
G01 X112.3800 Y53.4276
G01 X112.3451 Y53.4161
G01 X112.3096 Y53.4062
G01 X112.2911 Y53.4018
G01 X112.2550 Y53.3947
G01 X112.2362 Y53.3916
G01 X112.1997 Y53.3871
G01 X112.1629 Y53.3844
G01 X112.1439 Y53.3837
G01 X112.1071 Y53.3837
G01 X112.0881 Y53.3844
G01 X112.0514 Y53.3871
G01 X112.0148 Y53.3916
G01 X111.9961 Y53.3947
G01 X111.9599 Y53.4018
G01 X111.9414 Y53.4062
G01 X111.9060 Y53.4161
G01 X111.8710 Y53.4276
G01 X111.8532 Y53.4342
G01 X111.8192 Y53.4483
G01 X111.8019 Y53.4563
G01 X111.7690 Y53.4728
G01 X111.7369 Y53.4910
G01 X111.7207 Y53.5009
G01 X111.6901 Y53.5214
G01 X111.6747 Y53.5325
G01 X111.6457 Y53.5552
G01 X111.6178 Y53.5792
G01 X111.5907 Y53.6050
G01 X111.5653 Y53.6317
G01 X111.5527 Y53.6459
G01 X111.5293 Y53.6744
G01 X111.5178 Y53.6895
G01 X111.4966 Y53.7196
G01 X111.4769 Y53.7507
G01 X111.4673 Y53.7672
G01 X111.4500 Y53.7996
G01 X111.4417 Y53.8168
G01 X111.4267 Y53.8504
G01 X111.4135 Y53.8848
G01 X111.4073 Y53.9027
G01 X111.3966 Y53.9380
G01 X111.3918 Y53.9564
G01 X111.3837 Y53.9923
G01 X111.3774 Y54.0286
G01 X111.3748 Y54.0474
G01 X111.3712 Y54.0841
G01 X111.3697 Y54.1122
G01 X111.3692 Y54.1399
G01 X111.3692 Y76.5479
G01 X21.8255 Y128.2450
G01 X2.7627 Y117.2661
G01 X2.7627 Y13.8708
G01 X22.2038 Y2.6616
G01 X22.2274 Y2.6474
G01 X22.2511 Y2.6319
G01 X22.2810 Y2.6105
G01 X22.3103 Y2.5873
G01 X22.3380 Y2.5630
G01 X22.3650 Y2.5370
G01 X22.3901 Y2.5101
G01 X22.4144 Y2.4816
G01 X22.4368 Y2.4524
G01 X22.4581 Y2.4216
G01 X22.4776 Y2.3904
G01 X22.4958 Y2.3577
G01 X22.5121 Y2.3247
G01 X22.5270 Y2.2903
G01 X22.5400 Y2.2559
G01 X22.5515 Y2.2203
G01 X22.5610 Y2.1847
G01 X22.5652 Y2.1662
G01 X22.5722 Y2.1300
G01 X22.5774 Y2.0929
G01 X22.5807 Y2.0563
G01 X22.5822 Y2.0189
G01 X22.5819 Y1.9820
G01 X22.5798 Y1.9447
G01 X22.5759 Y1.9081
G01 X22.5701 Y1.8711
G01 X22.5627 Y1.8350
G01 X22.5535 Y1.7994
G01 X22.5423 Y1.7636
G01 X22.5297 Y1.7291
G01 X22.5151 Y1.6946
G01 X22.4991 Y1.6614
G01 X22.4812 Y1.6286
G01 X22.4621 Y1.5971
G01 X22.4516 Y1.5812
G01 X22.4301 Y1.5513
G01 X22.4069 Y1.5220
G01 X22.3826 Y1.4943
G01 X22.3566 Y1.4674
G01 X22.3298 Y1.4422
G01 X22.3012 Y1.4180
G01 X22.2720 Y1.3955
G01 X22.2413 Y1.3742
G01 X22.2100 Y1.3547
G01 X22.1773 Y1.3365
G01 X22.1443 Y1.3202
G01 X22.1100 Y1.3053
G01 X22.0755 Y1.2923
G01 X22.0399 Y1.2809
G01 X22.0043 Y1.2713
G01 X21.9858 Y1.2671
G01 X21.9496 Y1.2602
G01 X21.9125 Y1.2550
G01 X21.8759 Y1.2516
G01 X21.8391 Y1.2501
G01 X21.8017 Y1.2504
G01 X21.7649 Y1.2525
G01 X21.7277 Y1.2564
G01 X21.6913 Y1.2621
G01 X21.6547 Y1.2697
G01 X21.6190 Y1.2789
G01 X21.5833 Y1.2900
G01 X21.5487 Y1.3027
G01 X21.5142 Y1.3172
G01 X21.4811 Y1.3332
G01 X21.4482 Y1.3511
G01 X1.6206 Y12.7832
G01 X1.6016 Y12.7949
G01 X1.5861 Y12.8049
G01 X1.5662 Y12.8188
G01 X1.5513 Y12.8297
G01 X1.5409 Y12.8376
G01 X1.5171 Y12.8570
G01 X1.4943 Y12.8772
G01 X1.4847 Y12.8861
G01 X1.4715 Y12.8990
G01 X1.4546 Y12.9165
G01 X1.4377 Y12.9351
G01 X1.4217 Y12.9540
G01 X1.4066 Y12.9730
G01 X1.3955 Y12.9878
G01 X1.3775 Y13.0136
G01 X1.3643 Y13.0340
G01 X1.3548 Y13.0498
G01 X1.3393 Y13.0773
G01 X1.3282 Y13.0989
G01 X1.3202 Y13.1155
G01 X1.3148 Y13.1274
G01 X1.3031 Y13.1555
G01 X1.2901 Y13.1907
G01 X1.2791 Y13.2260
G01 X1.2713 Y13.2555
G01 X1.2683 Y13.2682
G01 X1.2645 Y13.2863
G01 X1.2602 Y13.3102
G01 X1.2557 Y13.3414
G01 X1.2526 Y13.3717
G01 X1.2507 Y13.4023
G01 X1.2500 Y13.4338
G01 X1.2500 Y117.7034
G00 X1.2500 Y117.7034
G01 F250.00
G01 Z-0.8000
G01 F2500.00
G01 X1.2504 Y117.7283
G01 X1.2517 Y117.7536
G01 X1.2536 Y117.7775
G01 X1.2565 Y117.8023
G01 X1.2602 Y117.8274
G01 X1.2645 Y117.8509
G01 X1.2698 Y117.8753
G01 X1.2760 Y117.8999
G01 X1.2826 Y117.9229
G01 X1.2903 Y117.9471
G01 X1.2988 Y117.9705
G01 X1.3076 Y117.9928
G01 X1.3177 Y118.0161
G01 X1.3284 Y118.0386
G01 X1.3393 Y118.0599
G01 X1.3516 Y118.0821
G01 X1.3645 Y118.1034
G01 X1.3775 Y118.1236
G01 X1.3919 Y118.1444
G01 X1.4068 Y118.1644
G01 X1.4217 Y118.1832
G01 X1.4381 Y118.2025
G01 X1.4549 Y118.2210
G01 X1.4715 Y118.2382
G01 X1.4898 Y118.2558
G01 X1.5083 Y118.2725
G01 X1.5265 Y118.2880
G01 X1.5464 Y118.3038
G01 X1.5664 Y118.3186
G01 X1.5861 Y118.3322
G01 X1.6075 Y118.3460
G01 X1.6289 Y118.3588
G01 X21.4565 Y129.7781
G01 X21.4750 Y129.7881
G01 X21.5029 Y129.8020
G01 X21.5146 Y129.8074
G01 X21.5424 Y129.8193
G01 X21.5595 Y129.8260
G01 X21.5836 Y129.8346
G01 X21.6125 Y129.8437
G01 X21.6425 Y129.8519
G01 X21.6550 Y129.8549
G01 X21.6846 Y129.8611
G01 X21.7028 Y129.8644
G01 X21.7281 Y129.8681
G01 X21.7524 Y129.8709
G01 X21.7765 Y129.8728
G01 X21.8020 Y129.8741
G01 X21.8323 Y129.8744
G01 X21.8507 Y129.8741
G01 X21.8762 Y129.8728
G01 X21.9003 Y129.8708
G01 X21.9247 Y129.8680
G01 X21.9500 Y129.8642
G01 X21.9737 Y129.8599
G01 X21.9977 Y129.8547
G01 X22.0225 Y129.8485
G01 X22.0457 Y129.8418
G01 X22.0691 Y129.8343
G01 X22.0932 Y129.8257
G01 X22.1156 Y129.8168
G01 X22.1381 Y129.8071
G01 X22.1612 Y129.7961
G01 X22.1830 Y129.7849
G01 X22.2041 Y129.7731
G01 X112.5037 Y77.6396
G01 X112.5303 Y77.6235
G01 X112.5560 Y77.6065
G01 X112.5861 Y77.5845
G01 X112.6148 Y77.5614
G01 X112.6424 Y77.5368
G01 X112.6691 Y77.5105
G01 X112.6900 Y77.4881
G01 X112.6983 Y77.4785
G01 X112.7102 Y77.4644
G01 X112.7256 Y77.4451
G01 X112.7440 Y77.4200
G01 X112.7544 Y77.4048
G01 X112.7678 Y77.3840
G01 X112.7804 Y77.3630
G01 X112.7926 Y77.3412
G01 X112.8039 Y77.3191
G01 X112.8118 Y77.3025
G01 X112.8170 Y77.2910
G01 X112.8289 Y77.2627
G01 X112.8418 Y77.2275
G01 X112.8528 Y77.1922
G01 X112.8606 Y77.1625
G01 X112.8635 Y77.1502
G01 X112.8673 Y77.1322
G01 X112.8718 Y77.1078
G01 X112.8762 Y77.0770
G01 X112.8782 Y77.0587
G01 X112.8803 Y77.0341
G01 X112.8812 Y77.0157
G01 X112.8818 Y76.9938
G01 X112.8819 Y54.1399
G01 X112.8809 Y54.1024
G01 X112.8782 Y54.0657
G01 X112.8762 Y54.0474
G01 X112.8736 Y54.0286
G01 X112.8673 Y53.9923
G01 X112.8591 Y53.9558
G01 X112.8493 Y53.9203
G01 X112.8437 Y53.9027
G01 X112.8375 Y53.8848
G01 X112.8243 Y53.8504
G01 X112.8091 Y53.8162
G01 X112.8010 Y53.7996
G01 X112.7837 Y53.7672
G01 X112.7741 Y53.7507
G01 X112.7544 Y53.7196
G01 X112.7332 Y53.6895
G01 X112.7217 Y53.6744
G01 X112.6983 Y53.6459
G01 X112.6857 Y53.6317
G01 X112.6603 Y53.6050
G01 X112.6337 Y53.5796
G01 X112.6194 Y53.5670
G01 X112.5910 Y53.5437
G01 X112.5758 Y53.5322
G01 X112.5457 Y53.5110
G01 X112.5141 Y53.4910
G01 X112.4821 Y53.4728
G01 X112.4492 Y53.4563
G01 X112.4319 Y53.4483
G01 X112.3979 Y53.4342
G01 X112.3800 Y53.4276
G01 X112.3451 Y53.4161
G01 X112.3096 Y53.4062
G01 X112.2911 Y53.4018
G01 X112.2550 Y53.3947
G01 X112.2362 Y53.3916
G01 X112.1997 Y53.3871
G01 X112.1629 Y53.3844
G01 X112.1439 Y53.3837
G01 X112.1071 Y53.3837
G01 X112.0881 Y53.3844
G01 X112.0514 Y53.3871
G01 X112.0148 Y53.3916
G01 X111.9961 Y53.3947
G01 X111.9599 Y53.4018
G01 X111.9414 Y53.4062
G01 X111.9060 Y53.4161
G01 X111.8710 Y53.4276
G01 X111.8532 Y53.4342
G01 X111.8192 Y53.4483
G01 X111.8019 Y53.4563
G01 X111.7690 Y53.4728
G01 X111.7369 Y53.4910
G01 X111.7207 Y53.5009
G01 X111.6901 Y53.5214
G01 X111.6747 Y53.5325
G01 X111.6457 Y53.5552
G01 X111.6178 Y53.5792
G01 X111.5907 Y53.6050
G01 X111.5653 Y53.6317
G01 X111.5527 Y53.6459
G01 X111.5293 Y53.6744
G01 X111.5178 Y53.6895
G01 X111.4966 Y53.7196
G01 X111.4769 Y53.7507
G01 X111.4673 Y53.7672
G01 X111.4500 Y53.7996
G01 X111.4417 Y53.8168
G01 X111.4267 Y53.8504
G01 X111.4135 Y53.8848
G01 X111.4073 Y53.9027
G01 X111.3966 Y53.9380
G01 X111.3918 Y53.9564
G01 X111.3837 Y53.9923
G01 X111.3774 Y54.0286
G01 X111.3748 Y54.0474
G01 X111.3712 Y54.0841
G01 X111.3697 Y54.1122
G01 X111.3692 Y54.1399
G01 X111.3692 Y76.5479
G01 X21.8255 Y128.2450
G01 X2.7627 Y117.2661
G01 X2.7627 Y13.8708
G01 X22.2038 Y2.6616
G01 X22.2274 Y2.6474
G01 X22.2511 Y2.6319
G01 X22.2810 Y2.6105
G01 X22.3103 Y2.5873
G01 X22.3380 Y2.5630
G01 X22.3650 Y2.5370
G01 X22.3901 Y2.5101
G01 X22.4144 Y2.4816
G01 X22.4368 Y2.4524
G01 X22.4581 Y2.4216
G01 X22.4776 Y2.3904
G01 X22.4958 Y2.3577
G01 X22.5121 Y2.3247
G01 X22.5270 Y2.2903
G01 X22.5400 Y2.2559
G01 X22.5515 Y2.2203
G01 X22.5610 Y2.1847
G01 X22.5652 Y2.1662
G01 X22.5722 Y2.1300
G01 X22.5774 Y2.0929
G01 X22.5807 Y2.0563
G01 X22.5822 Y2.0189
G01 X22.5819 Y1.9820
G01 X22.5798 Y1.9447
G01 X22.5759 Y1.9081
G01 X22.5701 Y1.8711
G01 X22.5627 Y1.8350
G01 X22.5535 Y1.7994
G01 X22.5423 Y1.7636
G01 X22.5297 Y1.7291
G01 X22.5151 Y1.6946
G01 X22.4991 Y1.6614
G01 X22.4812 Y1.6286
G01 X22.4621 Y1.5971
G01 X22.4516 Y1.5812
G01 X22.4301 Y1.5513
G01 X22.4069 Y1.5220
G01 X22.3826 Y1.4943
G01 X22.3566 Y1.4674
G01 X22.3298 Y1.4422
G01 X22.3012 Y1.4180
G01 X22.2720 Y1.3955
G01 X22.2413 Y1.3742
G01 X22.2100 Y1.3547
G01 X22.1773 Y1.3365
G01 X22.1443 Y1.3202
G01 X22.1100 Y1.3053
G01 X22.0755 Y1.2923
G01 X22.0399 Y1.2809
G01 X22.0043 Y1.2713
G01 X21.9858 Y1.2671
G01 X21.9496 Y1.2602
G01 X21.9125 Y1.2550
G01 X21.8759 Y1.2516
G01 X21.8391 Y1.2501
G01 X21.8017 Y1.2504
G01 X21.7649 Y1.2525
G01 X21.7277 Y1.2564
G01 X21.6913 Y1.2621
G01 X21.6547 Y1.2697
G01 X21.6190 Y1.2789
G01 X21.5833 Y1.2900
G01 X21.5487 Y1.3027
G01 X21.5142 Y1.3172
G01 X21.4811 Y1.3332
G01 X21.4482 Y1.3511
G01 X1.6206 Y12.7832
G01 X1.6016 Y12.7949
G01 X1.5861 Y12.8049
G01 X1.5662 Y12.8188
G01 X1.5513 Y12.8297
G01 X1.5409 Y12.8376
G01 X1.5171 Y12.8570
G01 X1.4943 Y12.8772
G01 X1.4847 Y12.8861
G01 X1.4715 Y12.8990
G01 X1.4546 Y12.9165
G01 X1.4377 Y12.9351
G01 X1.4217 Y12.9540
G01 X1.4066 Y12.9730
G01 X1.3955 Y12.9878
G01 X1.3775 Y13.0136
G01 X1.3643 Y13.0340
G01 X1.3548 Y13.0498
G01 X1.3393 Y13.0773
G01 X1.3282 Y13.0989
G01 X1.3202 Y13.1155
G01 X1.3148 Y13.1274
G01 X1.3031 Y13.1555
G01 X1.2901 Y13.1907
G01 X1.2791 Y13.2260
G01 X1.2713 Y13.2555
G01 X1.2683 Y13.2682
G01 X1.2645 Y13.2863
G01 X1.2602 Y13.3102
G01 X1.2557 Y13.3414
G01 X1.2526 Y13.3717
G01 X1.2507 Y13.4023
G01 X1.2500 Y13.4338
G01 X1.2500 Y117.7034
G00 X1.2500 Y117.7034
G01 F250.00
G01 Z-0.9000
G01 F2500.00
G01 X1.2504 Y117.7283
G01 X1.2517 Y117.7536
G01 X1.2536 Y117.7775
G01 X1.2565 Y117.8023
G01 X1.2602 Y117.8274
G01 X1.2645 Y117.8509
G01 X1.2698 Y117.8753
G01 X1.2760 Y117.8999
G01 X1.2826 Y117.9229
G01 X1.2903 Y117.9471
G01 X1.2988 Y117.9705
G01 X1.3076 Y117.9928
G01 X1.3177 Y118.0161
G01 X1.3284 Y118.0386
G01 X1.3393 Y118.0599
G01 X1.3516 Y118.0821
G01 X1.3645 Y118.1034
G01 X1.3775 Y118.1236
G01 X1.3919 Y118.1444
G01 X1.4068 Y118.1644
G01 X1.4217 Y118.1832
G01 X1.4381 Y118.2025
G01 X1.4549 Y118.2210
G01 X1.4715 Y118.2382
G01 X1.4898 Y118.2558
G01 X1.5083 Y118.2725
G01 X1.5265 Y118.2880
G01 X1.5464 Y118.3038
G01 X1.5664 Y118.3186
G01 X1.5861 Y118.3322
G01 X1.6075 Y118.3460
G01 X1.6289 Y118.3588
G01 X21.4565 Y129.7781
G01 X21.4750 Y129.7881
G01 X21.5029 Y129.8020
G01 X21.5146 Y129.8074
G01 X21.5424 Y129.8193
G01 X21.5595 Y129.8260
G01 X21.5836 Y129.8346
G01 X21.6125 Y129.8437
G01 X21.6425 Y129.8519
G01 X21.6550 Y129.8549
G01 X21.6846 Y129.8611
G01 X21.7028 Y129.8644
G01 X21.7281 Y129.8681
G01 X21.7524 Y129.8709
G01 X21.7765 Y129.8728
G01 X21.8020 Y129.8741
G01 X21.8323 Y129.8744
G01 X21.8507 Y129.8741
G01 X21.8762 Y129.8728
G01 X21.9003 Y129.8708
G01 X21.9247 Y129.8680
G01 X21.9500 Y129.8642
G01 X21.9737 Y129.8599
G01 X21.9977 Y129.8547
G01 X22.0225 Y129.8485
G01 X22.0457 Y129.8418
G01 X22.0691 Y129.8343
G01 X22.0932 Y129.8257
G01 X22.1156 Y129.8168
G01 X22.1381 Y129.8071
G01 X22.1612 Y129.7961
G01 X22.1830 Y129.7849
G01 X22.2041 Y129.7731
G01 X112.5037 Y77.6396
G01 X112.5303 Y77.6235
G01 X112.5560 Y77.6065
G01 X112.5861 Y77.5845
G01 X112.6148 Y77.5614
G01 X112.6424 Y77.5368
G01 X112.6691 Y77.5105
G01 X112.6900 Y77.4881
G01 X112.6983 Y77.4785
G01 X112.7102 Y77.4644
G01 X112.7256 Y77.4451
G01 X112.7440 Y77.4200
G01 X112.7544 Y77.4048
G01 X112.7678 Y77.3840
G01 X112.7804 Y77.3630
G01 X112.7926 Y77.3412
G01 X112.8039 Y77.3191
G01 X112.8118 Y77.3025
G01 X112.8170 Y77.2910
G01 X112.8289 Y77.2627
G01 X112.8418 Y77.2275
G01 X112.8528 Y77.1922
G01 X112.8606 Y77.1625
G01 X112.8635 Y77.1502
G01 X112.8673 Y77.1322
G01 X112.8718 Y77.1078
G01 X112.8762 Y77.0770
G01 X112.8782 Y77.0587
G01 X112.8803 Y77.0341
G01 X112.8812 Y77.0157
G01 X112.8818 Y76.9938
G01 X112.8819 Y54.1399
G01 X112.8809 Y54.1024
G01 X112.8782 Y54.0657
G01 X112.8762 Y54.0474
G01 X112.8736 Y54.0286
G01 X112.8673 Y53.9923
G01 X112.8591 Y53.9558
G01 X112.8493 Y53.9203
G01 X112.8437 Y53.9027
G01 X112.8375 Y53.8848
G01 X112.8243 Y53.8504
G01 X112.8091 Y53.8162
G01 X112.8010 Y53.7996
G01 X112.7837 Y53.7672
G01 X112.7741 Y53.7507
G01 X112.7544 Y53.7196
G01 X112.7332 Y53.6895
G01 X112.7217 Y53.6744
G01 X112.6983 Y53.6459
G01 X112.6857 Y53.6317
G01 X112.6603 Y53.6050
G01 X112.6337 Y53.5796
G01 X112.6194 Y53.5670
G01 X112.5910 Y53.5437
G01 X112.5758 Y53.5322
G01 X112.5457 Y53.5110
G01 X112.5141 Y53.4910
G01 X112.4821 Y53.4728
G01 X112.4492 Y53.4563
G01 X112.4319 Y53.4483
G01 X112.3979 Y53.4342
G01 X112.3800 Y53.4276
G01 X112.3451 Y53.4161
G01 X112.3096 Y53.4062
G01 X112.2911 Y53.4018
G01 X112.2550 Y53.3947
G01 X112.2362 Y53.3916
G01 X112.1997 Y53.3871
G01 X112.1629 Y53.3844
G01 X112.1439 Y53.3837
G01 X112.1071 Y53.3837
G01 X112.0881 Y53.3844
G01 X112.0514 Y53.3871
G01 X112.0148 Y53.3916
G01 X111.9961 Y53.3947
G01 X111.9599 Y53.4018
G01 X111.9414 Y53.4062
G01 X111.9060 Y53.4161
G01 X111.8710 Y53.4276
G01 X111.8532 Y53.4342
G01 X111.8192 Y53.4483
G01 X111.8019 Y53.4563
G01 X111.7690 Y53.4728
G01 X111.7369 Y53.4910
G01 X111.7207 Y53.5009
G01 X111.6901 Y53.5214
G01 X111.6747 Y53.5325
G01 X111.6457 Y53.5552
G01 X111.6178 Y53.5792
G01 X111.5907 Y53.6050
G01 X111.5653 Y53.6317
G01 X111.5527 Y53.6459
G01 X111.5293 Y53.6744
G01 X111.5178 Y53.6895
G01 X111.4966 Y53.7196
G01 X111.4769 Y53.7507
G01 X111.4673 Y53.7672
G01 X111.4500 Y53.7996
G01 X111.4417 Y53.8168
G01 X111.4267 Y53.8504
G01 X111.4135 Y53.8848
G01 X111.4073 Y53.9027
G01 X111.3966 Y53.9380
G01 X111.3918 Y53.9564
G01 X111.3837 Y53.9923
G01 X111.3774 Y54.0286
G01 X111.3748 Y54.0474
G01 X111.3712 Y54.0841
G01 X111.3697 Y54.1122
G01 X111.3692 Y54.1399
G01 X111.3692 Y76.5479
G01 X21.8255 Y128.2450
G01 X2.7627 Y117.2661
G01 X2.7627 Y13.8708
G01 X22.2038 Y2.6616
G01 X22.2274 Y2.6474
G01 X22.2511 Y2.6319
G01 X22.2810 Y2.6105
G01 X22.3103 Y2.5873
G01 X22.3380 Y2.5630
G01 X22.3650 Y2.5370
G01 X22.3901 Y2.5101
G01 X22.4144 Y2.4816
G01 X22.4368 Y2.4524
G01 X22.4581 Y2.4216
G01 X22.4776 Y2.3904
G01 X22.4958 Y2.3577
G01 X22.5121 Y2.3247
G01 X22.5270 Y2.2903
G01 X22.5400 Y2.2559
G01 X22.5515 Y2.2203
G01 X22.5610 Y2.1847
G01 X22.5652 Y2.1662
G01 X22.5722 Y2.1300
G01 X22.5774 Y2.0929
G01 X22.5807 Y2.0563
G01 X22.5822 Y2.0189
G01 X22.5819 Y1.9820
G01 X22.5798 Y1.9447
G01 X22.5759 Y1.9081
G01 X22.5701 Y1.8711
G01 X22.5627 Y1.8350
G01 X22.5535 Y1.7994
G01 X22.5423 Y1.7636
G01 X22.5297 Y1.7291
G01 X22.5151 Y1.6946
G01 X22.4991 Y1.6614
G01 X22.4812 Y1.6286
G01 X22.4621 Y1.5971
G01 X22.4516 Y1.5812
G01 X22.4301 Y1.5513
G01 X22.4069 Y1.5220
G01 X22.3826 Y1.4943
G01 X22.3566 Y1.4674
G01 X22.3298 Y1.4422
G01 X22.3012 Y1.4180
G01 X22.2720 Y1.3955
G01 X22.2413 Y1.3742
G01 X22.2100 Y1.3547
G01 X22.1773 Y1.3365
G01 X22.1443 Y1.3202
G01 X22.1100 Y1.3053
G01 X22.0755 Y1.2923
G01 X22.0399 Y1.2809
G01 X22.0043 Y1.2713
G01 X21.9858 Y1.2671
G01 X21.9496 Y1.2602
G01 X21.9125 Y1.2550
G01 X21.8759 Y1.2516
G01 X21.8391 Y1.2501
G01 X21.8017 Y1.2504
G01 X21.7649 Y1.2525
G01 X21.7277 Y1.2564
G01 X21.6913 Y1.2621
G01 X21.6547 Y1.2697
G01 X21.6190 Y1.2789
G01 X21.5833 Y1.2900
G01 X21.5487 Y1.3027
G01 X21.5142 Y1.3172
G01 X21.4811 Y1.3332
G01 X21.4482 Y1.3511
G01 X1.6206 Y12.7832
G01 X1.6016 Y12.7949
G01 X1.5861 Y12.8049
G01 X1.5662 Y12.8188
G01 X1.5513 Y12.8297
G01 X1.5409 Y12.8376
G01 X1.5171 Y12.8570
G01 X1.4943 Y12.8772
G01 X1.4847 Y12.8861
G01 X1.4715 Y12.8990
G01 X1.4546 Y12.9165
G01 X1.4377 Y12.9351
G01 X1.4217 Y12.9540
G01 X1.4066 Y12.9730
G01 X1.3955 Y12.9878
G01 X1.3775 Y13.0136
G01 X1.3643 Y13.0340
G01 X1.3548 Y13.0498
G01 X1.3393 Y13.0773
G01 X1.3282 Y13.0989
G01 X1.3202 Y13.1155
G01 X1.3148 Y13.1274
G01 X1.3031 Y13.1555
G01 X1.2901 Y13.1907
G01 X1.2791 Y13.2260
G01 X1.2713 Y13.2555
G01 X1.2683 Y13.2682
G01 X1.2645 Y13.2863
G01 X1.2602 Y13.3102
G01 X1.2557 Y13.3414
G01 X1.2526 Y13.3717
G01 X1.2507 Y13.4023
G01 X1.2500 Y13.4338
G01 X1.2500 Y117.7034
G00 X1.2500 Y117.7034
G01 F250.00
G01 Z-1.0000
G01 F2500.00
G01 X1.2504 Y117.7283
G01 X1.2517 Y117.7536
G01 X1.2536 Y117.7775
G01 X1.2565 Y117.8023
G01 X1.2602 Y117.8274
G01 X1.2645 Y117.8509
G01 X1.2698 Y117.8753
G01 X1.2760 Y117.8999
G01 X1.2826 Y117.9229
G01 X1.2903 Y117.9471
G01 X1.2988 Y117.9705
G01 X1.3076 Y117.9928
G01 X1.3177 Y118.0161
G01 X1.3284 Y118.0386
G01 X1.3393 Y118.0599
G01 X1.3516 Y118.0821
G01 X1.3645 Y118.1034
G01 X1.3775 Y118.1236
G01 X1.3919 Y118.1444
G01 X1.4068 Y118.1644
G01 X1.4217 Y118.1832
G01 X1.4381 Y118.2025
G01 X1.4549 Y118.2210
G01 X1.4715 Y118.2382
G01 X1.4898 Y118.2558
G01 X1.5083 Y118.2725
G01 X1.5265 Y118.2880
G01 X1.5464 Y118.3038
G01 X1.5664 Y118.3186
G01 X1.5861 Y118.3322
G01 X1.6075 Y118.3460
G01 X1.6289 Y118.3588
G01 X21.4565 Y129.7781
G01 X21.4750 Y129.7881
G01 X21.5029 Y129.8020
G01 X21.5146 Y129.8074
G01 X21.5424 Y129.8193
G01 X21.5595 Y129.8260
G01 X21.5836 Y129.8346
G01 X21.6125 Y129.8437
G01 X21.6425 Y129.8519
G01 X21.6550 Y129.8549
G01 X21.6846 Y129.8611
G01 X21.7028 Y129.8644
G01 X21.7281 Y129.8681
G01 X21.7524 Y129.8709
G01 X21.7765 Y129.8728
G01 X21.8020 Y129.8741
G01 X21.8323 Y129.8744
G01 X21.8507 Y129.8741
G01 X21.8762 Y129.8728
G01 X21.9003 Y129.8708
G01 X21.9247 Y129.8680
G01 X21.9500 Y129.8642
G01 X21.9737 Y129.8599
G01 X21.9977 Y129.8547
G01 X22.0225 Y129.8485
G01 X22.0457 Y129.8418
G01 X22.0691 Y129.8343
G01 X22.0932 Y129.8257
G01 X22.1156 Y129.8168
G01 X22.1381 Y129.8071
G01 X22.1612 Y129.7961
G01 X22.1830 Y129.7849
G01 X22.2041 Y129.7731
G01 X112.5037 Y77.6396
G01 X112.5303 Y77.6235
G01 X112.5560 Y77.6065
G01 X112.5861 Y77.5845
G01 X112.6148 Y77.5614
G01 X112.6424 Y77.5368
G01 X112.6691 Y77.5105
G01 X112.6900 Y77.4881
G01 X112.6983 Y77.4785
G01 X112.7102 Y77.4644
G01 X112.7256 Y77.4451
G01 X112.7440 Y77.4200
G01 X112.7544 Y77.4048
G01 X112.7678 Y77.3840
G01 X112.7804 Y77.3630
G01 X112.7926 Y77.3412
G01 X112.8039 Y77.3191
G01 X112.8118 Y77.3025
G01 X112.8170 Y77.2910
G01 X112.8289 Y77.2627
G01 X112.8418 Y77.2275
G01 X112.8528 Y77.1922
G01 X112.8606 Y77.1625
G01 X112.8635 Y77.1502
G01 X112.8673 Y77.1322
G01 X112.8718 Y77.1078
G01 X112.8762 Y77.0770
G01 X112.8782 Y77.0587
G01 X112.8803 Y77.0341
G01 X112.8812 Y77.0157
G01 X112.8818 Y76.9938
G01 X112.8819 Y54.1399
G01 X112.8809 Y54.1024
G01 X112.8782 Y54.0657
G01 X112.8762 Y54.0474
G01 X112.8736 Y54.0286
G01 X112.8673 Y53.9923
G01 X112.8591 Y53.9558
G01 X112.8493 Y53.9203
G01 X112.8437 Y53.9027
G01 X112.8375 Y53.8848
G01 X112.8243 Y53.8504
G01 X112.8091 Y53.8162
G01 X112.8010 Y53.7996
G01 X112.7837 Y53.7672
G01 X112.7741 Y53.7507
G01 X112.7544 Y53.7196
G01 X112.7332 Y53.6895
G01 X112.7217 Y53.6744
G01 X112.6983 Y53.6459
G01 X112.6857 Y53.6317
G01 X112.6603 Y53.6050
G01 X112.6337 Y53.5796
G01 X112.6194 Y53.5670
G01 X112.5910 Y53.5437
G01 X112.5758 Y53.5322
G01 X112.5457 Y53.5110
G01 X112.5141 Y53.4910
G01 X112.4821 Y53.4728
G01 X112.4492 Y53.4563
G01 X112.4319 Y53.4483
G01 X112.3979 Y53.4342
G01 X112.3800 Y53.4276
G01 X112.3451 Y53.4161
G01 X112.3096 Y53.4062
G01 X112.2911 Y53.4018
G01 X112.2550 Y53.3947
G01 X112.2362 Y53.3916
G01 X112.1997 Y53.3871
G01 X112.1629 Y53.3844
G01 X112.1439 Y53.3837
G01 X112.1071 Y53.3837
G01 X112.0881 Y53.3844
G01 X112.0514 Y53.3871
G01 X112.0148 Y53.3916
G01 X111.9961 Y53.3947
G01 X111.9599 Y53.4018
G01 X111.9414 Y53.4062
G01 X111.9060 Y53.4161
G01 X111.8710 Y53.4276
G01 X111.8532 Y53.4342
G01 X111.8192 Y53.4483
G01 X111.8019 Y53.4563
G01 X111.7690 Y53.4728
G01 X111.7369 Y53.4910
G01 X111.7207 Y53.5009
G01 X111.6901 Y53.5214
G01 X111.6747 Y53.5325
G01 X111.6457 Y53.5552
G01 X111.6178 Y53.5792
G01 X111.5907 Y53.6050
G01 X111.5653 Y53.6317
G01 X111.5527 Y53.6459
G01 X111.5293 Y53.6744
G01 X111.5178 Y53.6895
G01 X111.4966 Y53.7196
G01 X111.4769 Y53.7507
G01 X111.4673 Y53.7672
G01 X111.4500 Y53.7996
G01 X111.4417 Y53.8168
G01 X111.4267 Y53.8504
G01 X111.4135 Y53.8848
G01 X111.4073 Y53.9027
G01 X111.3966 Y53.9380
G01 X111.3918 Y53.9564
G01 X111.3837 Y53.9923
G01 X111.3774 Y54.0286
G01 X111.3748 Y54.0474
G01 X111.3712 Y54.0841
G01 X111.3697 Y54.1122
G01 X111.3692 Y54.1399
G01 X111.3692 Y76.5479
G01 X21.8255 Y128.2450
G01 X2.7627 Y117.2661
G01 X2.7627 Y13.8708
G01 X22.2038 Y2.6616
G01 X22.2274 Y2.6474
G01 X22.2511 Y2.6319
G01 X22.2810 Y2.6105
G01 X22.3103 Y2.5873
G01 X22.3380 Y2.5630
G01 X22.3650 Y2.5370
G01 X22.3901 Y2.5101
G01 X22.4144 Y2.4816
G01 X22.4368 Y2.4524
G01 X22.4581 Y2.4216
G01 X22.4776 Y2.3904
G01 X22.4958 Y2.3577
G01 X22.5121 Y2.3247
G01 X22.5270 Y2.2903
G01 X22.5400 Y2.2559
G01 X22.5515 Y2.2203
G01 X22.5610 Y2.1847
G01 X22.5652 Y2.1662
G01 X22.5722 Y2.1300
G01 X22.5774 Y2.0929
G01 X22.5807 Y2.0563
G01 X22.5822 Y2.0189
G01 X22.5819 Y1.9820
G01 X22.5798 Y1.9447
G01 X22.5759 Y1.9081
G01 X22.5701 Y1.8711
G01 X22.5627 Y1.8350
G01 X22.5535 Y1.7994
G01 X22.5423 Y1.7636
G01 X22.5297 Y1.7291
G01 X22.5151 Y1.6946
G01 X22.4991 Y1.6614
G01 X22.4812 Y1.6286
G01 X22.4621 Y1.5971
G01 X22.4516 Y1.5812
G01 X22.4301 Y1.5513
G01 X22.4069 Y1.5220
G01 X22.3826 Y1.4943
G01 X22.3566 Y1.4674
G01 X22.3298 Y1.4422
G01 X22.3012 Y1.4180
G01 X22.2720 Y1.3955
G01 X22.2413 Y1.3742
G01 X22.2100 Y1.3547
G01 X22.1773 Y1.3365
G01 X22.1443 Y1.3202
G01 X22.1100 Y1.3053
G01 X22.0755 Y1.2923
G01 X22.0399 Y1.2809
G01 X22.0043 Y1.2713
G01 X21.9858 Y1.2671
G01 X21.9496 Y1.2602
G01 X21.9125 Y1.2550
G01 X21.8759 Y1.2516
G01 X21.8391 Y1.2501
G01 X21.8017 Y1.2504
G01 X21.7649 Y1.2525
G01 X21.7277 Y1.2564
G01 X21.6913 Y1.2621
G01 X21.6547 Y1.2697
G01 X21.6190 Y1.2789
G01 X21.5833 Y1.2900
G01 X21.5487 Y1.3027
G01 X21.5142 Y1.3172
G01 X21.4811 Y1.3332
G01 X21.4482 Y1.3511
G01 X1.6206 Y12.7832
G01 X1.6016 Y12.7949
G01 X1.5861 Y12.8049
G01 X1.5662 Y12.8188
G01 X1.5513 Y12.8297
G01 X1.5409 Y12.8376
G01 X1.5171 Y12.8570
G01 X1.4943 Y12.8772
G01 X1.4847 Y12.8861
G01 X1.4715 Y12.8990
G01 X1.4546 Y12.9165
G01 X1.4377 Y12.9351
G01 X1.4217 Y12.9540
G01 X1.4066 Y12.9730
G01 X1.3955 Y12.9878
G01 X1.3775 Y13.0136
G01 X1.3643 Y13.0340
G01 X1.3548 Y13.0498
G01 X1.3393 Y13.0773
G01 X1.3282 Y13.0989
G01 X1.3202 Y13.1155
G01 X1.3148 Y13.1274
G01 X1.3031 Y13.1555
G01 X1.2901 Y13.1907
G01 X1.2791 Y13.2260
G01 X1.2713 Y13.2555
G01 X1.2683 Y13.2682
G01 X1.2645 Y13.2863
G01 X1.2602 Y13.3102
G01 X1.2557 Y13.3414
G01 X1.2526 Y13.3717
G01 X1.2507 Y13.4023
G01 X1.2500 Y13.4338
G01 X1.2500 Y117.7034
G00 X1.2500 Y117.7034
G01 F250.00
G01 Z-1.1000
G01 F2500.00
G01 X1.2504 Y117.7283
G01 X1.2517 Y117.7536
G01 X1.2536 Y117.7775
G01 X1.2565 Y117.8023
G01 X1.2602 Y117.8274
G01 X1.2645 Y117.8509
G01 X1.2698 Y117.8753
G01 X1.2760 Y117.8999
G01 X1.2826 Y117.9229
G01 X1.2903 Y117.9471
G01 X1.2988 Y117.9705
G01 X1.3076 Y117.9928
G01 X1.3177 Y118.0161
G01 X1.3284 Y118.0386
G01 X1.3393 Y118.0599
G01 X1.3516 Y118.0821
G01 X1.3645 Y118.1034
G01 X1.3775 Y118.1236
G01 X1.3919 Y118.1444
G01 X1.4068 Y118.1644
G01 X1.4217 Y118.1832
G01 X1.4381 Y118.2025
G01 X1.4549 Y118.2210
G01 X1.4715 Y118.2382
G01 X1.4898 Y118.2558
G01 X1.5083 Y118.2725
G01 X1.5265 Y118.2880
G01 X1.5464 Y118.3038
G01 X1.5664 Y118.3186
G01 X1.5861 Y118.3322
G01 X1.6075 Y118.3460
G01 X1.6289 Y118.3588
G01 X21.4565 Y129.7781
G01 X21.4750 Y129.7881
G01 X21.5029 Y129.8020
G01 X21.5146 Y129.8074
G01 X21.5424 Y129.8193
G01 X21.5595 Y129.8260
G01 X21.5836 Y129.8346
G01 X21.6125 Y129.8437
G01 X21.6425 Y129.8519
G01 X21.6550 Y129.8549
G01 X21.6846 Y129.8611
G01 X21.7028 Y129.8644
G01 X21.7281 Y129.8681
G01 X21.7524 Y129.8709
G01 X21.7765 Y129.8728
G01 X21.8020 Y129.8741
G01 X21.8323 Y129.8744
G01 X21.8507 Y129.8741
G01 X21.8762 Y129.8728
G01 X21.9003 Y129.8708
G01 X21.9247 Y129.8680
G01 X21.9500 Y129.8642
G01 X21.9737 Y129.8599
G01 X21.9977 Y129.8547
G01 X22.0225 Y129.8485
G01 X22.0457 Y129.8418
G01 X22.0691 Y129.8343
G01 X22.0932 Y129.8257
G01 X22.1156 Y129.8168
G01 X22.1381 Y129.8071
G01 X22.1612 Y129.7961
G01 X22.1830 Y129.7849
G01 X22.2041 Y129.7731
G01 X112.5037 Y77.6396
G01 X112.5303 Y77.6235
G01 X112.5560 Y77.6065
G01 X112.5861 Y77.5845
G01 X112.6148 Y77.5614
G01 X112.6424 Y77.5368
G01 X112.6691 Y77.5105
G01 X112.6900 Y77.4881
G01 X112.6983 Y77.4785
G01 X112.7102 Y77.4644
G01 X112.7256 Y77.4451
G01 X112.7440 Y77.4200
G01 X112.7544 Y77.4048
G01 X112.7678 Y77.3840
G01 X112.7804 Y77.3630
G01 X112.7926 Y77.3412
G01 X112.8039 Y77.3191
G01 X112.8118 Y77.3025
G01 X112.8170 Y77.2910
G01 X112.8289 Y77.2627
G01 X112.8418 Y77.2275
G01 X112.8528 Y77.1922
G01 X112.8606 Y77.1625
G01 X112.8635 Y77.1502
G01 X112.8673 Y77.1322
G01 X112.8718 Y77.1078
G01 X112.8762 Y77.0770
G01 X112.8782 Y77.0587
G01 X112.8803 Y77.0341
G01 X112.8812 Y77.0157
G01 X112.8818 Y76.9938
G01 X112.8819 Y54.1399
G01 X112.8809 Y54.1024
G01 X112.8782 Y54.0657
G01 X112.8762 Y54.0474
G01 X112.8736 Y54.0286
G01 X112.8673 Y53.9923
G01 X112.8591 Y53.9558
G01 X112.8493 Y53.9203
G01 X112.8437 Y53.9027
G01 X112.8375 Y53.8848
G01 X112.8243 Y53.8504
G01 X112.8091 Y53.8162
G01 X112.8010 Y53.7996
G01 X112.7837 Y53.7672
G01 X112.7741 Y53.7507
G01 X112.7544 Y53.7196
G01 X112.7332 Y53.6895
G01 X112.7217 Y53.6744
G01 X112.6983 Y53.6459
G01 X112.6857 Y53.6317
G01 X112.6603 Y53.6050
G01 X112.6337 Y53.5796
G01 X112.6194 Y53.5670
G01 X112.5910 Y53.5437
G01 X112.5758 Y53.5322
G01 X112.5457 Y53.5110
G01 X112.5141 Y53.4910
G01 X112.4821 Y53.4728
G01 X112.4492 Y53.4563
G01 X112.4319 Y53.4483
G01 X112.3979 Y53.4342
G01 X112.3800 Y53.4276
G01 X112.3451 Y53.4161
G01 X112.3096 Y53.4062
G01 X112.2911 Y53.4018
G01 X112.2550 Y53.3947
G01 X112.2362 Y53.3916
G01 X112.1997 Y53.3871
G01 X112.1629 Y53.3844
G01 X112.1439 Y53.3837
G01 X112.1071 Y53.3837
G01 X112.0881 Y53.3844
G01 X112.0514 Y53.3871
G01 X112.0148 Y53.3916
G01 X111.9961 Y53.3947
G01 X111.9599 Y53.4018
G01 X111.9414 Y53.4062
G01 X111.9060 Y53.4161
G01 X111.8710 Y53.4276
G01 X111.8532 Y53.4342
G01 X111.8192 Y53.4483
G01 X111.8019 Y53.4563
G01 X111.7690 Y53.4728
G01 X111.7369 Y53.4910
G01 X111.7207 Y53.5009
G01 X111.6901 Y53.5214
G01 X111.6747 Y53.5325
G01 X111.6457 Y53.5552
G01 X111.6178 Y53.5792
G01 X111.5907 Y53.6050
G01 X111.5653 Y53.6317
G01 X111.5527 Y53.6459
G01 X111.5293 Y53.6744
G01 X111.5178 Y53.6895
G01 X111.4966 Y53.7196
G01 X111.4769 Y53.7507
G01 X111.4673 Y53.7672
G01 X111.4500 Y53.7996
G01 X111.4417 Y53.8168
G01 X111.4267 Y53.8504
G01 X111.4135 Y53.8848
G01 X111.4073 Y53.9027
G01 X111.3966 Y53.9380
G01 X111.3918 Y53.9564
G01 X111.3837 Y53.9923
G01 X111.3774 Y54.0286
G01 X111.3748 Y54.0474
G01 X111.3712 Y54.0841
G01 X111.3697 Y54.1122
G01 X111.3692 Y54.1399
G01 X111.3692 Y76.5479
G01 X21.8255 Y128.2450
G01 X2.7627 Y117.2661
G01 X2.7627 Y13.8708
G01 X22.2038 Y2.6616
G01 X22.2274 Y2.6474
G01 X22.2511 Y2.6319
G01 X22.2810 Y2.6105
G01 X22.3103 Y2.5873
G01 X22.3380 Y2.5630
G01 X22.3650 Y2.5370
G01 X22.3901 Y2.5101
G01 X22.4144 Y2.4816
G01 X22.4368 Y2.4524
G01 X22.4581 Y2.4216
G01 X22.4776 Y2.3904
G01 X22.4958 Y2.3577
G01 X22.5121 Y2.3247
G01 X22.5270 Y2.2903
G01 X22.5400 Y2.2559
G01 X22.5515 Y2.2203
G01 X22.5610 Y2.1847
G01 X22.5652 Y2.1662
G01 X22.5722 Y2.1300
G01 X22.5774 Y2.0929
G01 X22.5807 Y2.0563
G01 X22.5822 Y2.0189
G01 X22.5819 Y1.9820
G01 X22.5798 Y1.9447
G01 X22.5759 Y1.9081
G01 X22.5701 Y1.8711
G01 X22.5627 Y1.8350
G01 X22.5535 Y1.7994
G01 X22.5423 Y1.7636
G01 X22.5297 Y1.7291
G01 X22.5151 Y1.6946
G01 X22.4991 Y1.6614
G01 X22.4812 Y1.6286
G01 X22.4621 Y1.5971
G01 X22.4516 Y1.5812
G01 X22.4301 Y1.5513
G01 X22.4069 Y1.5220
G01 X22.3826 Y1.4943
G01 X22.3566 Y1.4674
G01 X22.3298 Y1.4422
G01 X22.3012 Y1.4180
G01 X22.2720 Y1.3955
G01 X22.2413 Y1.3742
G01 X22.2100 Y1.3547
G01 X22.1773 Y1.3365
G01 X22.1443 Y1.3202
G01 X22.1100 Y1.3053
G01 X22.0755 Y1.2923
G01 X22.0399 Y1.2809
G01 X22.0043 Y1.2713
G01 X21.9858 Y1.2671
G01 X21.9496 Y1.2602
G01 X21.9125 Y1.2550
G01 X21.8759 Y1.2516
G01 X21.8391 Y1.2501
G01 X21.8017 Y1.2504
G01 X21.7649 Y1.2525
G01 X21.7277 Y1.2564
G01 X21.6913 Y1.2621
G01 X21.6547 Y1.2697
G01 X21.6190 Y1.2789
G01 X21.5833 Y1.2900
G01 X21.5487 Y1.3027
G01 X21.5142 Y1.3172
G01 X21.4811 Y1.3332
G01 X21.4482 Y1.3511
G01 X1.6206 Y12.7832
G01 X1.6016 Y12.7949
G01 X1.5861 Y12.8049
G01 X1.5662 Y12.8188
G01 X1.5513 Y12.8297
G01 X1.5409 Y12.8376
G01 X1.5171 Y12.8570
G01 X1.4943 Y12.8772
G01 X1.4847 Y12.8861
G01 X1.4715 Y12.8990
G01 X1.4546 Y12.9165
G01 X1.4377 Y12.9351
G01 X1.4217 Y12.9540
G01 X1.4066 Y12.9730
G01 X1.3955 Y12.9878
G01 X1.3775 Y13.0136
G01 X1.3643 Y13.0340
G01 X1.3548 Y13.0498
G01 X1.3393 Y13.0773
G01 X1.3282 Y13.0989
G01 X1.3202 Y13.1155
G01 X1.3148 Y13.1274
G01 X1.3031 Y13.1555
G01 X1.2901 Y13.1907
G01 X1.2791 Y13.2260
G01 X1.2713 Y13.2555
G01 X1.2683 Y13.2682
G01 X1.2645 Y13.2863
G01 X1.2602 Y13.3102
G01 X1.2557 Y13.3414
G01 X1.2526 Y13.3717
G01 X1.2507 Y13.4023
G01 X1.2500 Y13.4338
G01 X1.2500 Y117.7034
G00 X1.2500 Y117.7034
G01 F250.00
G01 Z-1.2000
G01 F2500.00
G01 X1.2504 Y117.7283
G01 X1.2517 Y117.7536
G01 X1.2536 Y117.7775
G01 X1.2565 Y117.8023
G01 X1.2602 Y117.8274
G01 X1.2645 Y117.8509
G01 X1.2698 Y117.8753
G01 X1.2760 Y117.8999
G01 X1.2826 Y117.9229
G01 X1.2903 Y117.9471
G01 X1.2988 Y117.9705
G01 X1.3076 Y117.9928
G01 X1.3177 Y118.0161
G01 X1.3284 Y118.0386
G01 X1.3393 Y118.0599
G01 X1.3516 Y118.0821
G01 X1.3645 Y118.1034
G01 X1.3775 Y118.1236
G01 X1.3919 Y118.1444
G01 X1.4068 Y118.1644
G01 X1.4217 Y118.1832
G01 X1.4381 Y118.2025
G01 X1.4549 Y118.2210
G01 X1.4715 Y118.2382
G01 X1.4898 Y118.2558
G01 X1.5083 Y118.2725
G01 X1.5265 Y118.2880
G01 X1.5464 Y118.3038
G01 X1.5664 Y118.3186
G01 X1.5861 Y118.3322
G01 X1.6075 Y118.3460
G01 X1.6289 Y118.3588
G01 X21.4565 Y129.7781
G01 X21.4750 Y129.7881
G01 X21.5029 Y129.8020
G01 X21.5146 Y129.8074
G01 X21.5424 Y129.8193
G01 X21.5595 Y129.8260
G01 X21.5836 Y129.8346
G01 X21.6125 Y129.8437
G01 X21.6425 Y129.8519
G01 X21.6550 Y129.8549
G01 X21.6846 Y129.8611
G01 X21.7028 Y129.8644
G01 X21.7281 Y129.8681
G01 X21.7524 Y129.8709
G01 X21.7765 Y129.8728
G01 X21.8020 Y129.8741
G01 X21.8323 Y129.8744
G01 X21.8507 Y129.8741
G01 X21.8762 Y129.8728
G01 X21.9003 Y129.8708
G01 X21.9247 Y129.8680
G01 X21.9500 Y129.8642
G01 X21.9737 Y129.8599
G01 X21.9977 Y129.8547
G01 X22.0225 Y129.8485
G01 X22.0457 Y129.8418
G01 X22.0691 Y129.8343
G01 X22.0932 Y129.8257
G01 X22.1156 Y129.8168
G01 X22.1381 Y129.8071
G01 X22.1612 Y129.7961
G01 X22.1830 Y129.7849
G01 X22.2041 Y129.7731
G01 X112.5037 Y77.6396
G01 X112.5303 Y77.6235
G01 X112.5560 Y77.6065
G01 X112.5861 Y77.5845
G01 X112.6148 Y77.5614
G01 X112.6424 Y77.5368
G01 X112.6691 Y77.5105
G01 X112.6900 Y77.4881
G01 X112.6983 Y77.4785
G01 X112.7102 Y77.4644
G01 X112.7256 Y77.4451
G01 X112.7440 Y77.4200
G01 X112.7544 Y77.4048
G01 X112.7678 Y77.3840
G01 X112.7804 Y77.3630
G01 X112.7926 Y77.3412
G01 X112.8039 Y77.3191
G01 X112.8118 Y77.3025
G01 X112.8170 Y77.2910
G01 X112.8289 Y77.2627
G01 X112.8418 Y77.2275
G01 X112.8528 Y77.1922
G01 X112.8606 Y77.1625
G01 X112.8635 Y77.1502
G01 X112.8673 Y77.1322
G01 X112.8718 Y77.1078
G01 X112.8762 Y77.0770
G01 X112.8782 Y77.0587
G01 X112.8803 Y77.0341
G01 X112.8812 Y77.0157
G01 X112.8818 Y76.9938
G01 X112.8819 Y54.1399
G01 X112.8809 Y54.1024
G01 X112.8782 Y54.0657
G01 X112.8762 Y54.0474
G01 X112.8736 Y54.0286
G01 X112.8673 Y53.9923
G01 X112.8591 Y53.9558
G01 X112.8493 Y53.9203
G01 X112.8437 Y53.9027
G01 X112.8375 Y53.8848
G01 X112.8243 Y53.8504
G01 X112.8091 Y53.8162
G01 X112.8010 Y53.7996
G01 X112.7837 Y53.7672
G01 X112.7741 Y53.7507
G01 X112.7544 Y53.7196
G01 X112.7332 Y53.6895
G01 X112.7217 Y53.6744
G01 X112.6983 Y53.6459
G01 X112.6857 Y53.6317
G01 X112.6603 Y53.6050
G01 X112.6337 Y53.5796
G01 X112.6194 Y53.5670
G01 X112.5910 Y53.5437
G01 X112.5758 Y53.5322
G01 X112.5457 Y53.5110
G01 X112.5141 Y53.4910
G01 X112.4821 Y53.4728
G01 X112.4492 Y53.4563
G01 X112.4319 Y53.4483
G01 X112.3979 Y53.4342
G01 X112.3800 Y53.4276
G01 X112.3451 Y53.4161
G01 X112.3096 Y53.4062
G01 X112.2911 Y53.4018
G01 X112.2550 Y53.3947
G01 X112.2362 Y53.3916
G01 X112.1997 Y53.3871
G01 X112.1629 Y53.3844
G01 X112.1439 Y53.3837
G01 X112.1071 Y53.3837
G01 X112.0881 Y53.3844
G01 X112.0514 Y53.3871
G01 X112.0148 Y53.3916
G01 X111.9961 Y53.3947
G01 X111.9599 Y53.4018
G01 X111.9414 Y53.4062
G01 X111.9060 Y53.4161
G01 X111.8710 Y53.4276
G01 X111.8532 Y53.4342
G01 X111.8192 Y53.4483
G01 X111.8019 Y53.4563
G01 X111.7690 Y53.4728
G01 X111.7369 Y53.4910
G01 X111.7207 Y53.5009
G01 X111.6901 Y53.5214
G01 X111.6747 Y53.5325
G01 X111.6457 Y53.5552
G01 X111.6178 Y53.5792
G01 X111.5907 Y53.6050
G01 X111.5653 Y53.6317
G01 X111.5527 Y53.6459
G01 X111.5293 Y53.6744
G01 X111.5178 Y53.6895
G01 X111.4966 Y53.7196
G01 X111.4769 Y53.7507
G01 X111.4673 Y53.7672
G01 X111.4500 Y53.7996
G01 X111.4417 Y53.8168
G01 X111.4267 Y53.8504
G01 X111.4135 Y53.8848
G01 X111.4073 Y53.9027
G01 X111.3966 Y53.9380
G01 X111.3918 Y53.9564
G01 X111.3837 Y53.9923
G01 X111.3774 Y54.0286
G01 X111.3748 Y54.0474
G01 X111.3712 Y54.0841
G01 X111.3697 Y54.1122
G01 X111.3692 Y54.1399
G01 X111.3692 Y76.5479
G01 X21.8255 Y128.2450
G01 X2.7627 Y117.2661
G01 X2.7627 Y13.8708
G01 X22.2038 Y2.6616
G01 X22.2274 Y2.6474
G01 X22.2511 Y2.6319
G01 X22.2810 Y2.6105
G01 X22.3103 Y2.5873
G01 X22.3380 Y2.5630
G01 X22.3650 Y2.5370
G01 X22.3901 Y2.5101
G01 X22.4144 Y2.4816
G01 X22.4368 Y2.4524
G01 X22.4581 Y2.4216
G01 X22.4776 Y2.3904
G01 X22.4958 Y2.3577
G01 X22.5121 Y2.3247
G01 X22.5270 Y2.2903
G01 X22.5400 Y2.2559
G01 X22.5515 Y2.2203
G01 X22.5610 Y2.1847
G01 X22.5652 Y2.1662
G01 X22.5722 Y2.1300
G01 X22.5774 Y2.0929
G01 X22.5807 Y2.0563
G01 X22.5822 Y2.0189
G01 X22.5819 Y1.9820
G01 X22.5798 Y1.9447
G01 X22.5759 Y1.9081
G01 X22.5701 Y1.8711
G01 X22.5627 Y1.8350
G01 X22.5535 Y1.7994
G01 X22.5423 Y1.7636
G01 X22.5297 Y1.7291
G01 X22.5151 Y1.6946
G01 X22.4991 Y1.6614
G01 X22.4812 Y1.6286
G01 X22.4621 Y1.5971
G01 X22.4516 Y1.5812
G01 X22.4301 Y1.5513
G01 X22.4069 Y1.5220
G01 X22.3826 Y1.4943
G01 X22.3566 Y1.4674
G01 X22.3298 Y1.4422
G01 X22.3012 Y1.4180
G01 X22.2720 Y1.3955
G01 X22.2413 Y1.3742
G01 X22.2100 Y1.3547
G01 X22.1773 Y1.3365
G01 X22.1443 Y1.3202
G01 X22.1100 Y1.3053
G01 X22.0755 Y1.2923
G01 X22.0399 Y1.2809
G01 X22.0043 Y1.2713
G01 X21.9858 Y1.2671
G01 X21.9496 Y1.2602
G01 X21.9125 Y1.2550
G01 X21.8759 Y1.2516
G01 X21.8391 Y1.2501
G01 X21.8017 Y1.2504
G01 X21.7649 Y1.2525
G01 X21.7277 Y1.2564
G01 X21.6913 Y1.2621
G01 X21.6547 Y1.2697
G01 X21.6190 Y1.2789
G01 X21.5833 Y1.2900
G01 X21.5487 Y1.3027
G01 X21.5142 Y1.3172
G01 X21.4811 Y1.3332
G01 X21.4482 Y1.3511
G01 X1.6206 Y12.7832
G01 X1.6016 Y12.7949
G01 X1.5861 Y12.8049
G01 X1.5662 Y12.8188
G01 X1.5513 Y12.8297
G01 X1.5409 Y12.8376
G01 X1.5171 Y12.8570
G01 X1.4943 Y12.8772
G01 X1.4847 Y12.8861
G01 X1.4715 Y12.8990
G01 X1.4546 Y12.9165
G01 X1.4377 Y12.9351
G01 X1.4217 Y12.9540
G01 X1.4066 Y12.9730
G01 X1.3955 Y12.9878
G01 X1.3775 Y13.0136
G01 X1.3643 Y13.0340
G01 X1.3548 Y13.0498
G01 X1.3393 Y13.0773
G01 X1.3282 Y13.0989
G01 X1.3202 Y13.1155
G01 X1.3148 Y13.1274
G01 X1.3031 Y13.1555
G01 X1.2901 Y13.1907
G01 X1.2791 Y13.2260
G01 X1.2713 Y13.2555
G01 X1.2683 Y13.2682
G01 X1.2645 Y13.2863
G01 X1.2602 Y13.3102
G01 X1.2557 Y13.3414
G01 X1.2526 Y13.3717
G01 X1.2507 Y13.4023
G01 X1.2500 Y13.4338
G01 X1.2500 Y117.7034
G00 X1.2500 Y117.7034
G01 F250.00
G01 Z-1.3000
G01 F2500.00
G01 X1.2504 Y117.7283
G01 X1.2517 Y117.7536
G01 X1.2536 Y117.7775
G01 X1.2565 Y117.8023
G01 X1.2602 Y117.8274
G01 X1.2645 Y117.8509
G01 X1.2698 Y117.8753
G01 X1.2760 Y117.8999
G01 X1.2826 Y117.9229
G01 X1.2903 Y117.9471
G01 X1.2988 Y117.9705
G01 X1.3076 Y117.9928
G01 X1.3177 Y118.0161
G01 X1.3284 Y118.0386
G01 X1.3393 Y118.0599
G01 X1.3516 Y118.0821
G01 X1.3645 Y118.1034
G01 X1.3775 Y118.1236
G01 X1.3919 Y118.1444
G01 X1.4068 Y118.1644
G01 X1.4217 Y118.1832
G01 X1.4381 Y118.2025
G01 X1.4549 Y118.2210
G01 X1.4715 Y118.2382
G01 X1.4898 Y118.2558
G01 X1.5083 Y118.2725
G01 X1.5265 Y118.2880
G01 X1.5464 Y118.3038
G01 X1.5664 Y118.3186
G01 X1.5861 Y118.3322
G01 X1.6075 Y118.3460
G01 X1.6289 Y118.3588
G01 X21.4565 Y129.7781
G01 X21.4750 Y129.7881
G01 X21.5029 Y129.8020
G01 X21.5146 Y129.8074
G01 X21.5424 Y129.8193
G01 X21.5595 Y129.8260
G01 X21.5836 Y129.8346
G01 X21.6125 Y129.8437
G01 X21.6425 Y129.8519
G01 X21.6550 Y129.8549
G01 X21.6846 Y129.8611
G01 X21.7028 Y129.8644
G01 X21.7281 Y129.8681
G01 X21.7524 Y129.8709
G01 X21.7765 Y129.8728
G01 X21.8020 Y129.8741
G01 X21.8323 Y129.8744
G01 X21.8507 Y129.8741
G01 X21.8762 Y129.8728
G01 X21.9003 Y129.8708
G01 X21.9247 Y129.8680
G01 X21.9500 Y129.8642
G01 X21.9737 Y129.8599
G01 X21.9977 Y129.8547
G01 X22.0225 Y129.8485
G01 X22.0457 Y129.8418
G01 X22.0691 Y129.8343
G01 X22.0932 Y129.8257
G01 X22.1156 Y129.8168
G01 X22.1381 Y129.8071
G01 X22.1612 Y129.7961
G01 X22.1830 Y129.7849
G01 X22.2041 Y129.7731
G01 X112.5037 Y77.6396
G01 X112.5303 Y77.6235
G01 X112.5560 Y77.6065
G01 X112.5861 Y77.5845
G01 X112.6148 Y77.5614
G01 X112.6424 Y77.5368
G01 X112.6691 Y77.5105
G01 X112.6900 Y77.4881
G01 X112.6983 Y77.4785
G01 X112.7102 Y77.4644
G01 X112.7256 Y77.4451
G01 X112.7440 Y77.4200
G01 X112.7544 Y77.4048
G01 X112.7678 Y77.3840
G01 X112.7804 Y77.3630
G01 X112.7926 Y77.3412
G01 X112.8039 Y77.3191
G01 X112.8118 Y77.3025
G01 X112.8170 Y77.2910
G01 X112.8289 Y77.2627
G01 X112.8418 Y77.2275
G01 X112.8528 Y77.1922
G01 X112.8606 Y77.1625
G01 X112.8635 Y77.1502
G01 X112.8673 Y77.1322
G01 X112.8718 Y77.1078
G01 X112.8762 Y77.0770
G01 X112.8782 Y77.0587
G01 X112.8803 Y77.0341
G01 X112.8812 Y77.0157
G01 X112.8818 Y76.9938
G01 X112.8819 Y54.1399
G01 X112.8809 Y54.1024
G01 X112.8782 Y54.0657
G01 X112.8762 Y54.0474
G01 X112.8736 Y54.0286
G01 X112.8673 Y53.9923
G01 X112.8591 Y53.9558
G01 X112.8493 Y53.9203
G01 X112.8437 Y53.9027
G01 X112.8375 Y53.8848
G01 X112.8243 Y53.8504
G01 X112.8091 Y53.8162
G01 X112.8010 Y53.7996
G01 X112.7837 Y53.7672
G01 X112.7741 Y53.7507
G01 X112.7544 Y53.7196
G01 X112.7332 Y53.6895
G01 X112.7217 Y53.6744
G01 X112.6983 Y53.6459
G01 X112.6857 Y53.6317
G01 X112.6603 Y53.6050
G01 X112.6337 Y53.5796
G01 X112.6194 Y53.5670
G01 X112.5910 Y53.5437
G01 X112.5758 Y53.5322
G01 X112.5457 Y53.5110
G01 X112.5141 Y53.4910
G01 X112.4821 Y53.4728
G01 X112.4492 Y53.4563
G01 X112.4319 Y53.4483
G01 X112.3979 Y53.4342
G01 X112.3800 Y53.4276
G01 X112.3451 Y53.4161
G01 X112.3096 Y53.4062
G01 X112.2911 Y53.4018
G01 X112.2550 Y53.3947
G01 X112.2362 Y53.3916
G01 X112.1997 Y53.3871
G01 X112.1629 Y53.3844
G01 X112.1439 Y53.3837
G01 X112.1071 Y53.3837
G01 X112.0881 Y53.3844
G01 X112.0514 Y53.3871
G01 X112.0148 Y53.3916
G01 X111.9961 Y53.3947
G01 X111.9599 Y53.4018
G01 X111.9414 Y53.4062
G01 X111.9060 Y53.4161
G01 X111.8710 Y53.4276
G01 X111.8532 Y53.4342
G01 X111.8192 Y53.4483
G01 X111.8019 Y53.4563
G01 X111.7690 Y53.4728
G01 X111.7369 Y53.4910
G01 X111.7207 Y53.5009
G01 X111.6901 Y53.5214
G01 X111.6747 Y53.5325
G01 X111.6457 Y53.5552
G01 X111.6178 Y53.5792
G01 X111.5907 Y53.6050
G01 X111.5653 Y53.6317
G01 X111.5527 Y53.6459
G01 X111.5293 Y53.6744
G01 X111.5178 Y53.6895
G01 X111.4966 Y53.7196
G01 X111.4769 Y53.7507
G01 X111.4673 Y53.7672
G01 X111.4500 Y53.7996
G01 X111.4417 Y53.8168
G01 X111.4267 Y53.8504
G01 X111.4135 Y53.8848
G01 X111.4073 Y53.9027
G01 X111.3966 Y53.9380
G01 X111.3918 Y53.9564
G01 X111.3837 Y53.9923
G01 X111.3774 Y54.0286
G01 X111.3748 Y54.0474
G01 X111.3712 Y54.0841
G01 X111.3697 Y54.1122
G01 X111.3692 Y54.1399
G01 X111.3692 Y76.5479
G01 X21.8255 Y128.2450
G01 X2.7627 Y117.2661
G01 X2.7627 Y13.8708
G01 X22.2038 Y2.6616
G01 X22.2274 Y2.6474
G01 X22.2511 Y2.6319
G01 X22.2810 Y2.6105
G01 X22.3103 Y2.5873
G01 X22.3380 Y2.5630
G01 X22.3650 Y2.5370
G01 X22.3901 Y2.5101
G01 X22.4144 Y2.4816
G01 X22.4368 Y2.4524
G01 X22.4581 Y2.4216
G01 X22.4776 Y2.3904
G01 X22.4958 Y2.3577
G01 X22.5121 Y2.3247
G01 X22.5270 Y2.2903
G01 X22.5400 Y2.2559
G01 X22.5515 Y2.2203
G01 X22.5610 Y2.1847
G01 X22.5652 Y2.1662
G01 X22.5722 Y2.1300
G01 X22.5774 Y2.0929
G01 X22.5807 Y2.0563
G01 X22.5822 Y2.0189
G01 X22.5819 Y1.9820
G01 X22.5798 Y1.9447
G01 X22.5759 Y1.9081
G01 X22.5701 Y1.8711
G01 X22.5627 Y1.8350
G01 X22.5535 Y1.7994
G01 X22.5423 Y1.7636
G01 X22.5297 Y1.7291
G01 X22.5151 Y1.6946
G01 X22.4991 Y1.6614
G01 X22.4812 Y1.6286
G01 X22.4621 Y1.5971
G01 X22.4516 Y1.5812
G01 X22.4301 Y1.5513
G01 X22.4069 Y1.5220
G01 X22.3826 Y1.4943
G01 X22.3566 Y1.4674
G01 X22.3298 Y1.4422
G01 X22.3012 Y1.4180
G01 X22.2720 Y1.3955
G01 X22.2413 Y1.3742
G01 X22.2100 Y1.3547
G01 X22.1773 Y1.3365
G01 X22.1443 Y1.3202
G01 X22.1100 Y1.3053
G01 X22.0755 Y1.2923
G01 X22.0399 Y1.2809
G01 X22.0043 Y1.2713
G01 X21.9858 Y1.2671
G01 X21.9496 Y1.2602
G01 X21.9125 Y1.2550
G01 X21.8759 Y1.2516
G01 X21.8391 Y1.2501
G01 X21.8017 Y1.2504
G01 X21.7649 Y1.2525
G01 X21.7277 Y1.2564
G01 X21.6913 Y1.2621
G01 X21.6547 Y1.2697
G01 X21.6190 Y1.2789
G01 X21.5833 Y1.2900
G01 X21.5487 Y1.3027
G01 X21.5142 Y1.3172
G01 X21.4811 Y1.3332
G01 X21.4482 Y1.3511
G01 X1.6206 Y12.7832
G01 X1.6016 Y12.7949
G01 X1.5861 Y12.8049
G01 X1.5662 Y12.8188
G01 X1.5513 Y12.8297
G01 X1.5409 Y12.8376
G01 X1.5171 Y12.8570
G01 X1.4943 Y12.8772
G01 X1.4847 Y12.8861
G01 X1.4715 Y12.8990
G01 X1.4546 Y12.9165
G01 X1.4377 Y12.9351
G01 X1.4217 Y12.9540
G01 X1.4066 Y12.9730
G01 X1.3955 Y12.9878
G01 X1.3775 Y13.0136
G01 X1.3643 Y13.0340
G01 X1.3548 Y13.0498
G01 X1.3393 Y13.0773
G01 X1.3282 Y13.0989
G01 X1.3202 Y13.1155
G01 X1.3148 Y13.1274
G01 X1.3031 Y13.1555
G01 X1.2901 Y13.1907
G01 X1.2791 Y13.2260
G01 X1.2713 Y13.2555
G01 X1.2683 Y13.2682
G01 X1.2645 Y13.2863
G01 X1.2602 Y13.3102
G01 X1.2557 Y13.3414
G01 X1.2526 Y13.3717
G01 X1.2507 Y13.4023
G01 X1.2500 Y13.4338
G01 X1.2500 Y117.7034
G00 X1.2500 Y117.7034
G01 F250.00
G01 Z-1.4000
G01 F2500.00
G01 X1.2504 Y117.7283
G01 X1.2517 Y117.7536
G01 X1.2536 Y117.7775
G01 X1.2565 Y117.8023
G01 X1.2602 Y117.8274
G01 X1.2645 Y117.8509
G01 X1.2698 Y117.8753
G01 X1.2760 Y117.8999
G01 X1.2826 Y117.9229
G01 X1.2903 Y117.9471
G01 X1.2988 Y117.9705
G01 X1.3076 Y117.9928
G01 X1.3177 Y118.0161
G01 X1.3284 Y118.0386
G01 X1.3393 Y118.0599
G01 X1.3516 Y118.0821
G01 X1.3645 Y118.1034
G01 X1.3775 Y118.1236
G01 X1.3919 Y118.1444
G01 X1.4068 Y118.1644
G01 X1.4217 Y118.1832
G01 X1.4381 Y118.2025
G01 X1.4549 Y118.2210
G01 X1.4715 Y118.2382
G01 X1.4898 Y118.2558
G01 X1.5083 Y118.2725
G01 X1.5265 Y118.2880
G01 X1.5464 Y118.3038
G01 X1.5664 Y118.3186
G01 X1.5861 Y118.3322
G01 X1.6075 Y118.3460
G01 X1.6289 Y118.3588
G01 X21.4565 Y129.7781
G01 X21.4750 Y129.7881
G01 X21.5029 Y129.8020
G01 X21.5146 Y129.8074
G01 X21.5424 Y129.8193
G01 X21.5595 Y129.8260
G01 X21.5836 Y129.8346
G01 X21.6125 Y129.8437
G01 X21.6425 Y129.8519
G01 X21.6550 Y129.8549
G01 X21.6846 Y129.8611
G01 X21.7028 Y129.8644
G01 X21.7281 Y129.8681
G01 X21.7524 Y129.8709
G01 X21.7765 Y129.8728
G01 X21.8020 Y129.8741
G01 X21.8323 Y129.8744
G01 X21.8507 Y129.8741
G01 X21.8762 Y129.8728
G01 X21.9003 Y129.8708
G01 X21.9247 Y129.8680
G01 X21.9500 Y129.8642
G01 X21.9737 Y129.8599
G01 X21.9977 Y129.8547
G01 X22.0225 Y129.8485
G01 X22.0457 Y129.8418
G01 X22.0691 Y129.8343
G01 X22.0932 Y129.8257
G01 X22.1156 Y129.8168
G01 X22.1381 Y129.8071
G01 X22.1612 Y129.7961
G01 X22.1830 Y129.7849
G01 X22.2041 Y129.7731
G01 X112.5037 Y77.6396
G01 X112.5303 Y77.6235
G01 X112.5560 Y77.6065
G01 X112.5861 Y77.5845
G01 X112.6148 Y77.5614
G01 X112.6424 Y77.5368
G01 X112.6691 Y77.5105
G01 X112.6900 Y77.4881
G01 X112.6983 Y77.4785
G01 X112.7102 Y77.4644
G01 X112.7256 Y77.4451
G01 X112.7440 Y77.4200
G01 X112.7544 Y77.4048
G01 X112.7678 Y77.3840
G01 X112.7804 Y77.3630
G01 X112.7926 Y77.3412
G01 X112.8039 Y77.3191
G01 X112.8118 Y77.3025
G01 X112.8170 Y77.2910
G01 X112.8289 Y77.2627
G01 X112.8418 Y77.2275
G01 X112.8528 Y77.1922
G01 X112.8606 Y77.1625
G01 X112.8635 Y77.1502
G01 X112.8673 Y77.1322
G01 X112.8718 Y77.1078
G01 X112.8762 Y77.0770
G01 X112.8782 Y77.0587
G01 X112.8803 Y77.0341
G01 X112.8812 Y77.0157
G01 X112.8818 Y76.9938
G01 X112.8819 Y54.1399
G01 X112.8809 Y54.1024
G01 X112.8782 Y54.0657
G01 X112.8762 Y54.0474
G01 X112.8736 Y54.0286
G01 X112.8673 Y53.9923
G01 X112.8591 Y53.9558
G01 X112.8493 Y53.9203
G01 X112.8437 Y53.9027
G01 X112.8375 Y53.8848
G01 X112.8243 Y53.8504
G01 X112.8091 Y53.8162
G01 X112.8010 Y53.7996
G01 X112.7837 Y53.7672
G01 X112.7741 Y53.7507
G01 X112.7544 Y53.7196
G01 X112.7332 Y53.6895
G01 X112.7217 Y53.6744
G01 X112.6983 Y53.6459
G01 X112.6857 Y53.6317
G01 X112.6603 Y53.6050
G01 X112.6337 Y53.5796
G01 X112.6194 Y53.5670
G01 X112.5910 Y53.5437
G01 X112.5758 Y53.5322
G01 X112.5457 Y53.5110
G01 X112.5141 Y53.4910
G01 X112.4821 Y53.4728
G01 X112.4492 Y53.4563
G01 X112.4319 Y53.4483
G01 X112.3979 Y53.4342
G01 X112.3800 Y53.4276
G01 X112.3451 Y53.4161
G01 X112.3096 Y53.4062
G01 X112.2911 Y53.4018
G01 X112.2550 Y53.3947
G01 X112.2362 Y53.3916
G01 X112.1997 Y53.3871
G01 X112.1629 Y53.3844
G01 X112.1439 Y53.3837
G01 X112.1071 Y53.3837
G01 X112.0881 Y53.3844
G01 X112.0514 Y53.3871
G01 X112.0148 Y53.3916
G01 X111.9961 Y53.3947
G01 X111.9599 Y53.4018
G01 X111.9414 Y53.4062
G01 X111.9060 Y53.4161
G01 X111.8710 Y53.4276
G01 X111.8532 Y53.4342
G01 X111.8192 Y53.4483
G01 X111.8019 Y53.4563
G01 X111.7690 Y53.4728
G01 X111.7369 Y53.4910
G01 X111.7207 Y53.5009
G01 X111.6901 Y53.5214
G01 X111.6747 Y53.5325
G01 X111.6457 Y53.5552
G01 X111.6178 Y53.5792
G01 X111.5907 Y53.6050
G01 X111.5653 Y53.6317
G01 X111.5527 Y53.6459
G01 X111.5293 Y53.6744
G01 X111.5178 Y53.6895
G01 X111.4966 Y53.7196
G01 X111.4769 Y53.7507
G01 X111.4673 Y53.7672
G01 X111.4500 Y53.7996
G01 X111.4417 Y53.8168
G01 X111.4267 Y53.8504
G01 X111.4135 Y53.8848
G01 X111.4073 Y53.9027
G01 X111.3966 Y53.9380
G01 X111.3918 Y53.9564
G01 X111.3837 Y53.9923
G01 X111.3774 Y54.0286
G01 X111.3748 Y54.0474
G01 X111.3712 Y54.0841
G01 X111.3697 Y54.1122
G01 X111.3692 Y54.1399
G01 X111.3692 Y76.5479
G01 X21.8255 Y128.2450
G01 X2.7627 Y117.2661
G01 X2.7627 Y13.8708
G01 X22.2038 Y2.6616
G01 X22.2274 Y2.6474
G01 X22.2511 Y2.6319
G01 X22.2810 Y2.6105
G01 X22.3103 Y2.5873
G01 X22.3380 Y2.5630
G01 X22.3650 Y2.5370
G01 X22.3901 Y2.5101
G01 X22.4144 Y2.4816
G01 X22.4368 Y2.4524
G01 X22.4581 Y2.4216
G01 X22.4776 Y2.3904
G01 X22.4958 Y2.3577
G01 X22.5121 Y2.3247
G01 X22.5270 Y2.2903
G01 X22.5400 Y2.2559
G01 X22.5515 Y2.2203
G01 X22.5610 Y2.1847
G01 X22.5652 Y2.1662
G01 X22.5722 Y2.1300
G01 X22.5774 Y2.0929
G01 X22.5807 Y2.0563
G01 X22.5822 Y2.0189
G01 X22.5819 Y1.9820
G01 X22.5798 Y1.9447
G01 X22.5759 Y1.9081
G01 X22.5701 Y1.8711
G01 X22.5627 Y1.8350
G01 X22.5535 Y1.7994
G01 X22.5423 Y1.7636
G01 X22.5297 Y1.7291
G01 X22.5151 Y1.6946
G01 X22.4991 Y1.6614
G01 X22.4812 Y1.6286
G01 X22.4621 Y1.5971
G01 X22.4516 Y1.5812
G01 X22.4301 Y1.5513
G01 X22.4069 Y1.5220
G01 X22.3826 Y1.4943
G01 X22.3566 Y1.4674
G01 X22.3298 Y1.4422
G01 X22.3012 Y1.4180
G01 X22.2720 Y1.3955
G01 X22.2413 Y1.3742
G01 X22.2100 Y1.3547
G01 X22.1773 Y1.3365
G01 X22.1443 Y1.3202
G01 X22.1100 Y1.3053
G01 X22.0755 Y1.2923
G01 X22.0399 Y1.2809
G01 X22.0043 Y1.2713
G01 X21.9858 Y1.2671
G01 X21.9496 Y1.2602
G01 X21.9125 Y1.2550
G01 X21.8759 Y1.2516
G01 X21.8391 Y1.2501
G01 X21.8017 Y1.2504
G01 X21.7649 Y1.2525
G01 X21.7277 Y1.2564
G01 X21.6913 Y1.2621
G01 X21.6547 Y1.2697
G01 X21.6190 Y1.2789
G01 X21.5833 Y1.2900
G01 X21.5487 Y1.3027
G01 X21.5142 Y1.3172
G01 X21.4811 Y1.3332
G01 X21.4482 Y1.3511
G01 X1.6206 Y12.7832
G01 X1.6016 Y12.7949
G01 X1.5861 Y12.8049
G01 X1.5662 Y12.8188
G01 X1.5513 Y12.8297
G01 X1.5409 Y12.8376
G01 X1.5171 Y12.8570
G01 X1.4943 Y12.8772
G01 X1.4847 Y12.8861
G01 X1.4715 Y12.8990
G01 X1.4546 Y12.9165
G01 X1.4377 Y12.9351
G01 X1.4217 Y12.9540
G01 X1.4066 Y12.9730
G01 X1.3955 Y12.9878
G01 X1.3775 Y13.0136
G01 X1.3643 Y13.0340
G01 X1.3548 Y13.0498
G01 X1.3393 Y13.0773
G01 X1.3282 Y13.0989
G01 X1.3202 Y13.1155
G01 X1.3148 Y13.1274
G01 X1.3031 Y13.1555
G01 X1.2901 Y13.1907
G01 X1.2791 Y13.2260
G01 X1.2713 Y13.2555
G01 X1.2683 Y13.2682
G01 X1.2645 Y13.2863
G01 X1.2602 Y13.3102
G01 X1.2557 Y13.3414
G01 X1.2526 Y13.3717
G01 X1.2507 Y13.4023
G01 X1.2500 Y13.4338
G01 X1.2500 Y117.7034
G00 X1.2500 Y117.7034
G01 F250.00
G01 Z-1.5000
G01 F2500.00
G01 X1.2504 Y117.7283
G01 X1.2517 Y117.7536
G01 X1.2536 Y117.7775
G01 X1.2565 Y117.8023
G01 X1.2602 Y117.8274
G01 X1.2645 Y117.8509
G01 X1.2698 Y117.8753
G01 X1.2760 Y117.8999
G01 X1.2826 Y117.9229
G01 X1.2903 Y117.9471
G01 X1.2988 Y117.9705
G01 X1.3076 Y117.9928
G01 X1.3177 Y118.0161
G01 X1.3284 Y118.0386
G01 X1.3393 Y118.0599
G01 X1.3516 Y118.0821
G01 X1.3645 Y118.1034
G01 X1.3775 Y118.1236
G01 X1.3919 Y118.1444
G01 X1.4068 Y118.1644
G01 X1.4217 Y118.1832
G01 X1.4381 Y118.2025
G01 X1.4549 Y118.2210
G01 X1.4715 Y118.2382
G01 X1.4898 Y118.2558
G01 X1.5083 Y118.2725
G01 X1.5265 Y118.2880
G01 X1.5464 Y118.3038
G01 X1.5664 Y118.3186
G01 X1.5861 Y118.3322
G01 X1.6075 Y118.3460
G01 X1.6289 Y118.3588
G01 X21.4565 Y129.7781
G01 X21.4750 Y129.7881
G01 X21.5029 Y129.8020
G01 X21.5146 Y129.8074
G01 X21.5424 Y129.8193
G01 X21.5595 Y129.8260
G01 X21.5836 Y129.8346
G01 X21.6125 Y129.8437
G01 X21.6425 Y129.8519
G01 X21.6550 Y129.8549
G01 X21.6846 Y129.8611
G01 X21.7028 Y129.8644
G01 X21.7281 Y129.8681
G01 X21.7524 Y129.8709
G01 X21.7765 Y129.8728
G01 X21.8020 Y129.8741
G01 X21.8323 Y129.8744
G01 X21.8507 Y129.8741
G01 X21.8762 Y129.8728
G01 X21.9003 Y129.8708
G01 X21.9247 Y129.8680
G01 X21.9500 Y129.8642
G01 X21.9737 Y129.8599
G01 X21.9977 Y129.8547
G01 X22.0225 Y129.8485
G01 X22.0457 Y129.8418
G01 X22.0691 Y129.8343
G01 X22.0932 Y129.8257
G01 X22.1156 Y129.8168
G01 X22.1381 Y129.8071
G01 X22.1612 Y129.7961
G01 X22.1830 Y129.7849
G01 X22.2041 Y129.7731
G01 X112.5037 Y77.6396
G01 X112.5303 Y77.6235
G01 X112.5560 Y77.6065
G01 X112.5861 Y77.5845
G01 X112.6148 Y77.5614
G01 X112.6424 Y77.5368
G01 X112.6691 Y77.5105
G01 X112.6900 Y77.4881
G01 X112.6983 Y77.4785
G01 X112.7102 Y77.4644
G01 X112.7256 Y77.4451
G01 X112.7440 Y77.4200
G01 X112.7544 Y77.4048
G01 X112.7678 Y77.3840
G01 X112.7804 Y77.3630
G01 X112.7926 Y77.3412
G01 X112.8039 Y77.3191
G01 X112.8118 Y77.3025
G01 X112.8170 Y77.2910
G01 X112.8289 Y77.2627
G01 X112.8418 Y77.2275
G01 X112.8528 Y77.1922
G01 X112.8606 Y77.1625
G01 X112.8635 Y77.1502
G01 X112.8673 Y77.1322
G01 X112.8718 Y77.1078
G01 X112.8762 Y77.0770
G01 X112.8782 Y77.0587
G01 X112.8803 Y77.0341
G01 X112.8812 Y77.0157
G01 X112.8818 Y76.9938
G01 X112.8819 Y54.1399
G01 X112.8809 Y54.1024
G01 X112.8782 Y54.0657
G01 X112.8762 Y54.0474
G01 X112.8736 Y54.0286
G01 X112.8673 Y53.9923
G01 X112.8591 Y53.9558
G01 X112.8493 Y53.9203
G01 X112.8437 Y53.9027
G01 X112.8375 Y53.8848
G01 X112.8243 Y53.8504
G01 X112.8091 Y53.8162
G01 X112.8010 Y53.7996
G01 X112.7837 Y53.7672
G01 X112.7741 Y53.7507
G01 X112.7544 Y53.7196
G01 X112.7332 Y53.6895
G01 X112.7217 Y53.6744
G01 X112.6983 Y53.6459
G01 X112.6857 Y53.6317
G01 X112.6603 Y53.6050
G01 X112.6337 Y53.5796
G01 X112.6194 Y53.5670
G01 X112.5910 Y53.5437
G01 X112.5758 Y53.5322
G01 X112.5457 Y53.5110
G01 X112.5141 Y53.4910
G01 X112.4821 Y53.4728
G01 X112.4492 Y53.4563
G01 X112.4319 Y53.4483
G01 X112.3979 Y53.4342
G01 X112.3800 Y53.4276
G01 X112.3451 Y53.4161
G01 X112.3096 Y53.4062
G01 X112.2911 Y53.4018
G01 X112.2550 Y53.3947
G01 X112.2362 Y53.3916
G01 X112.1997 Y53.3871
G01 X112.1629 Y53.3844
G01 X112.1439 Y53.3837
G01 X112.1071 Y53.3837
G01 X112.0881 Y53.3844
G01 X112.0514 Y53.3871
G01 X112.0148 Y53.3916
G01 X111.9961 Y53.3947
G01 X111.9599 Y53.4018
G01 X111.9414 Y53.4062
G01 X111.9060 Y53.4161
G01 X111.8710 Y53.4276
G01 X111.8532 Y53.4342
G01 X111.8192 Y53.4483
G01 X111.8019 Y53.4563
G01 X111.7690 Y53.4728
G01 X111.7369 Y53.4910
G01 X111.7207 Y53.5009
G01 X111.6901 Y53.5214
G01 X111.6747 Y53.5325
G01 X111.6457 Y53.5552
G01 X111.6178 Y53.5792
G01 X111.5907 Y53.6050
G01 X111.5653 Y53.6317
G01 X111.5527 Y53.6459
G01 X111.5293 Y53.6744
G01 X111.5178 Y53.6895
G01 X111.4966 Y53.7196
G01 X111.4769 Y53.7507
G01 X111.4673 Y53.7672
G01 X111.4500 Y53.7996
G01 X111.4417 Y53.8168
G01 X111.4267 Y53.8504
G01 X111.4135 Y53.8848
G01 X111.4073 Y53.9027
G01 X111.3966 Y53.9380
G01 X111.3918 Y53.9564
G01 X111.3837 Y53.9923
G01 X111.3774 Y54.0286
G01 X111.3748 Y54.0474
G01 X111.3712 Y54.0841
G01 X111.3697 Y54.1122
G01 X111.3692 Y54.1399
G01 X111.3692 Y76.5479
G01 X21.8255 Y128.2450
G01 X2.7627 Y117.2661
G01 X2.7627 Y13.8708
G01 X22.2038 Y2.6616
G01 X22.2274 Y2.6474
G01 X22.2511 Y2.6319
G01 X22.2810 Y2.6105
G01 X22.3103 Y2.5873
G01 X22.3380 Y2.5630
G01 X22.3650 Y2.5370
G01 X22.3901 Y2.5101
G01 X22.4144 Y2.4816
G01 X22.4368 Y2.4524
G01 X22.4581 Y2.4216
G01 X22.4776 Y2.3904
G01 X22.4958 Y2.3577
G01 X22.5121 Y2.3247
G01 X22.5270 Y2.2903
G01 X22.5400 Y2.2559
G01 X22.5515 Y2.2203
G01 X22.5610 Y2.1847
G01 X22.5652 Y2.1662
G01 X22.5722 Y2.1300
G01 X22.5774 Y2.0929
G01 X22.5807 Y2.0563
G01 X22.5822 Y2.0189
G01 X22.5819 Y1.9820
G01 X22.5798 Y1.9447
G01 X22.5759 Y1.9081
G01 X22.5701 Y1.8711
G01 X22.5627 Y1.8350
G01 X22.5535 Y1.7994
G01 X22.5423 Y1.7636
G01 X22.5297 Y1.7291
G01 X22.5151 Y1.6946
G01 X22.4991 Y1.6614
G01 X22.4812 Y1.6286
G01 X22.4621 Y1.5971
G01 X22.4516 Y1.5812
G01 X22.4301 Y1.5513
G01 X22.4069 Y1.5220
G01 X22.3826 Y1.4943
G01 X22.3566 Y1.4674
G01 X22.3298 Y1.4422
G01 X22.3012 Y1.4180
G01 X22.2720 Y1.3955
G01 X22.2413 Y1.3742
G01 X22.2100 Y1.3547
G01 X22.1773 Y1.3365
G01 X22.1443 Y1.3202
G01 X22.1100 Y1.3053
G01 X22.0755 Y1.2923
G01 X22.0399 Y1.2809
G01 X22.0043 Y1.2713
G01 X21.9858 Y1.2671
G01 X21.9496 Y1.2602
G01 X21.9125 Y1.2550
G01 X21.8759 Y1.2516
G01 X21.8391 Y1.2501
G01 X21.8017 Y1.2504
G01 X21.7649 Y1.2525
G01 X21.7277 Y1.2564
G01 X21.6913 Y1.2621
G01 X21.6547 Y1.2697
G01 X21.6190 Y1.2789
G01 X21.5833 Y1.2900
G01 X21.5487 Y1.3027
G01 X21.5142 Y1.3172
G01 X21.4811 Y1.3332
G01 X21.4482 Y1.3511
G01 X1.6206 Y12.7832
G01 X1.6016 Y12.7949
G01 X1.5861 Y12.8049
G01 X1.5662 Y12.8188
G01 X1.5513 Y12.8297
G01 X1.5409 Y12.8376
G01 X1.5171 Y12.8570
G01 X1.4943 Y12.8772
G01 X1.4847 Y12.8861
G01 X1.4715 Y12.8990
G01 X1.4546 Y12.9165
G01 X1.4377 Y12.9351
G01 X1.4217 Y12.9540
G01 X1.4066 Y12.9730
G01 X1.3955 Y12.9878
G01 X1.3775 Y13.0136
G01 X1.3643 Y13.0340
G01 X1.3548 Y13.0498
G01 X1.3393 Y13.0773
G01 X1.3282 Y13.0989
G01 X1.3202 Y13.1155
G01 X1.3148 Y13.1274
G01 X1.3031 Y13.1555
G01 X1.2901 Y13.1907
G01 X1.2791 Y13.2260
G01 X1.2713 Y13.2555
G01 X1.2683 Y13.2682
G01 X1.2645 Y13.2863
G01 X1.2602 Y13.3102
G01 X1.2557 Y13.3414
G01 X1.2526 Y13.3717
G01 X1.2507 Y13.4023
G01 X1.2500 Y13.4338
G01 X1.2500 Y117.7034
G00 X1.2500 Y117.7034
G01 F250.00
G01 Z-1.6000
G01 F2500.00
G01 X1.2504 Y117.7283
G01 X1.2517 Y117.7536
G01 X1.2536 Y117.7775
G01 X1.2565 Y117.8023
G01 X1.2602 Y117.8274
G01 X1.2645 Y117.8509
G01 X1.2698 Y117.8753
G01 X1.2760 Y117.8999
G01 X1.2826 Y117.9229
G01 X1.2903 Y117.9471
G01 X1.2988 Y117.9705
G01 X1.3076 Y117.9928
G01 X1.3177 Y118.0161
G01 X1.3284 Y118.0386
G01 X1.3393 Y118.0599
G01 X1.3516 Y118.0821
G01 X1.3645 Y118.1034
G01 X1.3775 Y118.1236
G01 X1.3919 Y118.1444
G01 X1.4068 Y118.1644
G01 X1.4217 Y118.1832
G01 X1.4381 Y118.2025
G01 X1.4549 Y118.2210
G01 X1.4715 Y118.2382
G01 X1.4898 Y118.2558
G01 X1.5083 Y118.2725
G01 X1.5265 Y118.2880
G01 X1.5464 Y118.3038
G01 X1.5664 Y118.3186
G01 X1.5861 Y118.3322
G01 X1.6075 Y118.3460
G01 X1.6289 Y118.3588
G01 X21.4565 Y129.7781
G01 X21.4750 Y129.7881
G01 X21.5029 Y129.8020
G01 X21.5146 Y129.8074
G01 X21.5424 Y129.8193
G01 X21.5595 Y129.8260
G01 X21.5836 Y129.8346
G01 X21.6125 Y129.8437
G01 X21.6425 Y129.8519
G01 X21.6550 Y129.8549
G01 X21.6846 Y129.8611
G01 X21.7028 Y129.8644
G01 X21.7281 Y129.8681
G01 X21.7524 Y129.8709
G01 X21.7765 Y129.8728
G01 X21.8020 Y129.8741
G01 X21.8323 Y129.8744
G01 X21.8507 Y129.8741
G01 X21.8762 Y129.8728
G01 X21.9003 Y129.8708
G01 X21.9247 Y129.8680
G01 X21.9500 Y129.8642
G01 X21.9737 Y129.8599
G01 X21.9977 Y129.8547
G01 X22.0225 Y129.8485
G01 X22.0457 Y129.8418
G01 X22.0691 Y129.8343
G01 X22.0932 Y129.8257
G01 X22.1156 Y129.8168
G01 X22.1381 Y129.8071
G01 X22.1612 Y129.7961
G01 X22.1830 Y129.7849
G01 X22.2041 Y129.7731
G01 X112.5037 Y77.6396
G01 X112.5303 Y77.6235
G01 X112.5560 Y77.6065
G01 X112.5861 Y77.5845
G01 X112.6148 Y77.5614
G01 X112.6424 Y77.5368
G01 X112.6691 Y77.5105
G01 X112.6900 Y77.4881
G01 X112.6983 Y77.4785
G01 X112.7102 Y77.4644
G01 X112.7256 Y77.4451
G01 X112.7440 Y77.4200
G01 X112.7544 Y77.4048
G01 X112.7678 Y77.3840
G01 X112.7804 Y77.3630
G01 X112.7926 Y77.3412
G01 X112.8039 Y77.3191
G01 X112.8118 Y77.3025
G01 X112.8170 Y77.2910
G01 X112.8289 Y77.2627
G01 X112.8418 Y77.2275
G01 X112.8528 Y77.1922
G01 X112.8606 Y77.1625
G01 X112.8635 Y77.1502
G01 X112.8673 Y77.1322
G01 X112.8718 Y77.1078
G01 X112.8762 Y77.0770
G01 X112.8782 Y77.0587
G01 X112.8803 Y77.0341
G01 X112.8812 Y77.0157
G01 X112.8818 Y76.9938
G01 X112.8819 Y54.1399
G01 X112.8809 Y54.1024
G01 X112.8782 Y54.0657
G01 X112.8762 Y54.0474
G01 X112.8736 Y54.0286
G01 X112.8673 Y53.9923
G01 X112.8591 Y53.9558
G01 X112.8493 Y53.9203
G01 X112.8437 Y53.9027
G01 X112.8375 Y53.8848
G01 X112.8243 Y53.8504
G01 X112.8091 Y53.8162
G01 X112.8010 Y53.7996
G01 X112.7837 Y53.7672
G01 X112.7741 Y53.7507
G01 X112.7544 Y53.7196
G01 X112.7332 Y53.6895
G01 X112.7217 Y53.6744
G01 X112.6983 Y53.6459
G01 X112.6857 Y53.6317
G01 X112.6603 Y53.6050
G01 X112.6337 Y53.5796
G01 X112.6194 Y53.5670
G01 X112.5910 Y53.5437
G01 X112.5758 Y53.5322
G01 X112.5457 Y53.5110
G01 X112.5141 Y53.4910
G01 X112.4821 Y53.4728
G01 X112.4492 Y53.4563
G01 X112.4319 Y53.4483
G01 X112.3979 Y53.4342
G01 X112.3800 Y53.4276
G01 X112.3451 Y53.4161
G01 X112.3096 Y53.4062
G01 X112.2911 Y53.4018
G01 X112.2550 Y53.3947
G01 X112.2362 Y53.3916
G01 X112.1997 Y53.3871
G01 X112.1629 Y53.3844
G01 X112.1439 Y53.3837
G01 X112.1071 Y53.3837
G01 X112.0881 Y53.3844
G01 X112.0514 Y53.3871
G01 X112.0148 Y53.3916
G01 X111.9961 Y53.3947
G01 X111.9599 Y53.4018
G01 X111.9414 Y53.4062
G01 X111.9060 Y53.4161
G01 X111.8710 Y53.4276
G01 X111.8532 Y53.4342
G01 X111.8192 Y53.4483
G01 X111.8019 Y53.4563
G01 X111.7690 Y53.4728
G01 X111.7369 Y53.4910
G01 X111.7207 Y53.5009
G01 X111.6901 Y53.5214
G01 X111.6747 Y53.5325
G01 X111.6457 Y53.5552
G01 X111.6178 Y53.5792
G01 X111.5907 Y53.6050
G01 X111.5653 Y53.6317
G01 X111.5527 Y53.6459
G01 X111.5293 Y53.6744
G01 X111.5178 Y53.6895
G01 X111.4966 Y53.7196
G01 X111.4769 Y53.7507
G01 X111.4673 Y53.7672
G01 X111.4500 Y53.7996
G01 X111.4417 Y53.8168
G01 X111.4267 Y53.8504
G01 X111.4135 Y53.8848
G01 X111.4073 Y53.9027
G01 X111.3966 Y53.9380
G01 X111.3918 Y53.9564
G01 X111.3837 Y53.9923
G01 X111.3774 Y54.0286
G01 X111.3748 Y54.0474
G01 X111.3712 Y54.0841
G01 X111.3697 Y54.1122
G01 X111.3692 Y54.1399
G01 X111.3692 Y76.5479
G01 X21.8255 Y128.2450
G01 X2.7627 Y117.2661
G01 X2.7627 Y13.8708
G01 X22.2038 Y2.6616
G01 X22.2274 Y2.6474
G01 X22.2511 Y2.6319
G01 X22.2810 Y2.6105
G01 X22.3103 Y2.5873
G01 X22.3380 Y2.5630
G01 X22.3650 Y2.5370
G01 X22.3901 Y2.5101
G01 X22.4144 Y2.4816
G01 X22.4368 Y2.4524
G01 X22.4581 Y2.4216
G01 X22.4776 Y2.3904
G01 X22.4958 Y2.3577
G01 X22.5121 Y2.3247
G01 X22.5270 Y2.2903
G01 X22.5400 Y2.2559
G01 X22.5515 Y2.2203
G01 X22.5610 Y2.1847
G01 X22.5652 Y2.1662
G01 X22.5722 Y2.1300
G01 X22.5774 Y2.0929
G01 X22.5807 Y2.0563
G01 X22.5822 Y2.0189
G01 X22.5819 Y1.9820
G01 X22.5798 Y1.9447
G01 X22.5759 Y1.9081
G01 X22.5701 Y1.8711
G01 X22.5627 Y1.8350
G01 X22.5535 Y1.7994
G01 X22.5423 Y1.7636
G01 X22.5297 Y1.7291
G01 X22.5151 Y1.6946
G01 X22.4991 Y1.6614
G01 X22.4812 Y1.6286
G01 X22.4621 Y1.5971
G01 X22.4516 Y1.5812
G01 X22.4301 Y1.5513
G01 X22.4069 Y1.5220
G01 X22.3826 Y1.4943
G01 X22.3566 Y1.4674
G01 X22.3298 Y1.4422
